(METICULOUSSLED_FULLYMASLOWD_18MM PLYWOOD)
(T1  D=6.35 CR=0 - ZMIN=-19 - FLAT END MILL)
(T2  D=3.175 CR=0 - ZMIN=-15.875 - FLAT END MILL)
(T3  D=3.125 CR=0 TAPER=30DEG - ZMIN=-2.489 - CHAMFER MILL)
(T4  D=3.175 CR=0 TAPER=118DEG - ZMIN=-3.175 - DRILL)
G0 G40 G90 G17
G21

(GUSSET ENGRAVE L)
T3 M6
M3 S10000
G0 X183.557 Y444.376
G0 Z15
G0 Z5
G1 Z-2.489 F100.
G1 X184.273 Y445.127 F200.
G1 X184.953 Y445.913
G1 X185.596 Y446.73
G1 X186.198 Y447.577
G1 X186.761 Y448.455
G1 X187.282 Y449.361
G1 X187.759 Y450.293
G1 X188.192 Y451.251
G1 X188.579 Y452.234
G1 X188.92 Y453.238
G1 X189.21 Y454.263
G1 X189.452 Y455.31
G1 X189.643 Y456.375
G1 X189.78 Y457.457
G1 X189.864 Y458.556
G1 X189.892 Y459.671
G1 X189.864 Y460.785
G1 X189.78 Y461.884
G1 X189.643 Y462.966
G1 X189.452 Y464.032
G1 X189.21 Y465.078
G1 X188.92 Y466.103
G1 X188.579 Y467.107
G1 X188.192 Y468.09
G1 X187.759 Y469.048
G1 X187.282 Y469.98
G1 X186.761 Y470.886
G1 X186.198 Y471.764
G1 X185.596 Y472.611
G1 X184.953 Y473.429
G1 X184.274 Y474.213
G1 X183.556 Y474.965
G1 X182.804 Y475.683
G1 X182.02 Y476.362
G1 X181.202 Y477.005
G1 X180.355 Y477.607
G1 X179.477 Y478.17
G1 X178.571 Y478.691
G1 X177.639 Y479.168
G1 X176.681 Y479.601
G1 X175.698 Y479.988
G1 X174.694 Y480.329
G1 X173.669 Y480.619
G1 X172.623 Y480.861
G1 X171.557 Y481.052
G1 X170.475 Y481.189
G1 X169.376 Y481.273
G1 X168.262 Y481.301
G1 X167.147 Y481.273
G1 X166.048 Y481.189
G1 X164.966 Y481.052
G1 X163.901 Y480.861
G1 X162.854 Y480.619
G1 X161.829 Y480.329
G1 X160.825 Y479.989
G1 X159.844 Y479.601
G1 X158.885 Y479.168
G1 X157.953 Y478.691
G1 X157.047 Y478.17
G1 X156.169 Y477.607
G1 X155.321 Y477.005
G1 X154.504 Y476.362
G1 X153.718 Y475.682
G1 X152.967 Y474.966
G1 X152.25 Y474.213
G1 X151.57 Y473.429
G1 X150.928 Y472.612
G1 X150.325 Y471.763
G1 X149.762 Y470.886
G1 X149.242 Y469.98
G1 X148.764 Y469.047
G1 X148.331 Y468.09
G1 X147.944 Y467.108
G1 X147.604 Y466.103
G1 X147.312 Y465.077
G1 X147.071 Y464.032
G1 X146.881 Y462.967
G1 X146.744 Y461.884
G1 X146.66 Y460.785
G1 X146.632 Y459.671
G1 X146.66 Y458.556
G1 X146.744 Y457.457
G1 X146.881 Y456.374
G1 X147.071 Y455.31
G1 X147.312 Y454.264
G1 X147.604 Y453.238
G1 X147.944 Y452.233
G1 X148.331 Y451.251
G1 X148.764 Y450.294
G1 X149.242 Y449.361
G1 X149.762 Y448.455
G1 X150.325 Y447.578
G1 X150.928 Y446.73
G1 X151.57 Y445.913
G1 X152.251 Y445.127
G1 X152.967 Y444.376
G1 X153.718 Y443.66
G1 X154.504 Y442.979
G1 X155.321 Y442.337
G1 X156.169 Y441.734
G1 X157.047 Y441.171
G1 X157.953 Y440.65
G1 X158.885 Y440.173
G1 X159.844 Y439.74
G1 X160.825 Y439.352
G1 X161.829 Y439.012
G1 X162.854 Y438.722
G1 X163.901 Y438.48
G1 X164.966 Y438.289
G1 X166.048 Y438.152
G1 X167.147 Y438.068
G1 X168.262 Y438.04
G1 X169.376 Y438.068
G1 X170.475 Y438.152
G1 X171.557 Y438.289
G1 X172.623 Y438.48
G1 X173.669 Y438.722
G1 X174.694 Y439.012
G1 X175.698 Y439.353
G1 X176.681 Y439.74
G1 X177.639 Y440.173
G1 X178.571 Y440.65
G1 X179.477 Y441.171
G1 X180.354 Y441.733
G1 X181.202 Y442.337
G1 X182.02 Y442.979
G1 X182.804 Y443.659
G1 X183.557 Y444.376
G0 Z5
G0 X155.866 Y448.04
G1 Z-2.489 F100.
G1 X155.858 Y448.038 F200.
G1 X155.668 Y447.982
G2 X155.391 Y447.928 I-0.42 J1.426
G1 X155.194 Y447.909
G2 X154.909 I-0.143 J1.48
G1 X154.711 Y447.928
G2 X154.427 Y447.983 I0.142 J1.48
G1 X154.233 Y448.041
G2 X153.957 Y448.155 I0.426 J1.425
G1 X153.772 Y448.254
G2 X153.527 Y448.419 I0.702 J1.311
G1 X153.366 Y448.552
G2 X153.154 Y448.766 I0.947 J1.146
G1 X153.027 Y448.924
G2 X152.867 Y449.17 I1.159 J0.932
G1 X152.775 Y449.347
G2 X152.67 Y449.604 I1.319 J0.686
G1 X152.613 Y449.793
G2 X152.557 Y450.079 I1.424 J0.429
G1 X152.538 Y450.276
G2 Y450.56 I1.48 J0.143
G1 X152.557 Y450.759
G2 X152.612 Y451.044 I1.48 J-0.141
G1 X152.67 Y451.238
G2 X152.786 Y451.517 I1.425 J-0.426
G1 X152.885 Y451.701
G1 X152.96 Y451.826
G1 X153.541 Y452.689
G1 X153.771 Y452.76 Z-2.227
G1 X153.882 Y452.796 Z-2.102
G1 X153.988 Y452.835 Z-1.987
G1 X154.168 Y452.905 Z-1.796
G1 X154.26 Y452.943 Z-1.7
G1 X154.349 Y452.984 Z-1.612
G1 X154.582 Y453.099 Z-1.388
G1 X154.646 Y453.134 Z-1.33
G1 X154.86 Y453.261 Z-1.145
G1 X154.914 Y453.297 Z-1.103
G1 X155.108 Y453.435 Z-0.957
G1 X155.152 Y453.471 Z-0.928
G1 X155.357 Y453.645 Z-0.802
G1 X155.394 Y453.681 Z-0.784
G1 X155.569 Y453.863 Z-0.708
G1 X155.598 Y453.898 Z-0.7
G1 X155.723 Y454.055 Z-0.673
G1 X155.773 Y454.125 Z-0.668
G1 X155.88 Y454.291 Z-0.675
G1 X155.922 Y454.363 Z-0.684
G1 X156.034 Y454.582 Z-0.734
G1 X156.053 Y454.625 Z-0.749
G1 X156.147 Y454.864 Z-0.845
G1 X156.163 Y454.915 Z-0.87
G1 X156.223 Y455.118 Z-0.981
G1 X156.241 Y455.186 Z-1.021
G1 X156.256 Y455.255 Z-1.067
G1 X156.308 Y455.544 Z-1.271
G1 X156.391 Y456.117 Z-1.705
G1 X156.48 Y456.654 Z-2.096
G1 X156.587 Y457.219 Z-2.489
G1 X166.043 Y471.281
G1 X165.865 Y471.249
G1 X165.29 Y471.116
G1 X164.726 Y470.955
G1 X164.172 Y470.767
G1 X163.632 Y470.555
G1 X163.106 Y470.316
G1 X162.593 Y470.052
G1 X162.094 Y469.765
G1 X161.61 Y469.455
G1 X161.143 Y469.122
G1 X160.691 Y468.768
G1 X160.259 Y468.393
G1 X159.845 Y467.999
G1 X159.451 Y467.584
G1 X159.074 Y467.15
G1 X158.721 Y466.701
G1 X158.388 Y466.233
G1 X158.077 Y465.75
G1 X157.791 Y465.252
G1 X157.528 Y464.739
G1 X157.289 Y464.211
G1 X157.075 Y463.671
G1 X156.889 Y463.119
G1 X156.728 Y462.553
G1 X156.595 Y461.979
G1 X156.49 Y461.394
G1 X156.415 Y460.799
G1 X156.368 Y460.194
G1 X156.352 Y459.577
G1 X156.362 Y459.094
G1 X156.391 Y458.609
G1 X156.439 Y458.128
G1 X156.508 Y457.652
G1 X156.587 Y457.219
G1 X156.508 Y457.652
G1 X156.439 Y458.128
G1 X156.391 Y458.609
G1 X156.362 Y459.094
G1 X156.352 Y459.577
G1 X156.368 Y460.194
G1 X156.415 Y460.799
G1 X156.49 Y461.394
G1 X156.595 Y461.979
G1 X156.728 Y462.553
G1 X156.889 Y463.119
G1 X157.075 Y463.671
G1 X157.289 Y464.211
G1 X157.528 Y464.739
G1 X157.791 Y465.252
G1 X158.077 Y465.75
G1 X158.388 Y466.233
G1 X158.721 Y466.701
G1 X159.074 Y467.15
G1 X159.451 Y467.584
G1 X159.845 Y467.999
G1 X160.259 Y468.393
G1 X160.691 Y468.768
G1 X161.143 Y469.122
G1 X161.61 Y469.455
G1 X162.094 Y469.765
G1 X162.593 Y470.052
G1 X163.106 Y470.316
G1 X163.632 Y470.555
G1 X164.172 Y470.767
G1 X164.726 Y470.955
G1 X165.29 Y471.116
G1 X165.865 Y471.249
G1 X166.043 Y471.281
G1 X166.423 Y471.529 Z-2.182
G1 X166.998 Y471.883 Z-1.698
G1 X167.214 Y472.009 Z-1.51
G1 X167.292 Y472.052 Z-1.446
G1 X167.47 Y472.145 Z-1.308
G1 X167.535 Y472.178 Z-1.261
G1 X167.601 Y472.207 Z-1.219
G1 X167.779 Y472.277 Z-1.107
G1 X167.837 Y472.298 Z-1.073
G1 X168.072 Y472.367 Z-0.963
G1 X168.123 Y472.381 Z-0.942
G1 X168.263 Y472.41 Z-0.898
G1 X168.349 Y472.425 Z-0.868
G1 X168.44 Y472.437 Z-0.844
G1 X168.617 Y472.452 Z-0.81
G1 X168.706 Y472.457 Z-0.8
G1 X168.837 Z-0.794
G1 X168.93 Y472.454 Z-0.788
G1 X169.152 Y472.431 Z-0.803
G1 X169.239 Y472.418 Z-0.816
G1 X169.404 Y472.385 Z-0.853
G1 X169.471 Y472.37 Z-0.868
G1 X169.7 Y472.298 Z-0.947
G1 X169.75 Y472.281 Z-0.967
G1 X169.951 Y472.199 Z-1.07
G1 X170.031 Y472.162 Z-1.112
G1 X170.256 Y472.04 Z-1.262
G1 X170.317 Y472.004 Z-1.307
G1 X170.468 Y471.905 Z-1.436
G1 X170.537 Y471.857 Z-1.494
G1 X170.61 Y471.804 Z-1.56
G1 X170.682 Y471.746 Z-1.634
G1 X170.837 Y471.617 Z-1.8
G1 X170.944 Y471.522 Z-1.925
G1 X171.151 Y471.309 Z-2.197
G1 X171.248 Y471.204 Z-2.334
G1 X171.343 Y471.092 Z-2.484
G1 X171.346 Y471.088 Z-2.489
G1 X171.352 Y470.913
G2 X171.337 Y470.645 I-1.486 J-0.05
G1 X171.31 Y470.463
G1 X171.285 Y470.337
G1 X169.151 Y461.37
G1 X166.021 Y454.429 Z0
G1 X169.151 Y461.37 Z-2.489
G1 X174.866 Y469.488
G1 X175.293 Y469.567 Z-1.962
G1 X176.07 Y469.692 Z-0.986
G1 X176.842 Y469.8 Z0
G1 X176.07 Y469.692 Z-0.986
G1 X175.293 Y469.567 Z-1.962
G1 X174.866 Y469.488 Z-2.489
G1 X174.684 Y469.611
G1 X174.238 Y469.884
G1 X173.785 Y470.136
G1 X173.321 Y470.366
G1 X172.847 Y470.577
G1 X172.365 Y470.766
G1 X171.875 Y470.934
G1 X171.377 Y471.08
G1 X171.346 Y471.088
G0 Z5
G0 X153.541 Y452.689
G1 Z-2.489 F100.
G1 X153.447 Y452.733 F200.
G1 X153.356 Y452.783
G1 X153.221 Y452.864
G1 X153.124 Y452.927
G1 X153.032 Y452.998
G1 X152.91 Y453.1
G1 X152.829 Y453.173
G1 X152.754 Y453.251
G1 X152.647 Y453.371
G1 X152.569 Y453.467
G1 X152.499 Y453.568
G1 X152.412 Y453.706
G1 X152.354 Y453.808
G1 X152.303 Y453.913
G1 X152.237 Y454.067
G1 X152.185 Y454.209
G1 X151.998 Y454.806
G1 X151.981 Y454.863
G1 X151.818 Y455.467
G1 X151.804 Y455.526
G1 X151.666 Y456.136
G1 X151.654 Y456.195
G1 X151.541 Y456.81
G1 X151.531 Y456.87
G1 X151.443 Y457.49
G1 X151.436 Y457.55
G1 X151.373 Y458.174
G1 X151.368 Y458.233
G1 X151.33 Y458.861
G1 X151.327 Y458.92
G1 X151.314 Y459.55
G1 X151.315 Y459.62
G1 X151.336 Y460.415
G1 X151.339 Y460.488
G1 X151.398 Y461.272
G1 X151.406 Y461.349
G1 X151.505 Y462.122
G1 X151.516 Y462.195
G1 X151.652 Y462.955
G1 X151.667 Y463.028
G1 X151.84 Y463.776
G1 X151.859 Y463.849
G1 X152.068 Y464.582
G1 X152.09 Y464.651
G1 X152.333 Y465.369
G1 X152.358 Y465.438
G1 X152.635 Y466.14
G1 X152.664 Y466.208
G1 X152.974 Y466.892
G1 X153.005 Y466.956
G1 X153.347 Y467.623
G1 X153.382 Y467.688
G1 X153.755 Y468.335
G1 X153.792 Y468.395
G1 X154.195 Y469.023
G1 X154.234 Y469.082
G1 X154.665 Y469.688
G1 X154.708 Y469.745
G1 X155.167 Y470.329
G1 X155.213 Y470.385
G1 X155.7 Y470.946
G1 X155.746 Y470.996
G1 X156.258 Y471.534
G1 X156.309 Y471.585
G1 X156.846 Y472.097
G1 X156.898 Y472.145
G1 X157.459 Y472.631
G1 X157.514 Y472.676
G1 X158.099 Y473.136
G1 X158.156 Y473.179
G1 X158.762 Y473.61
G1 X158.82 Y473.649
G1 X159.447 Y474.052
G1 X159.511 Y474.09
G1 X160.159 Y474.462
G1 X160.22 Y474.496
G1 X160.886 Y474.838
G1 X160.952 Y474.87
G1 X161.637 Y475.18
G1 X161.704 Y475.208
G1 X162.406 Y475.485
G1 X162.474 Y475.51
G1 X163.192 Y475.754
G1 X163.264 Y475.776
G1 X163.997 Y475.984
G1 X164.068 Y476.003
G1 X164.815 Y476.176
G1 X164.887 Y476.19
G1 X165.648 Y476.327
G1 X165.724 Y476.339
G1 X166.497 Y476.437
G1 X166.571 Y476.445
G1 X167.355 Y476.505
G1 X167.431 Y476.508
G1 X168.225 Y476.528
G1 X168.295 Y476.529
G1 X168.973 Y476.514
G1 X169.035 Y476.511
G1 X169.707 Y476.468
G1 X169.774 Y476.462
G1 X170.441 Y476.389
G1 X170.501 Y476.381
G1 X171.162 Y476.281
G1 X171.228 Y476.27
G1 X171.882 Y476.141
G1 X171.946 Y476.127
G1 X172.591 Y475.97
G1 X172.652 Y475.953
G1 X173.289 Y475.769
G1 X173.35 Y475.75
G1 X173.978 Y475.539
G1 X174.038 Y475.518
G1 X174.656 Y475.28
G1 X174.715 Y475.255
G1 X175.322 Y474.991
G1 X175.382 Y474.964
G1 X175.977 Y474.673
G1 X176.033 Y474.644
G1 X176.616 Y474.328
G1 X176.672 Y474.296
G1 X177.242 Y473.954
G1 X177.298 Y473.919
G1 X177.854 Y473.551
G1 X177.904 Y473.516
G1 X177.939 Y473.491
G1 X177.934 Y473.323 Z-2.248
G1 Y473.163 Z-2.024
G1 X177.941 Y472.838 Z-1.575
G1 X177.947 Y472.706 Z-1.396
G1 X177.959 Y472.582 Z-1.233
G1 X177.972 Y472.468 Z-1.087
G1 X177.99 Y472.288 Z-0.86
G1 X178.092 Y471.574 Z-0.001
G1 X177.99 Y472.288 Z-0.86
G1 X177.972 Y472.468 Z-1.087
G1 X177.959 Y472.582 Z-1.233
G1 X177.947 Y472.706 Z-1.396
G1 X177.941 Y472.838 Z-1.575
G1 X177.934 Y473.163 Z-2.024
G1 Y473.323 Z-2.248
G1 X177.939 Y473.491 Z-2.489
G1 X178.017 Y473.533
G1 X178.19 Y473.621
G2 X178.438 Y473.721 I0.674 J-1.325
G1 X178.622 Y473.776
G2 X178.893 Y473.83 I0.426 J-1.425
G1 X179.084 Y473.85
G2 X179.369 Y473.852 I0.155 J-1.479
G1 X179.562 Y473.835
G2 X179.833 Y473.786 I-0.13 J-1.481
G1 X180.022 Y473.733
G2 X180.295 Y473.626 I-0.401 J-1.432
G1 X180.476 Y473.534
G2 X180.716 Y473.381 I-0.674 J-1.325
G1 X180.875 Y473.257
G2 X181.085 Y473.058 I-0.914 J-1.172
G1 X181.214 Y472.909
G2 X181.378 Y472.679 I-1.124 J-0.973
G1 X181.475 Y472.511
G2 X181.592 Y472.254 I-1.288 J-0.743
G1 X181.655 Y472.072
G2 X181.72 Y471.81 I-1.405 J-0.486
G1 X181.749 Y471.62
G2 X181.765 Y471.334 I-1.47 J-0.224
G1 X181.757 Y471.141
G2 X181.72 Y470.871 I-1.486 J0.062
G1 X181.676 Y470.679
G2 X181.582 Y470.4 I-1.449 J0.332
G1 X181.499 Y470.216
G1 X181.44 Y470.098
G1 X181.243 Y469.748
G1 X181.264 Y469.741
G2 X181.529 Y469.628 I-0.45 J-1.417
G1 X181.704 Y469.532
G2 X181.944 Y469.367 I-0.715 J-1.304
G1 X182.099 Y469.237
G2 X182.309 Y469.022 I-0.955 J-1.139
G1 X182.439 Y468.858
G1 X182.499 Y468.777
G1 X182.553 Y468.693
G1 X183.118 Y467.741
G1 X183.169 Y467.647
G1 X183.662 Y466.661
G1 X183.705 Y466.566
G1 X184.126 Y465.551
G1 X184.164 Y465.45
G1 X184.51 Y464.408
G1 X184.54 Y464.306
G1 X184.811 Y463.241
G1 X184.833 Y463.137
G1 X185.028 Y462.054
G1 X185.043 Y461.95
G1 X185.161 Y460.851
G1 X185.169 Y460.746
G1 X185.209 Y459.636
G1 X185.21 Y459.55
G1 X185.196 Y458.891
G1 X185.193 Y458.832
G1 X185.153 Y458.178
G1 X185.148 Y458.116
G1 X185.081 Y457.469
G1 X185.073 Y457.406
G1 X184.979 Y456.765
G1 X184.969 Y456.705
G1 X184.849 Y456.07
G1 X184.835 Y456.006
G1 X184.689 Y455.38
G1 X184.674 Y455.322
G1 X184.502 Y454.703
G1 X184.483 Y454.643
G1 X184.285 Y454.032
G1 X184.264 Y453.971
G1 X184.04 Y453.37
G1 X184.018 Y453.313
G1 X183.769 Y452.721
G1 X183.742 Y452.661
G1 X183.467 Y452.08
G1 X183.44 Y452.026
G1 X183.141 Y451.455
G1 X183.11 Y451.399
G1 X182.785 Y450.839
G1 X182.754 Y450.787
G1 X182.405 Y450.238
G1 X182.369 Y450.185
G1 X181.995 Y449.649
G1 X181.959 Y449.6
G1 X181.561 Y449.077
G1 X181.509 Y449.011
G1 X181.452 Y448.949
G1 X181.319 Y448.81
G2 X181.109 Y448.628 I-1.074 J1.028
G1 X180.955 Y448.518
G2 X180.728 Y448.384 I-0.864 J1.21
G1 X180.557 Y448.303
G2 X180.292 Y448.207 I-0.637 J1.344
G1 X180.106 Y448.159
G1 X180.024 Y448.141
G1 X179.941 Y448.127
G1 X179.394 Y448.05
G1 X179.33 Y448.042
G1 X179.046 Y448.015
G1 X179.33 Y448.042
G1 X179.394 Y448.05
G1 X179.941 Y448.127
G1 X180.024 Y448.141
G1 X180.106 Y448.159
G1 X180.292 Y448.207
G3 X180.557 Y448.303 I-0.372 J1.44
G1 X180.728 Y448.384
G3 X180.955 Y448.518 I-0.637 J1.344
G1 X181.109 Y448.628
G3 X181.319 Y448.81 I-0.864 J1.21
G1 X181.452 Y448.949
G1 X181.509 Y449.011
G1 X181.561 Y449.077
G1 X181.959 Y449.6
G1 X181.995 Y449.649
G1 X182.369 Y450.185
G1 X182.405 Y450.238
G1 X182.754 Y450.787
G1 X182.785 Y450.839
G1 X183.11 Y451.399
G1 X183.141 Y451.455
G1 X183.44 Y452.026
G1 X183.467 Y452.08
G1 X183.742 Y452.661
G1 X183.769 Y452.721
G1 X184.018 Y453.313
G1 X184.04 Y453.37
G1 X184.264 Y453.971
G1 X184.285 Y454.032
G1 X184.483 Y454.643
G1 X184.502 Y454.703
G1 X184.674 Y455.322
G1 X184.689 Y455.38
G1 X184.835 Y456.006
G1 X184.849 Y456.07
G1 X184.969 Y456.705
G1 X184.979 Y456.765
G1 X185.073 Y457.406
G1 X185.081 Y457.469
G1 X185.148 Y458.116
G1 X185.153 Y458.178
G1 X185.193 Y458.832
G1 X185.196 Y458.891
G1 X185.21 Y459.55
G1 X185.209 Y459.636
G1 X185.169 Y460.746
G1 X185.161 Y460.851
G1 X185.043 Y461.95
G1 X185.028 Y462.054
G1 X184.833 Y463.137
G1 X184.811 Y463.241
G1 X184.54 Y464.306
G1 X184.51 Y464.408
G1 X184.164 Y465.45
G1 X184.126 Y465.551
G1 X183.705 Y466.566
G1 X183.662 Y466.661
G1 X183.169 Y467.647
G1 X183.118 Y467.741
G1 X182.553 Y468.693
G1 X182.499 Y468.777
G1 X182.439 Y468.858
G1 X182.309 Y469.022
G3 X182.099 Y469.237 I-1.165 J-0.924
G1 X181.944 Y469.367
G3 X181.704 Y469.532 I-0.955 J-1.139
G1 X181.529 Y469.628
G3 X181.264 Y469.741 I-0.715 J-1.304
G1 X181.243 Y469.748
G1 X181.023 Y469.661 Z-2.23
G1 X180.892 Y469.605 Z-2.078
G1 X180.767 Y469.545 Z-1.938
G1 X180.555 Y469.435 Z-1.706
G1 X180.462 Y469.385 Z-1.607
G1 X180.36 Y469.323 Z-1.503
G1 X180.169 Y469.198 Z-1.311
G1 X180.1 Y469.15 Z-1.244
G1 X180.035 Y469.1 Z-1.184
G1 X179.863 Y468.961 Z-1.031
G1 X179.811 Y468.917 Z-0.987
G1 X179.762 Y468.872 Z-0.949
G1 X179.569 Y468.679 Z-0.808
G1 X179.535 Y468.639 Z-0.787
G1 X179.398 Y468.475 Z-0.71
G1 X179.343 Y468.4 Z-0.684
G1 X179.21 Y468.195 Z-0.636
G1 X179.19 Y468.159 Z-0.633
G1 X179.09 Y467.967 Z-0.625
G1 X179.064 Y467.909 Z-0.63
G1 X178.989 Y467.725 Z-0.656
G1 X178.963 Y467.648 Z-0.673
G1 X178.892 Y467.41 Z-0.748
G1 X178.882 Y467.362 Z-0.768
G1 X178.833 Y467.103 Z-0.89
G1 X178.827 Y467.045 Z-0.923
G1 X178.809 Y466.829 Z-1.053
G1 X178.805 Y466.754 Z-1.101
G1 X178.804 Y466.678 Z-1.156
G1 X178.81 Y466.385 Z-1.38
G1 X178.845 Y465.661 Z-1.969
G1 X178.864 Y465.357 Z-2.21
G1 X178.873 Y464.979 Z-2.489
G1 X179.101 Y464.522
G1 X179.425 Y463.741
G1 X179.691 Y462.938
G1 X179.9 Y462.119
G1 X180.05 Y461.285
G1 X180.141 Y460.438
G1 X180.172 Y459.571
G1 X180.162 Y459.095
G1 X180.133 Y458.611
G1 X180.086 Y458.133
G1 X180.02 Y457.661
G1 X179.936 Y457.193
G1 X179.833 Y456.731
G1 X179.712 Y456.275
G1 X179.572 Y455.823
G1 X179.416 Y455.38
G1 X179.24 Y454.942
G1 X179.047 Y454.511
G1 X178.836 Y454.088
G1 X178.608 Y453.671
G1 X178.362 Y453.263
G1 X178.188 Y452.999
G1 X178.237 Y452.911 Z-2.333
G1 X178.385 Y452.664 Z-1.884
G1 X178.981 Y451.627 Z0
G1 X178.385 Y452.664 Z-1.884
G1 X178.237 Y452.911 Z-2.333
G1 X178.188 Y452.999 Z-2.489
G1 X177.986 Y452.993
G1 X177.744 Y452.995
G1 X177.527 Y453.007
G1 X177.333 Y453.029
G1 X177.157 Y453.059
G1 X177.007 Y453.094
G1 X176.874 Y453.135
G1 X176.763 Y453.178
G1 X176.672 Y453.223
G1 X176.595 Y453.269
G1 X176.532 Y453.314
G1 X176.481 Y453.36
G1 X176.436 Y453.407
G1 X176.406 Y453.448
G1 X176.314 Y453.603
G1 X176.234 Y453.788
G1 X176.163 Y454.023
G1 X176.105 Y454.31
G1 X176.066 Y454.644
G1 X176.047 Y455.023
G1 X176.053 Y455.442
G1 X176.082 Y455.899
G1 X176.134 Y456.386
G1 X176.21 Y456.9
G1 X176.31 Y457.441
G1 X176.43 Y458.005
G1 X176.571 Y458.587
G1 X176.729 Y459.177
G1 X177.106 Y460.421
G1 X177.543 Y461.692
G1 X178.03 Y462.98
G1 X178.559 Y464.267
G1 X178.873 Y464.979
G0 Z5
G0 X156.072 Y450.002
G1 Z-0.001 F100.
G1 X156.086 Y449.724 Z-0.289 F200.
G1 Y449.425 Z-0.617
G1 X156.085 Y449.365 Z-0.686
G1 X156.05 Y449.015 Z-1.117
G1 X156.036 Y448.907 Z-1.255
G1 X156.026 Y448.839 Z-1.347
G1 X155.962 Y448.466 Z-1.865
G1 X155.936 Y448.33 Z-2.059
G1 X155.904 Y448.188 Z-2.267
G1 X155.866 Y448.04 Z-2.489
G1 X156.14 Y447.743
G1 X156.2 Y447.681
G1 X156.832 Y447.071
G1 X156.894 Y447.015
G1 X157.557 Y446.443
G1 X157.623 Y446.389
G1 X158.315 Y445.858
G1 X158.383 Y445.809
G1 X159.103 Y445.319
G1 X159.174 Y445.274
G1 X159.919 Y444.826
G1 X159.992 Y444.784
G1 X160.761 Y444.379
G1 X160.837 Y444.342
G1 X161.628 Y443.981
G1 X161.706 Y443.948
G1 X162.518 Y443.632
G1 X162.597 Y443.604
G1 X163.427 Y443.334
G1 X163.509 Y443.31
G1 X164.357 Y443.087
G1 X164.438 Y443.068
G1 X165.301 Y442.892
G1 X165.387 Y442.877
G1 X166.264 Y442.751
G1 X166.347 Y442.742
G1 X167.235 Y442.665
G1 X167.322 Y442.66
G1 X168.221 Y442.635
G1 X168.289 Y442.634
G1 X168.887 Y442.645
G1 X168.945 Y442.648
G1 X169.539 Y442.682
G1 X169.594 Y442.686
G1 X170.185 Y442.742
G1 X170.244 Y442.748
G1 X170.83 Y442.827
G1 X170.883 Y442.836
G1 X171.464 Y442.936
G1 X171.523 Y442.947
G1 X172.099 Y443.07
G1 X172.152 Y443.082
G1 X172.722 Y443.226
G1 X172.779 Y443.242
G1 X173.342 Y443.408
G1 X173.395 Y443.425
G1 X173.951 Y443.612
G1 X174.006 Y443.631
G1 X174.555 Y443.84
G1 X174.606 Y443.861
G1 X175.147 Y444.09
G1 X175.2 Y444.114
G1 X175.733 Y444.365
G1 X175.785 Y444.39
G1 X176.309 Y444.662
G1 X176.358 Y444.689
G1 X176.872 Y444.981
G1 X176.921 Y445.01
G1 X177.426 Y445.323
G1 X177.475 Y445.354
G1 X177.97 Y445.688
G1 X178.04 Y445.739
G1 X178.108 Y445.794
G1 X178.266 Y445.93
G3 X178.474 Y446.15 I-0.97 J1.127
G1 X178.598 Y446.311
G3 X178.753 Y446.559 I-1.178 J0.907
G1 X178.841 Y446.737
G3 X178.941 Y446.998 I-1.333 J0.659
G1 X178.994 Y447.189
G3 X179.044 Y447.474 I-1.433 J0.398
G1 X179.059 Y447.671
G3 X179.053 Y447.956 I-1.483 J0.113
G1 X179.046 Y448.015
G1 X178.894 Y448.138 Z-2.251
G1 X178.779 Y448.226 Z-2.079
G1 X178.721 Y448.27 Z-1.997
G1 X178.427 Y448.475 Z-1.615
G1 X178.332 Y448.538 Z-1.498
G1 X178.236 Y448.594 Z-1.393
G1 X178.196 Y448.616 Z-1.351
G1 X178.026 Y448.715 Z-1.178
G1 X177.956 Y448.754 Z-1.11
G1 X177.885 Y448.788 Z-1.051
G1 X177.676 Y448.884 Z-0.886
G1 X177.638 Y448.901 Z-0.857
G1 X177.571 Y448.928 Z-0.816
G1 X177.373 Y449.002 Z-0.707
G1 X177.329 Y449.017 Z-0.685
G1 X177.179 Y449.058 Z-0.628
G1 X177.089 Y449.084 Z-0.6
G1 X177.015 Y449.102 Z-0.583
G1 X176.82 Y449.14 Z-0.557
G1 X176.764 Y449.148 Z-0.554
G1 X176.715 Y449.153 Z-0.555
G1 X176.556 Y449.174 Z-0.568
G1 X176.481 Y449.18 Z-0.581
G1 X176.279 Y449.186 Z-0.632
G1 X176.228 Y449.187 Z-0.649
G1 X175.984 Y449.18 Z-0.765
G1 X175.93 Y449.177 Z-0.793
G1 X175.792 Y449.16 Z-0.88
G1 X175.652 Y449.146 Z-0.978
G1 X175.305 Y449.103 Z-1.239
G1 X174.796 Y449.058 Z-1.652
G1 X174.694 Y449.051 Z-1.739
G1 X174.496 Y449.043 Z-1.912
G1 X174.254 Y449.042 Z-2.111
G1 X174.131 Y449.044 Z-2.215
G1 X173.821 Y449.055 Z-2.489
G1 X173.728 Y449.115
G1 X173.619 Y449.192
G1 X173.323 Y449.422
G1 X173.224 Y449.506
G1 X172.948 Y449.762
G1 X172.854 Y449.857
G1 X172.601 Y450.138
G1 X172.521 Y450.235
G1 X172.289 Y450.541
G1 X172.203 Y450.668
G1 X171.922 Y451.131
G1 X171.879 Y451.206
G1 X171.841 Y451.284
G1 X171.612 Y451.785
G1 X171.581 Y451.857
G1 X171.554 Y451.93
G1 X171.374 Y452.466
G1 X171.336 Y452.599
G1 X171.203 Y453.166
G1 X171.18 Y453.287
G1 X171.091 Y453.884
G1 X171.079 Y453.991
G1 X171.032 Y454.615
G1 X171.028 Y454.709
G1 X171.021 Y455.277
G1 X171.071 Y455.434 Z-2.403
G1 X171.316 Y456.154 Z-2.033
G1 X171.579 Y456.867 Z-1.694
G1 X171.858 Y457.575 Z-1.383
G1 X172.152 Y458.284 Z-1.092
G1 X172.46 Y458.992 Z-0.823
G1 X172.78 Y459.698 Z-0.572
G1 X173.112 Y460.406 Z-0.336
G1 X173.658 Y461.518 Z0
G1 X173.112 Y460.406 Z-0.336
G1 X172.78 Y459.698 Z-0.572
G1 X172.46 Y458.992 Z-0.823
G1 X172.152 Y458.284 Z-1.092
G1 X171.858 Y457.575 Z-1.383
G1 X171.579 Y456.867 Z-1.694
G1 X171.316 Y456.154 Z-2.033
G1 X171.071 Y455.434 Z-2.403
G1 X171.021 Y455.277 Z-2.489
G1 X165.843 Y447.922
G1 X166.097 Y447.867
G1 X166.808 Y447.76
G1 X167.53 Y447.694
G1 X168.257 Y447.672
G1 X169.182 Y447.707
G1 X170.089 Y447.811
G1 X170.979 Y447.982
G1 X171.851 Y448.221
G1 X172.701 Y448.526
G1 X173.527 Y448.895
G1 X173.821 Y449.055
G1 X173.527 Y448.895
G1 X172.701 Y448.526
G1 X171.851 Y448.221
G1 X170.979 Y447.982
G1 X170.089 Y447.811
G1 X169.182 Y447.707
G1 X168.257 Y447.672
G1 X167.53 Y447.694
G1 X166.808 Y447.76
G1 X166.097 Y447.867
G1 X165.843 Y447.922
G1 X165.61 Y447.831 Z-2.249
G1 X165.522 Y447.798 Z-2.162
G1 X165.329 Y447.734 Z-1.983
G1 X165.151 Y447.682 Z-1.815
G1 X165.058 Y447.657 Z-1.73
G1 X164.965 Y447.636 Z-1.652
G1 X164.874 Y447.619 Z-1.582
G1 X164.607 Y447.576 Z-1.386
G1 X164.513 Y447.564 Z-1.321
G1 X164.403 Y447.559 Z-1.251
G1 X164.144 Y447.555 Z-1.1
G1 X164.062 Y447.557 Z-1.055
G1 X163.981 Y447.563 Z-1.02
G1 X163.732 Y447.589 Z-0.923
G1 X163.662 Y447.601 Z-0.896
G1 X163.603 Y447.614 Z-0.878
G1 X163.393 Y447.668 Z-0.825
G1 X163.34 Y447.683 Z-0.814
G1 X163.288 Y447.7 Z-0.808
G1 X163.08 Y447.777 Z-0.794
G1 X163.045 Y447.791 Z-0.793
G1 X162.991 Y447.815 Z-0.796
G1 X162.829 Y447.9 Z-0.805
G1 X162.789 Y447.922 Z-0.809
G1 X162.598 Y448.042 Z-0.853
G1 X162.557 Y448.07 Z-0.865
G1 X162.374 Y448.21 Z-0.945
G1 X162.301 Y448.274 Z-0.983
G1 X162.171 Y448.399 Z-1.062
G1 X162.126 Y448.444 Z-1.092
G1 X161.961 Y448.633 Z-1.237
G1 X161.917 Y448.686 Z-1.28
G1 X161.816 Y448.822 Z-1.399
G1 X161.763 Y448.899 Z-1.462
G1 X161.713 Y448.974 Z-1.526
G1 X161.666 Y449.054 Z-1.598
G1 X161.567 Y449.229 Z-1.761
G1 X161.513 Y449.329 Z-1.857
G1 X161.463 Y449.435 Z-1.963
G1 X161.411 Y449.548 Z-2.08
G1 X161.376 Y449.632 Z-2.162
G1 X161.327 Y449.756 Z-2.286
G1 X161.254 Y449.954 Z-2.489
G1 X163.163 Y457.971
G1 X166.398 Y465.358 Z0
G1 X163.163 Y457.971 Z-2.489
G1 X159.121 Y451.961
G1 X159.41 Y451.618
G1 X159.905 Y451.098
G1 X160.426 Y450.612
G1 X160.974 Y450.159
G1 X161.254 Y449.954
G1 X160.974 Y450.159
G1 X160.426 Y450.612
G1 X159.905 Y451.098
G1 X159.41 Y451.618
G1 X159.121 Y451.961
G1 X158.647 Y451.935 Z-1.833
G1 X157.351 Y451.904 Z0
G0 Z5
G0 X199.077 Y447.359
G1 Z-0.001 F100.
G1 X200.514 Y448.797 Z-2.489 F200.
G1 Y470.273
G1 X199.077 Y471.709 Z-0.001
G1 X200.514 Y470.273 Z-2.489
G1 X204.198 Y470.275
G1 X204.837
G1 X205.832 Y471.712 Z0
G1 X204.837 Y470.275 Z-2.489
G1 X210.874 Y454.186
G3 X212.266 Y453.221 I1.392 J0.522
G1 X212.34
G3 X213.732 Y454.186 I0 J1.487
G1 X219.767 Y470.27
G1 X218.772 Y471.707 Z0
G1 X219.767 Y470.27 Z-2.489
G1 X220.406
G1 X220.407
G1 X224.092 Y470.272
G1 Y448.795
G1 X225.529 Y447.359 Z-0.001
G1 X224.092 Y448.795 Z-2.489
G1 X221.893 Y448.794
G1 X220.456 Y447.356 Z-0.001
G1 X221.893 Y448.794 Z-2.489
G1 Y463.121
G3 X220.406 Y464.608 I-1.487 J0
G3 X219.014 Y463.645 I0 J-1.487
G1 X213.423 Y448.793
G1 X214.417 Y447.356 Z0
G1 X213.423 Y448.793 Z-2.489
G1 X211.184
G1 X210.209 Y447.384 Z-0.048
G1 X210.189 Y447.36 Z-0.001
G1 X210.209 Y447.384 Z-0.048
G1 X211.184 Y448.793 Z-2.489
G1 X205.589 Y463.65
G3 X203.674 Y464.517 I-1.391 J-0.524
G3 X202.711 Y463.126 I0.524 J-1.391
G1 Y448.798
G1 X200.514 Y448.797
G1 X202.711 Y448.798
G1 X204.148 Y447.362 Z-0.001
G0 Z5
G0 X224.093 Y470.272
G1 Z-2.488 F100.
G1 X225.529 Y471.709 Z-0.001 F200.
G0 Z5
G0 X227.839 Y459.968
G1 Z-0.001 F100.
G1 X228.46 Y460.54 Z-1.074 F200.
G1 X229.015 Y461.001 Z-1.946
G1 X229.399 Y461.285 Z-2.489
G1 X231.688 Y461.103
G1 X231.873 Y460.747 Z-1.901
G1 X231.929 Y460.644 Z-1.729
G1 X231.986 Y460.546 Z-1.569
G1 X232.205 Y460.183 Z-0.972
G1 X232.24 Y460.131 Z-0.887
G1 X232.468 Y459.804 Z-0.354
G1 X232.639 Y459.586 Z-0.001
G1 X232.468 Y459.804 Z-0.354
G1 X232.24 Y460.131 Z-0.887
G1 X232.205 Y460.183 Z-0.972
G1 X231.986 Y460.546 Z-1.569
G1 X231.929 Y460.644 Z-1.729
G1 X231.873 Y460.747 Z-1.901
G1 X231.688 Y461.103 Z-2.489
G1 X231.733 Y461.173
G1 X231.782 Y461.242
G1 X231.9 Y461.397
G1 X231.951 Y461.46
G1 X232.005 Y461.52
G1 X232.137 Y461.659
G1 X232.212 Y461.732
G1 X232.291 Y461.8
G1 X232.585 Y462.033
G1 X232.683 Y462.104
G1 X232.786 Y462.167
G1 X233.104 Y462.344
G1 X233.183 Y462.385
G1 X233.264 Y462.421
G1 X233.584 Y462.552
G1 X233.712 Y462.598
G1 X234.013 Y462.69
G1 X234.116 Y462.717
G1 X234.378 Y462.777
G1 X234.517 Y462.802
G1 X234.823 Y462.842
G1 X234.956 Y462.854
G1 X235.302 Y462.868
G1 X235.413
G1 X235.76 Y462.856
G1 X235.847 Y462.85
G1 X236.169 Y462.82
G1 X236.263 Y462.809
G1 X236.561 Y462.762
G1 X236.666 Y462.741
G1 X236.941 Y462.677
G1 X237.052 Y462.647
G1 X237.305 Y462.567
G1 X237.425 Y462.523
G1 X237.655 Y462.428
G1 X237.787 Y462.366
G1 X237.995 Y462.255
G1 X238.126 Y462.176
G1 X238.313 Y462.05
G1 X238.376 Y462.005
G1 X238.437 Y461.957
G1 X238.603 Y461.818
G1 X238.666 Y461.761
G1 X238.727 Y461.701
G1 X238.873 Y461.547
G1 X238.929 Y461.485
G1 X238.981 Y461.42
G1 X239.107 Y461.253
G1 X239.153 Y461.187
G1 X239.196 Y461.12
G1 X239.303 Y460.941
G1 X239.344 Y460.867
G1 X239.381 Y460.792
G1 X239.468 Y460.6
G1 X239.52 Y460.469
G1 X239.59 Y460.265
G1 X239.631 Y460.125
G1 X239.682 Y459.91
G1 X239.705 Y459.789
G1 X239.739 Y459.564
G1 X239.749 Y459.487
G1 X239.783 Y459.139
G1 X239.788 Y459.073
G1 X239.808 Y458.698
G1 X239.809 Y458.66
G1 X239.82 Y458.258
G1 X239.821 Y458.227
G1 X239.824 Y457.797
G2 X238.543 Y456.315 I-1.487 J-0.01
G1 X238.486 Z-2.477
G1 X238.433 Z-2.469
G1 X238.384 Z-2.465
G1 X238.337 Z-2.464
G1 X238.202 Y456.318 Z-2.469
G1 X237.955 Y456.329 Z-2.489
G1 X237.527 Y456.368
G1 X236.893 Y456.415
G1 X236.283 Y456.446
G1 X235.697 Y456.463
G1 X235.135 Y456.466
G1 X234.596 Y456.455
G1 X234.082 Y456.43
G1 X233.595 Y456.392
G1 X233.134 Y456.341
G1 X232.697 Y456.277
G1 X232.286 Y456.201
G1 X231.899 Y456.112
G1 X231.54 Y456.014
G1 X231.209 Y455.906
G1 X230.902 Y455.787
G1 X230.62 Y455.66
G1 X230.361 Y455.525
G1 X230.129 Y455.384
G1 X229.92 Y455.238
G1 X229.731 Y455.083
G1 X229.559 Y454.921
G1 X229.408 Y454.755
G1 X229.273 Y454.581
G1 X229.152 Y454.397
G1 X229.044 Y454.2
G1 X228.948 Y453.989
G1 X228.866 Y453.767
G1 X228.798 Y453.527
G1 X228.742 Y453.268
G1 X228.702 Y452.988
G1 X228.676 Y452.687
G1 X228.666 Y452.329
G1 X228.65 Y451.738
G1 X228.679 Y451.263
G1 X228.745 Y450.846
G1 X228.845 Y450.485
G1 X228.974 Y450.173
G1 X229.131 Y449.9
G1 X229.319 Y449.657
G1 X229.542 Y449.437
G1 X229.812 Y449.233
G1 X230.137 Y449.044
G1 X230.522 Y448.875
G1 X230.974 Y448.728
G1 X231.495 Y448.607
G1 X232.082 Y448.517
G1 X232.737 Y448.462
G1 X233.464 Y448.443
G1 X233.81 Y448.449
G1 X234.137 Y448.471
G1 X234.452 Y448.508
G1 X234.747 Y448.559
G1 X235.031 Y448.625
G1 X235.301 Y448.705
G1 X235.557 Y448.797
G1 X235.802 Y448.904
G1 X236.037 Y449.024
G1 X236.263 Y449.158
G1 X236.48 Y449.307
G1 X236.688 Y449.47
G1 X236.89 Y449.649
G1 X236.895 Y449.654
G1 X236.478 Y449.56
G1 X236.358 Y449.538
G1 X235.872 Y449.47
G1 X235.748 Y449.458
G1 X235.261 Y449.431
G1 X235.126 Y449.43
G1 X234.649 Y449.447
G1 X234.57 Y449.452
G1 X234.491 Y449.461
G1 X234.038 Y449.526
G1 X233.942 Y449.543
G1 X233.848 Y449.566
G1 X233.43 Y449.683
G1 X233.315 Y449.721
G1 X233.203 Y449.767
G1 X232.834 Y449.939
G1 X232.738 Y449.988
G1 X232.646 Y450.044
G1 X232.483 Y450.151
G1 X232.41 Y450.202
G1 X232.341 Y450.257
G1 X232.195 Y450.38
G1 X232.127 Y450.441
G1 X232.063 Y450.506
G1 X231.935 Y450.644
G1 X231.867 Y450.722
G1 X231.805 Y450.805
G1 X231.697 Y450.96
G1 X231.642 Y451.045
G1 X231.593 Y451.133
G1 X231.506 Y451.303
G1 X231.461 Y451.4
G1 X231.422 Y451.501
G1 X231.358 Y451.689
G1 X231.329 Y451.785
G1 X231.307 Y451.883
G1 X231.267 Y452.088
G1 X231.251 Y452.187
G1 X231.242 Y452.286
G1 X231.229 Y452.509
G1 X231.227 Y452.656
G1 X231.239 Y452.954
G1 X231.252 Y453.095
G1 X231.29 Y453.373
G1 X231.302 Y453.451
G1 X231.319 Y453.527
G1 X231.382 Y453.783
G1 X231.405 Y453.866
G1 X231.433 Y453.947
G1 X231.521 Y454.184
G1 X231.557 Y454.272
G1 X231.599 Y454.358
G1 X231.712 Y454.572
G1 X231.762 Y454.659
G1 X231.818 Y454.743
G1 X231.956 Y454.936
G1 X232.018 Y455.017
G1 X232.086 Y455.094
G1 X232.249 Y455.266
G1 X232.321 Y455.337
G1 X232.397 Y455.402
G1 X232.585 Y455.553
G1 X232.661 Y455.611
G1 X232.741 Y455.663
G1 X232.954 Y455.793
G1 X233.032 Y455.837
G1 X233.112 Y455.877
G1 X233.351 Y455.986
G1 X233.426 Y456.018
G1 X233.503 Y456.045
G1 X233.767 Y456.132
G1 X233.895 Y456.168
G1 X234.183 Y456.235
G1 X234.309 Y456.259
G1 X234.623 Y456.304
G1 X234.725 Y456.315
G1 X235.064 Y456.34
G1 X235.161 Y456.344
G1 X235.525 Y456.347
G1 X235.606 Y456.345
G1 X235.96 Y456.329
G1 X237.955
G1 X235.96
G1 X235.606 Y456.345
G1 X235.525 Y456.347
G1 X235.161 Y456.344
G1 X235.064 Y456.34
G1 X234.725 Y456.315
G1 X234.623 Y456.304
G1 X234.309 Y456.259
G1 X234.183 Y456.235
G1 X233.895 Y456.168
G1 X233.767 Y456.132
G1 X233.503 Y456.045
G1 X233.426 Y456.018
G1 X233.351 Y455.986
G1 X233.112 Y455.877
G1 X233.032 Y455.837
G1 X232.954 Y455.793
G1 X232.741 Y455.663
G1 X232.661 Y455.611
G1 X232.585 Y455.553
G1 X232.397 Y455.402
G1 X232.321 Y455.337
G1 X232.249 Y455.266
G1 X232.086 Y455.094
G1 X232.018 Y455.017
G1 X231.956 Y454.936
G1 X231.818 Y454.743
G1 X231.762 Y454.659
G1 X231.712 Y454.572
G1 X231.599 Y454.358
G1 X231.557 Y454.272
G1 X231.521 Y454.184
G1 X231.433 Y453.947
G1 X231.405 Y453.866
G1 X231.382 Y453.783
G1 X231.319 Y453.527
G1 X231.302 Y453.451
G1 X231.29 Y453.373
G1 X231.252 Y453.095
G1 X231.239 Y452.954
G1 X231.227 Y452.656
G1 X231.229 Y452.509
G1 X231.242 Y452.286
G1 X231.251 Y452.187
G1 X231.267 Y452.088
G1 X231.307 Y451.883
G1 X231.329 Y451.785
G1 X231.358 Y451.689
G1 X231.422 Y451.501
G1 X231.461 Y451.4
G1 X231.506 Y451.303
G1 X231.593 Y451.133
G1 X231.642 Y451.045
G1 X231.697 Y450.96
G1 X231.805 Y450.805
G1 X231.867 Y450.722
G1 X231.935 Y450.644
G1 X232.063 Y450.506
G1 X232.127 Y450.441
G1 X232.195 Y450.38
G1 X232.341 Y450.257
G1 X232.41 Y450.202
G1 X232.483 Y450.151
G1 X232.646 Y450.044
G1 X232.738 Y449.988
G1 X232.834 Y449.939
G1 X233.203 Y449.767
G1 X233.315 Y449.721
G1 X233.43 Y449.683
G1 X233.848 Y449.566
G1 X233.942 Y449.543
G1 X234.038 Y449.526
G1 X234.491 Y449.461
G1 X234.57 Y449.452
G1 X234.649 Y449.447
G1 X235.126 Y449.43
G1 X235.261 Y449.431
G1 X235.748 Y449.458
G1 X235.872 Y449.47
G1 X236.358 Y449.538
G1 X236.478 Y449.56
G1 X236.895 Y449.654
G1 X236.946 Y449.682 Z-2.46
G1 X237.053 Y449.744 Z-2.405
G1 X237.139 Y449.796 Z-2.363
G1 X237.394 Y449.961 Z-2.222
G1 X237.459 Y450.007 Z-2.181
G1 X237.559 Y450.079 Z-2.122
G1 X237.681 Y450.171 Z-2.055
G1 X237.762 Y450.23 Z-2.015
G1 X237.844 Y450.285 Z-1.982
G1 X237.928 Y450.337 Z-1.955
G1 X237.979 Y450.366 Z-1.944
G1 X238.038 Y450.401 Z-1.938
G1 X238.091 Y450.431 Z-1.936
G1 X238.193 Y450.483 Z-1.941
G1 X238.297 Y450.531 Z-1.956
G1 X238.404 Y450.574 Z-1.98
G1 X238.48 Y450.602 Z-2.005
G1 X238.522 Y450.618 Z-2.023
G1 X238.569 Y450.635 Z-2.046
G1 X238.69 Y450.677 Z-2.114
G1 X238.814 Y450.713 Z-2.193
G1 X238.943 Y450.744 Z-2.284
G1 X239.044 Y450.766 Z-2.363
G1 X239.16 Y450.792 Z-2.468
G1 X239.182 Y450.796 Z-2.489
G1 X239.287 Y450.9
G1 X239.345 Y450.961
G1 X239.4 Y451.026
G1 X239.497 Y451.147
G3 X239.824 Y452.077 I-1.16 J0.93
G1 Y454.842
G3 X238.543 Y456.315 I-1.487 J0
G2 X239.824 Y454.842 I-0.206 J-1.473
G1 Y452.077
G2 X239.497 Y451.147 I-1.487 J0
G1 X239.4 Y451.026
G1 X239.345 Y450.961
G1 X239.287 Y450.9
G1 X239.182 Y450.796
G2 X240.089 Y449.794 I-0.529 J-1.389
G1 X240.173 Y449.48
G1 X240.252 Y449.216
G1 X240.335 Y448.976
G1 X240.405 Y448.796
G1 X240.368 Y448.743 Z-2.397
G1 X240.155 Y448.415 Z-1.829
G1 X239.947 Y448.077 Z-1.244
G1 X239.739 Y447.716 Z-0.618
G1 X239.549 Y447.359 Z0
G1 X239.739 Y447.716 Z-0.618
G1 X239.947 Y448.077 Z-1.244
G1 X240.155 Y448.415 Z-1.829
G1 X240.368 Y448.743 Z-2.397
G1 X240.405 Y448.796 Z-2.489
G1 X242.48
G1 X242.666 Y448.647 Z-2.231
G1 X243.031 Y448.367 Z-1.746
G1 X243.362 Y448.123 Z-1.323
G1 X243.677 Y447.903 Z-0.943
G1 X243.964 Y447.715 Z-0.616
G1 X244.228 Y447.554 Z-0.337
G1 X244.469 Y447.419 Z-0.103
G1 X244.586 Y447.359 Z0
G1 X244.469 Y447.419 Z-0.103
G1 X244.228 Y447.554 Z-0.337
G1 X243.964 Y447.715 Z-0.616
G1 X243.677 Y447.903 Z-0.943
G1 X243.362 Y448.123 Z-1.323
G1 X243.031 Y448.367 Z-1.746
G1 X242.666 Y448.647 Z-2.231
G1 X242.48 Y448.796 Z-2.489
G1 X242.448 Y448.936
G1 X242.439 Y448.981
G1 X242.372 Y449.325
G1 X242.363 Y449.372
G1 X242.304 Y449.738
G1 X242.298 Y449.777
G1 X242.246 Y450.165
G1 X242.242 Y450.201
G1 X242.197 Y450.612
G1 X242.194 Y450.644
G1 X242.156 Y451.076
G1 X242.154 Y451.105
G1 X242.123 Y451.559
G1 X242.121 Y451.585
G1 X242.097 Y452.062
G1 X242.096 Y452.089
G1 X242.08 Y452.587
G1 X242.079 Y452.635
G1 X242.077 Y459.845
G1 X242.079 Y459.911
G1 X242.092 Y460.209
G1 X242.09 Y460.456
G1 X242.075 Y460.687
G1 X242.048 Y460.9
G1 X242.01 Y461.102
G1 X241.962 Y461.29
G1 X241.904 Y461.463
G1 X241.836 Y461.627
G1 X241.757 Y461.784
G1 X241.67 Y461.931
G1 X241.571 Y462.072
G1 X241.459 Y462.21
G1 X241.335 Y462.341
G1 X241.195 Y462.47
G1 X241.036 Y462.598
G1 X240.86 Y462.723
G1 X240.669 Y462.842
G1 X240.454 Y462.958
G1 X240.219 Y463.071
G1 X239.964 Y463.177
G1 X239.689 Y463.278
G1 X239.393 Y463.371
G1 X239.075 Y463.458
G1 X238.736 Y463.537
G1 X238.375 Y463.607
G1 X237.994 Y463.67
G1 X237.592 Y463.723
G1 X237.169 Y463.767
G1 X236.726 Y463.802
G1 X236.265 Y463.827
G1 X235.783 Y463.842
G1 X235.29 Y463.847
G1 X234.416 Y463.827
G1 X233.624 Y463.77
G1 X232.905 Y463.676
G1 X232.259 Y463.548
G1 X231.691 Y463.39
G1 X231.196 Y463.206
G1 X230.773 Y462.999
G1 X230.42 Y462.775
G1 X230.129 Y462.535
G1 X229.891 Y462.28
G1 X229.696 Y462.003
G1 X229.537 Y461.695
G1 X229.413 Y461.348
G1 X229.399 Y461.285
G0 Z5
G0 X245.085 Y452.551
G1 Z-0.001 F100.
G1 X245.393 Y452.264 Z-0.523 F200.
G1 X245.723 Y451.972 Z-1.056
G1 X246.024 Y451.719 Z-1.519
G1 X246.299 Y451.502 Z-1.918
G1 X246.549 Y451.316 Z-2.261
G1 X246.725 Y451.192 Z-2.489
G1 X249.509 Y451.327
G1 X249.697 Y451.643 Z-1.958
G1 X249.753 Y451.73 Z-1.812
G1 X249.987 Y452.084 Z-1.219
G1 X250.053 Y452.179 Z-1.061
G1 X250.325 Y452.548 Z-0.445
G1 X250.541 Y452.816 Z-0.001
G1 X250.325 Y452.548 Z-0.445
G1 X250.053 Y452.179 Z-1.061
G1 X249.987 Y452.084 Z-1.219
G1 X249.753 Y451.73 Z-1.812
G1 X249.697 Y451.643 Z-1.958
G1 X249.509 Y451.327 Z-2.489
G1 X249.553 Y451.238
G1 X249.592 Y451.164
G1 X249.636 Y451.091
G1 X249.764 Y450.891
G1 X249.811 Y450.821
G1 X249.863 Y450.754
G1 X250.012 Y450.571
G1 X250.067 Y450.507
G1 X250.126 Y450.446
G1 X250.295 Y450.281
G1 X250.356 Y450.225
G1 X250.42 Y450.172
G1 X250.61 Y450.024
G1 X250.674 Y449.977
G1 X250.74 Y449.934
G1 X250.951 Y449.803
G1 X251.084 Y449.729
G1 X251.316 Y449.616
G1 X251.438 Y449.564
G1 X251.69 Y449.468
G1 X251.811 Y449.427
G1 X252.084 Y449.349
G1 X252.19 Y449.323
G1 X252.484 Y449.262
G1 X252.58 Y449.246
G1 X252.894 Y449.202
G1 X252.985 Y449.192
G1 X253.32 Y449.166
G1 X253.397 Y449.162
G1 X253.753 Y449.153
G1 X253.82 Y449.152
G1 X254.174 Y449.159
G1 X254.235 Y449.162
G1 X254.565 Y449.182
G1 X254.64 Y449.188
G1 X254.945 Y449.222
G1 X255.025 Y449.233
G1 X255.306 Y449.28
G1 X255.4 Y449.299
G1 X255.656 Y449.359
G1 X255.769 Y449.39
G1 X256.001 Y449.464
G1 X256.125 Y449.51
G1 X256.332 Y449.597
G1 X256.404 Y449.63
G1 X256.474 Y449.666
G1 X256.657 Y449.767
G1 X256.735 Y449.813
G1 X256.809 Y449.863
G1 X256.967 Y449.977
G1 X257.046 Y450.038
G1 X257.12 Y450.104
G1 X257.254 Y450.231
G1 X257.332 Y450.31
G1 X257.403 Y450.395
G1 X257.513 Y450.536
G1 X257.582 Y450.632
G1 X257.643 Y450.733
G1 X257.728 Y450.887
G1 X257.781 Y450.994
G1 X257.826 Y451.105
G1 X257.886 Y451.273
G1 X257.919 Y451.377
G1 X257.944 Y451.483
G1 X257.98 Y451.664
G1 X257.997 Y451.763
G1 X258.006 Y451.862
G1 X258.018 Y452.056
G1 X258.021 Y452.148
G1 X258.018 Y452.241
G1 X258.013 Y452.32
G1 X258.018 Y452.361
G3 X258.021 Y452.661 I-1.478 J0.165
G1 X258.006 Y452.826
G3 X257.948 Y453.121 I-1.481 J-0.135
G1 X257.9 Y453.28
G3 X257.795 Y453.539 I-1.423 J-0.43
G1 X257.714 Y453.694
G3 X257.573 Y453.913 I-1.318 J-0.689
G1 X257.458 Y454.062
G1 X257.391 Y454.144
G1 X257.318 Y454.22
G1 X257.17 Y454.364
G1 X257.104 Y454.424
G1 X257.035 Y454.48
G1 X256.853 Y454.619
G1 X256.735 Y454.701
G1 X256.519 Y454.835
G1 X256.421 Y454.89
G1 X256.173 Y455.019
G1 X256.084 Y455.062
G1 X255.801 Y455.186
G1 X255.726 Y455.216
G1 X255.411 Y455.334
G1 X255.346 Y455.357
G1 X254.996 Y455.47
G1 X254.947 Y455.485
G1 X254.565 Y455.594
G1 X254.514 Y455.607
G1 X254.098 Y455.71
G1 X254.057 Y455.72
G1 X253.607 Y455.818
G1 X253.572 Y455.825
G1 X253.089 Y455.918
G1 X253.016 Y455.93
G1 X252.682 Y455.99
G1 X252.257 Y456.077
G1 X251.783 Y456.187
G1 X251.273 Y456.325
G1 X250.74 Y456.491
G1 X250.201 Y456.685
G1 X249.667 Y456.911
G1 X249.153 Y457.165
G1 X248.675 Y457.446
G1 X248.245 Y457.753
G1 X247.855 Y458.096
G1 X247.708 Y458.251
G1 X247.563 Y458.425
G1 X247.436 Y458.6
G1 X247.326 Y458.78
G1 X247.232 Y458.966
G1 X247.154 Y459.158
G1 X247.091 Y459.358
G1 X247.045 Y459.569
G1 X247.016 Y459.795
G1 X247.007 Y460.024
G1 X247.035 Y460.506
G1 X247.11 Y460.932
G1 X247.225 Y461.307
G1 X247.378 Y461.641
G1 X247.572 Y461.944
G1 X247.812 Y462.226
G1 X248.108 Y462.492
G1 X248.469 Y462.744
G1 X248.903 Y462.98
G1 X249.412 Y463.195
G1 X250 Y463.385
G1 X250.668 Y463.546
G1 X251.414 Y463.676
G1 X252.238 Y463.771
G1 X253.136 Y463.828
G1 X254.109 Y463.847
G1 X255.065 Y463.827
G1 X255.946 Y463.769
G1 X256.751 Y463.674
G1 X257.479 Y463.544
G1 X258.13 Y463.382
G1 X258.702 Y463.19
G1 X259.199 Y462.973
G1 X259.618 Y462.738
G1 X259.967 Y462.485
G1 X260.255 Y462.216
G1 X260.489 Y461.931
G1 X260.678 Y461.623
G1 X260.808 Y461.328
G1 X260.865 Y461.293 Z-2.422
G1 X261.318 Y460.979 Z-1.821
G1 X261.865 Y460.547 Z-1.006
G1 X262.473 Y460.01 Z-0.001
G1 X261.865 Y460.547 Z-1.006
G1 X261.318 Y460.979 Z-1.821
G1 X260.865 Y461.293 Z-2.422
G1 X260.808 Y461.328 Z-2.489
G1 X258.259 Y461.141
G1 X258.074 Y460.837 Z-1.987
G1 X258.021 Y460.753 Z-1.848
G1 X257.733 Y460.33 Z-1.154
G1 X257.673 Y460.246 Z-1.017
G1 X257.423 Y459.918 Z-0.482
G1 X257.179 Y459.622 Z0
G1 X257.423 Y459.918 Z-0.482
G1 X257.673 Y460.246 Z-1.017
G1 X257.733 Y460.33 Z-1.154
G1 X258.021 Y460.753 Z-1.848
G1 X258.074 Y460.837 Z-1.987
G1 X258.259 Y461.141 Z-2.489
G1 X258.242 Y461.181
G1 X258.208 Y461.256
G1 X258.169 Y461.328
G1 X258.05 Y461.539
G1 X258.005 Y461.614
G1 X257.956 Y461.686
G1 X257.815 Y461.879
G1 X257.762 Y461.947
G1 X257.705 Y462.012
G1 X257.543 Y462.187
G1 X257.48 Y462.251
G1 X257.414 Y462.311
G1 X257.23 Y462.467
G1 X257.164 Y462.52
G1 X257.096 Y462.568
G1 X256.89 Y462.706
G1 X256.759 Y462.784
G1 X256.533 Y462.904
G1 X256.395 Y462.969
G1 X256.146 Y463.07
G1 X256.024 Y463.113
G1 X255.754 Y463.196
G1 X255.641 Y463.226
G1 X255.35 Y463.291
G1 X255.242 Y463.311
G1 X254.929 Y463.357
G1 X254.837 Y463.368
G1 X254.502 Y463.396
G1 X254.42 Y463.4
G1 X254.064 Y463.41
G1 X253.996 Y463.411
G1 X253.653 Y463.405
G1 X253.595 Y463.403
G1 X253.276 Y463.385
G1 X253.205 Y463.379
G1 X252.91 Y463.348
G1 X252.831 Y463.337
G1 X252.561 Y463.294
G1 X252.465 Y463.276
G1 X252.219 Y463.22
G1 X252.112 Y463.191
G1 X251.891 Y463.123
G1 X251.769 Y463.08
G1 X251.572 Y463
G1 X251.495 Y462.966
G1 X251.421 Y462.928
G1 X251.248 Y462.834
G1 X251.171 Y462.79
G1 X251.098 Y462.741
G1 X250.95 Y462.636
G1 X250.865 Y462.571
G1 X250.785 Y462.5
G1 X250.661 Y462.382
G1 X250.577 Y462.295
G1 X250.5 Y462.201
G1 X250.401 Y462.07
G1 X250.332 Y461.972
G1 X250.272 Y461.868
G1 X250.197 Y461.726
G3 X250.096 Y461.486 I1.315 J-0.694
G1 X250.046 Y461.33
G1 X250.015 Y461.218
G1 X249.993 Y461.103
G1 X249.967 Y460.935
G1 X249.954 Y460.83
G1 X249.949 Y460.725
G1 X249.947 Y460.545
G1 X249.949 Y460.448
G1 X249.958 Y460.352
G1 X249.959 Y460.337
G3 X249.952 Y460.074 I1.477 J-0.175
G1 X249.962 Y459.906
G3 X250.003 Y459.635 I1.484 J0.088
G1 X250.043 Y459.474
G3 X250.134 Y459.214 I1.443 J0.359
G1 X250.205 Y459.059
G1 X250.261 Y458.949
G1 X250.326 Y458.844
G1 X250.427 Y458.695
G1 X250.493 Y458.605
G1 X250.565 Y458.52
G1 X250.697 Y458.377
G1 X250.762 Y458.312
G1 X250.83 Y458.251
G1 X250.992 Y458.114
G1 X251.053 Y458.065
G1 X251.117 Y458.019
G1 X251.31 Y457.888
G1 X251.418 Y457.821
G1 X251.641 Y457.696
G1 X251.742 Y457.645
G1 X251.996 Y457.527
G1 X252.072 Y457.493
G1 X252.356 Y457.38
G1 X252.43 Y457.353
G1 X252.744 Y457.247
G1 X252.802 Y457.229
G1 X253.147 Y457.128
G1 X253.203 Y457.113
G1 X253.578 Y457.019
G1 X253.625 Y457.008
G1 X254.031 Y456.92
G1 X254.071 Y456.912
G1 X254.507 Y456.83
G1 X254.589 Y456.817
G1 X254.671 Y456.808
G1 X254.718 Y456.802
G1 X254.852 Y456.783
G1 X255.007 Y456.757
G1 X255.194 Y456.724
G1 X255.202 Y456.723
G1 X255.5 Y456.665
G1 X255.855 Y456.587
G1 X256.253 Y456.489
G1 X256.703 Y456.365
G1 X256.72 Y456.361
G1 X256.739 Y456.354
G1 X257.153 Y456.225
G1 X257.553 Y456.085
G1 X257.959 Y455.926
G1 X258.359 Y455.752
G1 X258.746 Y455.559
G1 X259.121 Y455.35
G1 X259.471 Y455.126
G1 X259.793 Y454.887
G1 X260.084 Y454.636
G1 X260.337 Y454.376
G1 X260.552 Y454.106
G1 X260.729 Y453.827
G1 X260.869 Y453.535
G1 X260.972 Y453.228
G1 X261.037 Y452.895
G1 X261.062 Y452.503
G1 X261.053 Y452.266
G1 X261.031 Y452.008
G1 X260.997 Y451.764
G1 X260.951 Y451.536
G1 X260.894 Y451.32
G1 X260.828 Y451.121
G1 X260.749 Y450.929
G1 X260.662 Y450.747
G1 X260.563 Y450.576
G1 X260.453 Y450.411
G1 X260.333 Y450.254
G1 X260.199 Y450.103
G1 X260.05 Y449.956
G1 X259.885 Y449.812
G1 X259.705 Y449.672
G1 X259.51 Y449.54
G1 X259.294 Y449.411
G1 X259.06 Y449.287
G1 X258.806 Y449.169
G1 X258.531 Y449.056
G1 X258.24 Y448.951
G1 X257.927 Y448.854
G1 X257.591 Y448.763
G1 X257.237 Y448.681
G1 X256.861 Y448.608
G1 X256.469 Y448.543
G1 X256.055 Y448.489
G1 X255.619 Y448.443
G1 X255.167 Y448.407
G1 X254.694 Y448.382
G1 X254.202 Y448.366
G1 X253.691 Y448.361
G1 X253.189 Y448.366
G1 X252.708 Y448.382
G1 X252.245 Y448.408
G1 X251.801 Y448.443
G1 X251.376 Y448.49
G1 X250.971 Y448.545
G1 X250.587 Y448.61
G1 X250.222 Y448.684
G1 X249.875 Y448.767
G1 X249.55 Y448.857
G1 X249.246 Y448.955
G1 X248.962 Y449.061
G1 X248.696 Y449.174
G1 X248.449 Y449.293
G1 X248.222 Y449.417
G1 X248.015 Y449.545
G1 X247.825 Y449.68
G1 X247.651 Y449.818
G1 X247.494 Y449.961
G1 X247.35 Y450.109
G1 X247.22 Y450.263
G1 X247.102 Y450.422
G1 X246.996 Y450.589
G1 X246.9 Y450.764
G1 X246.816 Y450.947
G1 X246.741 Y451.141
G1 X246.725 Y451.192
G0 Z5
G0 X264.293 Y447.362
G1 Z-0.001 F100.
G1 X265.73 Y448.799 Z-2.489 F200.
G1 Y470.276
G1 X264.293 Y471.713 Z-0.001
G1 X265.73 Y470.276 Z-2.489
G1 X268.229
G1 X269.666 Y471.713 Z-0.001
G1 X268.229 Y470.276 Z-2.489
G1 Y448.799
G1 X265.73
G1 X268.229
G1 X269.666 Y447.362 Z-0.001
G0 Z5
G0 X276.951 Y451.605
G1 Z-2.489 F100.
G1 X276.943 Y451.619 F200.
G1 X276.825 Y451.827
G1 X276.782 Y451.908
G1 X276.671 Y452.135
G1 X276.639 Y452.206
G1 X276.534 Y452.453
G1 X276.506 Y452.524
G1 X276.408 Y452.792
G1 X276.383 Y452.865
G1 X276.294 Y453.154
G1 X276.273 Y453.228
G1 X276.194 Y453.541
G1 X276.18 Y453.602
G1 X276.11 Y453.938
G1 X276.099 Y454.001
G1 X276.04 Y454.361
G1 X276.031 Y454.421
G1 X275.984 Y454.807
G1 X275.978 Y454.861
G1 X275.943 Y455.272
G1 X275.94 Y455.327
G1 X275.919 Y455.765
G1 X275.917 Y455.811
G1 X275.909 Y456.278
G1 Y456.329
G1 X275.917 Y456.795
G1 X275.919 Y456.84
G1 X275.94 Y457.278
G1 X275.943 Y457.333
G1 X275.978 Y457.745
G1 X275.984 Y457.799
G1 X276.031 Y458.184
G1 X276.04 Y458.244
G1 X276.099 Y458.605
G1 X276.11 Y458.668
G1 X276.18 Y459.004
G1 X276.195 Y459.066
G1 X276.274 Y459.378
G1 X276.294 Y459.449
G1 X276.383 Y459.739
G1 X276.408 Y459.814
G1 X276.506 Y460.082
G1 X276.534 Y460.153
G1 X276.639 Y460.4
G1 X276.671 Y460.471
G1 X276.782 Y460.698
G1 X276.826 Y460.781
G1 X276.944 Y460.988
G1 X277.012 Y461.096
G1 X277.261 Y461.457
G1 X277.317 Y461.534
G1 X277.379 Y461.606
G1 X277.643 Y461.9
G1 X277.708 Y461.969
G1 X277.778 Y462.033
G1 X278.048 Y462.266
G1 X278.12 Y462.324
G1 X278.195 Y462.378
G1 X278.467 Y462.559
G1 X278.544 Y462.607
G1 X278.624 Y462.65
G1 X278.889 Y462.783
G1 X278.966 Y462.819
G1 X279.045 Y462.85
G1 X279.299 Y462.943
G1 X279.435 Y462.986
G1 X279.669 Y463.047
G1 X279.812 Y463.077
G1 X280.021 Y463.11
G1 X280.136 Y463.123
G1 X280.313 Y463.137
G1 X280.408 Y463.142
G1 X280.546 Y463.144
G1 X280.59
G1 X280.728 Y463.142
G1 X280.823 Y463.137
G1 X281 Y463.123
G1 X281.115 Y463.11
G1 X281.324 Y463.077
G1 X281.467 Y463.047
G1 X281.701 Y462.986
G1 X281.837 Y462.943
G1 X282.091 Y462.85
G1 X282.17 Y462.819
G1 X282.247 Y462.783
G1 X282.512 Y462.65
G1 X282.592 Y462.607
G1 X282.669 Y462.559
G1 X282.941 Y462.378
G1 X283.016 Y462.324
G1 X283.088 Y462.266
G1 X283.358 Y462.033
G1 X283.428 Y461.969
G1 X283.493 Y461.9
G1 X283.757 Y461.606
G1 X283.818 Y461.535
G1 X283.873 Y461.46
G1 X284.123 Y461.099
G1 X284.195 Y460.984
G1 X284.312 Y460.777
G1 X284.351 Y460.703
G1 X284.463 Y460.476
G1 X284.498 Y460.4
G1 X284.603 Y460.153
G1 X284.633 Y460.077
G1 X284.73 Y459.809
G1 X284.753 Y459.739
G1 X284.842 Y459.449
G1 X284.861 Y459.382
G1 X284.941 Y459.07
G1 X284.957 Y459
G1 X285.026 Y458.664
G1 X285.037 Y458.605
G1 X285.096 Y458.244
G1 X285.104 Y458.188
G1 X285.152 Y457.803
G1 X285.159 Y457.741
G1 X285.193 Y457.329
G1 X285.196 Y457.282
G1 X285.218 Y456.844
G1 X285.22 Y456.791
G1 X285.227 Y456.325
G1 Y456.281
G1 X285.22 Y455.814
G1 X285.218 Y455.761
G1 X285.196 Y455.323
G1 X285.193 Y455.275
G1 X285.159 Y454.864
G1 X285.152 Y454.804
G1 X285.105 Y454.418
G1 X285.096 Y454.361
G1 X285.037 Y454.001
G1 X285.026 Y453.942
G1 X284.957 Y453.606
G1 X284.942 Y453.537
G1 X284.862 Y453.224
G1 X284.842 Y453.154
G1 X284.753 Y452.865
G1 X284.73 Y452.797
G1 X284.633 Y452.529
G1 X284.603 Y452.453
G1 X284.498 Y452.206
G1 X284.463 Y452.13
G1 X284.351 Y451.903
G1 X284.314 Y451.832
G1 X284.197 Y451.624
G1 X284.122 Y451.505
G1 X283.872 Y451.145
G1 X283.817 Y451.07
G1 X283.757 Y451
G1 X283.493 Y450.706
G1 X283.429 Y450.638
G1 X283.361 Y450.575
G1 X283.091 Y450.341
G1 X283.016 Y450.281
G1 X282.938 Y450.225
G1 X282.666 Y450.045
G1 X282.59 Y449.998
G1 X282.512 Y449.956
G1 X282.247 Y449.823
G1 X282.17 Y449.787
G1 X282.091 Y449.756
G1 X281.837 Y449.663
G1 X281.701 Y449.62
G1 X281.467 Y449.559
G1 X281.324 Y449.529
G1 X281.115 Y449.496
G1 X281.009 Y449.483
G1 X280.832 Y449.468
G1 X280.717 Y449.463
G1 X280.579 Y449.462
G1 X280.557
G1 X280.419 Y449.463
G1 X280.313 Y449.468
G1 X280.136 Y449.482
G1 X280.014 Y449.496
G1 X279.805 Y449.53
G1 X279.675 Y449.558
G1 X279.441 Y449.618
G1 X279.294 Y449.664
G1 X279.04 Y449.758
G1 X278.964 Y449.788
G1 X278.889 Y449.823
G1 X278.624 Y449.956
G1 X278.546 Y449.998
G1 X278.47 Y450.045
G1 X278.198 Y450.225
G1 X278.12 Y450.281
G1 X278.045 Y450.341
G1 X277.775 Y450.575
G1 X277.708 Y450.638
G1 X277.644 Y450.704
G1 X277.38 Y450.997
G1 X277.318 Y451.07
G1 X277.261 Y451.148
G1 X277.012 Y451.509
G1 X276.951 Y451.605
G0 Z5
G0 X275.646 Y449.872
G1 Z-2.489 F100.
G1 X275.795 Y449.76 F200.
G1 X276.086 Y449.566
G1 X276.395 Y449.385
G1 X276.721 Y449.218
G1 X277.065 Y449.065
G1 X277.428 Y448.927
G1 X277.813 Y448.804
G1 X278.215 Y448.697
G1 X278.639 Y448.609
G1 X279.085 Y448.538
G1 X279.554 Y448.486
G1 X280.045 Y448.454
G1 X280.556 Y448.443
G1 X281.069 Y448.454
G1 X281.56 Y448.486
G1 X282.03 Y448.537
G1 X282.475 Y448.607
G1 X282.901 Y448.696
G1 X283.308 Y448.802
G1 X283.691 Y448.922
G1 X284.055 Y449.06
G1 X284.402 Y449.213
G1 X284.729 Y449.379
G1 X285.039 Y449.558
G1 X285.332 Y449.752
G1 X285.609 Y449.958
G1 X285.871 Y450.178
G1 X286.117 Y450.408
G1 X286.347 Y450.652
G1 X286.566 Y450.91
G1 X286.77 Y451.179
G1 X286.96 Y451.46
G1 X287.137 Y451.755
G1 X287.3 Y452.061
G1 X287.451 Y452.38
G1 X287.588 Y452.711
G1 X287.704 Y453.036
G1 X287.912 Y453.768
G1 X288.058 Y454.526
G1 X288.147 Y455.319
G1 X288.176 Y456.145
G1 X288.147 Y456.97
G1 X288.058 Y457.764
G1 X287.912 Y458.522
G1 X287.704 Y459.254
G1 X287.588 Y459.579
G1 X287.451 Y459.91
G1 X287.3 Y460.229
G1 X287.137 Y460.535
G1 X286.96 Y460.829
G1 X286.769 Y461.111
G1 X286.565 Y461.381
G1 X286.347 Y461.638
G1 X286.116 Y461.883
G1 X285.871 Y462.113
G1 X285.61 Y462.331
G1 X285.332 Y462.538
G1 X285.038 Y462.732
G1 X284.729 Y462.912
G1 X284.403 Y463.077
G1 X284.055 Y463.23
G1 X283.691 Y463.368
G1 X283.307 Y463.489
G1 X282.901 Y463.595
G1 X282.477 Y463.683
G1 X282.029 Y463.753
G1 X281.56 Y463.804
G1 X281.069 Y463.836
G1 X280.556 Y463.847
G1 X280.043 Y463.836
G1 X279.554 Y463.804
G1 X279.086 Y463.752
G1 X278.639 Y463.681
G1 X278.216 Y463.593
G1 X277.813 Y463.486
G1 X277.428 Y463.363
G1 X277.065 Y463.226
G1 X276.722 Y463.072
G1 X276.395 Y462.905
G1 X276.087 Y462.724
G1 X275.794 Y462.53
G1 X275.519 Y462.323
G1 X275.259 Y462.103
G1 X275.014 Y461.869
G1 X274.782 Y461.624
G1 X274.567 Y461.367
G1 X274.362 Y461.095
G1 X274.173 Y460.813
G1 X273.997 Y460.519
G1 X273.834 Y460.211
G1 X273.685 Y459.893
G1 X273.55 Y459.563
G1 X273.433 Y459.237
G1 X273.227 Y458.505
G1 X273.081 Y457.751
G1 X272.994 Y456.963
G1 X272.965 Y456.145
G1 X272.994 Y455.326
G1 X273.081 Y454.538
G1 X273.227 Y453.785
G1 X273.433 Y453.053
G1 X273.55 Y452.727
G1 X273.685 Y452.396
G1 X273.834 Y452.078
G1 X273.996 Y451.771
G1 X274.172 Y451.477
G1 X274.363 Y451.193
G1 X274.565 Y450.924
G1 X274.782 Y450.666
G1 X275.013 Y450.421
G1 X275.258 Y450.188
G1 X275.519 Y449.967
G1 X275.646 Y449.872
G0 Z5
G0 X289.708 Y464.912
G1 Z0 F100.
G1 X291.532 Y463.475 Z-2.489 F200.
G1 X294.185
G1 X295.332 Y464.911 Z-0.001
G1 X294.185 Y463.475 Z-2.489
G1 X296.504 Y453.285
G3 X298.284 Y452.165 I1.45 J0.33
G3 X299.4 Y453.271 I-0.33 J1.45
G1 X301.829 Y463.475
G1 X300.695 Y464.911 Z-0.001
G1 X301.829 Y463.475 Z-2.489
G1 X303.889
G1 X306.208 Y453.285
G3 X307.988 Y452.165 I1.45 J0.33
G3 X309.104 Y453.271 I-0.33 J1.45
G1 X311.533 Y463.475
G1 X310.399 Y464.911 Z-0.001
G1 X311.533 Y463.475 Z-2.489
G1 X314.127
G1 X315.951 Y464.912 Z0
G1 X314.127 Y463.475 Z-2.489
G1 X310.588 Y448.814
G1 X311.72 Y447.377 Z0
G1 X310.588 Y448.814 Z-2.489
G1 X306.185
G1 X305.016 Y447.377 Z-0.001
G1 X306.185 Y448.814 Z-2.489
G1 X304.287 Y457.961
G3 X302.831 Y459.146 I-1.456 J-0.302
G1 X302.828
G3 X301.372 Y457.961 I0 J-1.487
G1 X299.474 Y448.814
G1 X300.643 Y447.377 Z-0.001
G1 X299.474 Y448.814 Z-2.489
G1 X295.07
G1 X293.938 Y447.377 Z0
G1 X295.07 Y448.814 Z-2.489
G1 X291.532 Y463.475
G0 Z5
G0 X303.889 Y463.476
G1 Z-2.487 F100.
G1 X305.035 Y464.911 Z-0.001 F200.
G0 Z15

(GUSSET ENGRAVE R)
G0 X932.572 Y245.466
G0 Z15
G0 Z5
G1 Z-2.489 F100.
G1 X932.629 Y245.3 F200.
G1 X932.919 Y244.274
G1 X933.161 Y243.227
G1 X933.352 Y242.163
G1 X933.489 Y241.081
G1 X933.573 Y239.982
G1 X933.601 Y238.867
G1 X933.573 Y237.752
G1 X933.489 Y236.653
G1 X933.352 Y235.571
G1 X933.161 Y234.507
G1 X932.919 Y233.46
G1 X932.629 Y232.434
G1 X932.288 Y231.43
G1 X931.901 Y230.449
G1 X931.468 Y229.49
G1 X930.991 Y228.558
G1 X930.47 Y227.652
G1 X929.907 Y226.774
G1 X929.305 Y225.927
G1 X928.662 Y225.108
G1 X927.983 Y224.324
G1 X927.266 Y223.573
G1 X926.513 Y222.855
G1 X925.729 Y222.176
G1 X924.911 Y221.533
G1 X924.064 Y220.931
G1 X923.186 Y220.368
G1 X922.28 Y219.847
G1 X921.348 Y219.369
G1 X920.39 Y218.937
G1 X919.407 Y218.55
G1 X918.403 Y218.209
G1 X917.378 Y217.919
G1 X916.332 Y217.677
G1 X915.266 Y217.486
G1 X914.184 Y217.349
G1 X913.085 Y217.265
G1 X911.971 Y217.237
G1 X910.856 Y217.265
G1 X909.757 Y217.349
G1 X908.675 Y217.486
G1 X907.61 Y217.677
G1 X906.563 Y217.919
G1 X905.538 Y218.209
G1 X904.534 Y218.55
G1 X903.551 Y218.937
G1 X902.593 Y219.369
G1 X901.661 Y219.847
G1 X900.755 Y220.368
G1 X899.877 Y220.931
G1 X899.03 Y221.533
G1 X898.213 Y222.176
G1 X897.427 Y222.856
G1 X896.676 Y223.573
G1 X895.959 Y224.324
G1 X895.279 Y225.108
G1 X894.637 Y225.927
G1 X894.033 Y226.775
G1 X893.471 Y227.652
G1 X892.95 Y228.558
G1 X892.473 Y229.49
G1 X892.04 Y230.449
G1 X891.653 Y231.43
G1 X891.312 Y232.434
G1 X891.022 Y233.46
G1 X890.78 Y234.507
G1 X890.589 Y235.571
G1 X890.452 Y236.653
G1 X890.368 Y237.752
G1 X890.34 Y238.867
G1 X890.368 Y239.982
G1 X890.452 Y241.081
G1 X890.589 Y242.163
G1 X890.78 Y243.227
G1 X891.022 Y244.274
G1 X891.312 Y245.3
G1 X891.653 Y246.304
G1 X892.04 Y247.285
G1 X892.473 Y248.244
G1 X892.95 Y249.176
G1 X893.471 Y250.082
G1 X894.033 Y250.959
G1 X894.637 Y251.807
G1 X895.279 Y252.626
G1 X895.959 Y253.41
G1 X896.676 Y254.161
G1 X897.427 Y254.878
G1 X898.213 Y255.558
G1 X899.03 Y256.201
G1 X899.878 Y256.804
G1 X900.755 Y257.367
G1 X901.661 Y257.887
G1 X902.594 Y258.365
G1 X903.551 Y258.798
G1 X904.533 Y259.185
G1 X905.537 Y259.525
G1 X906.564 Y259.816
G1 X907.61 Y260.058
G1 X908.674 Y260.248
G1 X909.757 Y260.385
G1 X910.856 Y260.469
G1 X911.971 Y260.497
G1 X913.085 Y260.469
G1 X914.184 Y260.385
G1 X915.267 Y260.248
G1 X916.332 Y260.058
G1 X917.377 Y259.816
G1 X918.404 Y259.525
G1 X919.408 Y259.185
G1 X920.39 Y258.798
G1 X920.453 Y258.77
G1 X921.347 Y258.365
G1 X922.28 Y257.887
G1 X923.186 Y257.367
G1 X924.063 Y256.804
G1 X924.911 Y256.201
G1 X925.729 Y255.558
G1 X926.513 Y254.879
G1 X927.266 Y254.161
G1 X927.983 Y253.41
G1 X928.662 Y252.626
G1 X929.305 Y251.807
G1 X929.907 Y250.96
G1 X930.47 Y250.082
G1 X930.991 Y249.176
G1 X931.468 Y248.244
G1 X931.901 Y247.285
G1 X932.288 Y246.304
G1 X932.572 Y245.466
G0 Z5
G0 X904.989 Y253.588
G1 Z-2.489 F100.
G1 X905.058 Y253.362 Z-2.231 F200.
G1 X905.095 Y253.249 Z-2.104
G1 X905.135 Y253.141 Z-1.987
G1 X905.205 Y252.961 Z-1.796
G1 X905.243 Y252.869 Z-1.7
G1 X905.284 Y252.78 Z-1.612
G1 X905.365 Y252.613 Z-1.451
G1 X905.399 Y252.547 Z-1.388
G1 X905.527 Y252.324 Z-1.192
G1 X905.561 Y252.269 Z-1.145
G1 X905.701 Y252.067 Z-0.99
G1 X905.735 Y252.021 Z-0.957
G1 X905.911 Y251.811 Z-0.825
G1 X905.945 Y251.772 Z-0.802
G1 X906.129 Y251.592 Z-0.721
G1 X906.163 Y251.56 Z-0.708
G1 X906.355 Y251.406 Z-0.673
G1 X906.411 Y251.365 Z-0.668
G1 X906.591 Y251.249 Z-0.675
G1 X906.663 Y251.207 Z-0.684
G1 X906.839 Y251.116 Z-0.723
G1 X906.882 Y251.095 Z-0.734
G1 X907.115 Y251 Z-0.823
G1 X907.164 Y250.982 Z-0.845
G1 X907.418 Y250.906 Z-0.981
G1 X907.486 Y250.888 Z-1.021
G1 X907.555 Y250.873 Z-1.067
G1 X907.78 Y250.832 Z-1.224
G1 X908.417 Y250.738 Z-1.705
G1 X908.954 Y250.649 Z-2.096
G1 X909.473 Y250.551 Z-2.458
G1 X909.519 Y250.542 Z-2.489
G1 X923.581 Y241.086
G1 X923.549 Y241.264
G1 X923.416 Y241.839
G1 X923.255 Y242.403
G1 X923.068 Y242.956
G1 X922.854 Y243.497
G1 X922.616 Y244.023
G1 X922.352 Y244.536
G1 X922.065 Y245.035
G1 X921.755 Y245.519
G1 X921.422 Y245.986
G1 X921.068 Y246.438
G1 X920.694 Y246.869
G1 X920.299 Y247.283
G1 X919.883 Y247.679
G1 X919.45 Y248.055
G1 X919.001 Y248.408
G1 X918.534 Y248.74
G1 X918.05 Y249.05
G1 X917.551 Y249.338
G1 X917.038 Y249.601
G1 X916.512 Y249.839
G1 X915.971 Y250.053
G1 X915.418 Y250.24
G1 X914.853 Y250.401
G1 X914.279 Y250.534
G1 X913.694 Y250.639
G1 X913.099 Y250.714
G1 X912.494 Y250.761
G1 X911.877 Y250.777
G1 X911.394 Y250.767
G1 X910.91 Y250.738
G1 X910.428 Y250.689
G1 X909.951 Y250.621
G1 X909.519 Y250.542
G1 X909.951 Y250.621
G1 X910.428 Y250.689
G1 X910.91 Y250.738
G1 X911.394 Y250.767
G1 X911.877 Y250.777
G1 X912.494 Y250.761
G1 X913.099 Y250.714
G1 X913.694 Y250.639
G1 X914.279 Y250.534
G1 X914.853 Y250.401
G1 X915.418 Y250.24
G1 X915.971 Y250.053
G1 X916.512 Y249.839
G1 X917.038 Y249.601
G1 X917.551 Y249.338
G1 X918.05 Y249.05
G1 X918.534 Y248.74
G1 X919.001 Y248.408
G1 X919.45 Y248.055
G1 X919.883 Y247.679
G1 X920.299 Y247.283
G1 X920.694 Y246.869
G1 X921.068 Y246.438
G1 X921.422 Y245.986
G1 X921.755 Y245.519
G1 X922.065 Y245.035
G1 X922.352 Y244.536
G1 X922.616 Y244.023
G1 X922.854 Y243.497
G1 X923.068 Y242.956
G1 X923.255 Y242.403
G1 X923.416 Y241.839
G1 X923.549 Y241.264
G1 X923.581 Y241.086
G1 X923.829 Y240.706 Z-2.182
G1 X924.183 Y240.131 Z-1.698
G1 X924.309 Y239.915 Z-1.51
G1 X924.352 Y239.837 Z-1.446
G1 X924.478 Y239.594 Z-1.261
G1 X924.512 Y239.517 Z-1.212
G1 X924.598 Y239.292 Z-1.073
G1 X924.616 Y239.233 Z-1.044
G1 X924.681 Y239.006 Z-0.942
G1 X924.692 Y238.955 Z-0.924
G1 X924.71 Y238.866 Z-0.898
G1 X924.725 Y238.78 Z-0.868
G1 X924.737 Y238.689 Z-0.844
G1 X924.752 Y238.512 Z-0.81
G1 X924.757 Y238.423 Z-0.8
G1 X924.756 Y238.246 Z-0.79
G1 X924.754 Y238.199 Z-0.788
G1 X924.75 Y238.156 Z-0.79
G1 X924.731 Y237.977 Z-0.803
G1 X924.718 Y237.89 Z-0.816
G1 X924.682 Y237.708 Z-0.856
G1 X924.67 Y237.658 Z-0.868
G1 X924.655 Y237.608 Z-0.883
G1 X924.581 Y237.379 Z-0.967
G1 X924.562 Y237.329 Z-0.991
G1 X924.49 Y237.157 Z-1.08
G1 X924.463 Y237.099 Z-1.111
G1 X924.433 Y237.041 Z-1.147
G1 X924.341 Y236.875 Z-1.26
G1 X924.304 Y236.811 Z-1.307
G1 X924.263 Y236.747 Z-1.36
G1 X924.206 Y236.661 Z-1.435
G1 X924.154 Y236.588 Z-1.497
G1 X924.102 Y236.517 Z-1.562
G1 X924.046 Y236.447 Z-1.634
G1 X923.917 Y236.292 Z-1.8
G1 X923.822 Y236.185 Z-1.925
G1 X923.76 Y236.123 Z-2.003
G1 X923.609 Y235.978 Z-2.197
G1 X923.504 Y235.881 Z-2.334
G1 X923.388 Y235.783 Z-2.489
G1 X923.213 Y235.777
G2 X922.945 Y235.792 I-0.05 J1.486
G1 X922.763 Y235.819
G1 X922.637 Y235.844
G1 X913.67 Y237.978
G1 X906.729 Y241.108 Z0
G1 X913.67 Y237.978 Z-2.489
G1 X921.788 Y232.263
G1 X921.867 Y231.836 Z-1.962
G1 X921.992 Y231.059 Z-0.986
G1 X922.1 Y230.287 Z0
G1 X921.992 Y231.059 Z-0.986
G1 X921.867 Y231.836 Z-1.962
G1 X921.788 Y232.263 Z-2.489
G1 X921.911 Y232.446
G1 X922.184 Y232.89
G1 X922.435 Y233.344
G1 X922.666 Y233.808
G1 X922.877 Y234.282
G1 X923.066 Y234.764
G1 X923.234 Y235.254
G1 X923.38 Y235.752
G1 X923.388 Y235.783
G0 Z5
G0 X900.315 Y228.083
G1 Z-2.489 F100.
G1 X900.342 Y227.799 F200.
G1 X900.35 Y227.735
G1 X900.427 Y227.188
G1 X900.441 Y227.105
G1 X900.459 Y227.023
G1 X900.507 Y226.837
G3 X900.603 Y226.572 I1.44 J0.372
G1 X900.684 Y226.401
G3 X900.818 Y226.174 I1.344 J0.637
G1 X900.928 Y226.02
G3 X901.11 Y225.81 I1.21 J0.864
G1 X901.249 Y225.677
G1 X901.311 Y225.62
G1 X901.377 Y225.568
G1 X901.9 Y225.17
G1 X901.949 Y225.134
G1 X902.485 Y224.76
G1 X902.538 Y224.724
G1 X903.087 Y224.375
G1 X903.139 Y224.344
G1 X903.699 Y224.019
G1 X903.755 Y223.988
G1 X904.326 Y223.689
G1 X904.38 Y223.662
G1 X904.961 Y223.387
G1 X905.021 Y223.36
G1 X905.613 Y223.111
G1 X905.67 Y223.089
G1 X906.271 Y222.865
G1 X906.332 Y222.844
G1 X906.943 Y222.646
G1 X907.001 Y222.628
G1 X907.62 Y222.455
G1 X907.682 Y222.439
G1 X908.308 Y222.293
G1 X908.37 Y222.28
G1 X909.005 Y222.16
G1 X909.065 Y222.15
G1 X909.706 Y222.056
G1 X909.769 Y222.048
G1 X910.416 Y221.981
G1 X910.478 Y221.976
G1 X911.132 Y221.936
G1 X911.191 Y221.933
G1 X911.85 Y221.919
G1 X911.936 Y221.92
G1 X913.046 Y221.96
G1 X913.149 Y221.967
G1 X914.248 Y222.084
G1 X914.356 Y222.1
G1 X915.439 Y222.296
G1 X915.541 Y222.318
G1 X916.606 Y222.589
G1 X916.708 Y222.619
G1 X917.75 Y222.965
G1 X917.849 Y223.002
G1 X918.865 Y223.422
G1 X918.962 Y223.467
G1 X919.948 Y223.961
G1 X920.041 Y224.011
G1 X920.993 Y224.576
G1 X921.077 Y224.63
G1 X921.158 Y224.69
G1 X921.322 Y224.82
G3 X921.537 Y225.03 I-0.924 J1.165
G1 X921.667 Y225.185
G3 X921.832 Y225.425 I-1.139 J0.955
G1 X921.928 Y225.6
G3 X922.041 Y225.865 I-1.304 J0.715
G1 X922.048 Y225.886
G1 X921.961 Y226.106 Z-2.23
G1 X921.905 Y226.237 Z-2.078
G1 X921.845 Y226.362 Z-1.938
G1 X921.735 Y226.574 Z-1.706
G1 X921.685 Y226.667 Z-1.607
G1 X921.623 Y226.769 Z-1.503
G1 X921.498 Y226.96 Z-1.311
G1 X921.45 Y227.029 Z-1.244
G1 X921.4 Y227.094 Z-1.184
G1 X921.261 Y227.266 Z-1.031
G1 X921.217 Y227.318 Z-0.987
G1 X921.172 Y227.367 Z-0.949
G1 X920.978 Y227.56 Z-0.808
G1 X920.938 Y227.595 Z-0.787
G1 X920.774 Y227.731 Z-0.711
G1 X920.702 Y227.785 Z-0.686
G1 X920.495 Y227.919 Z-0.636
G1 X920.459 Y227.939 Z-0.633
G1 X920.267 Y228.039 Z-0.625
G1 X920.209 Y228.065 Z-0.63
G1 X920.025 Y228.14 Z-0.656
G1 X919.948 Y228.166 Z-0.673
G1 X919.71 Y228.237 Z-0.748
G1 X919.662 Y228.247 Z-0.768
G1 X919.403 Y228.296 Z-0.89
G1 X919.345 Y228.302 Z-0.923
G1 X919.129 Y228.32 Z-1.053
G1 X919.054 Y228.324 Z-1.101
G1 X918.978 Y228.325 Z-1.156
G1 X918.685 Y228.319 Z-1.38
G1 X917.961 Y228.284 Z-1.969
G1 X917.657 Y228.265 Z-2.21
G1 X917.279 Y228.256 Z-2.489
G1 X916.567 Y228.57
G1 X915.28 Y229.099
G1 X913.992 Y229.586
G1 X912.721 Y230.023
G1 X911.477 Y230.4
G1 X910.887 Y230.558
G1 X910.305 Y230.699
G1 X909.741 Y230.819
G1 X909.2 Y230.919
G1 X908.686 Y230.995
G1 X908.199 Y231.047
G1 X907.744 Y231.076
G1 X907.323 Y231.081
G1 X906.943 Y231.063
G1 X906.61 Y231.024
G1 X906.323 Y230.966
G1 X906.088 Y230.895
G1 X905.903 Y230.815
G1 X905.748 Y230.723
G1 X905.709 Y230.694
G1 X905.66 Y230.648
G1 X905.613 Y230.595
G1 X905.569 Y230.534
G1 X905.523 Y230.457
G1 X905.478 Y230.366
G1 X905.435 Y230.255
G1 X905.394 Y230.123
G1 X905.359 Y229.971
G1 X905.329 Y229.796
G1 X905.307 Y229.602
G1 X905.295 Y229.385
G1 X905.293 Y229.143
G1 X905.299 Y228.94
G1 X905.213 Y228.892 Z-2.336
G1 X904.964 Y228.743 Z-1.883
G1 X903.927 Y228.149 Z-0.001
G1 X904.964 Y228.743 Z-1.883
G1 X905.213 Y228.892 Z-2.336
G1 X905.299 Y228.94 Z-2.489
G1 X905.562 Y228.767
G1 X905.971 Y228.521
G1 X906.388 Y228.293
G1 X906.812 Y228.081
G1 X907.242 Y227.888
G1 X907.679 Y227.714
G1 X908.123 Y227.557
G1 X908.575 Y227.417
G1 X909.031 Y227.296
G1 X909.493 Y227.193
G1 X909.961 Y227.109
G1 X910.433 Y227.043
G1 X910.911 Y226.996
G1 X911.395 Y226.967
G1 X911.871 Y226.957
G1 X912.738 Y226.988
G1 X913.585 Y227.079
G1 X914.419 Y227.229
G1 X915.238 Y227.438
G1 X916.041 Y227.704
G1 X916.822 Y228.028
G1 X917.279 Y228.256
G0 Z5
G0 X902.302 Y251.057
G1 Z-0.001 F100.
G1 X901.996 Y251.043 Z-0.319 F200.
G1 X901.665 Y251.044 Z-0.686
G1 X901.602 Y251.049 Z-0.761
G1 X901.315 Y251.079 Z-1.117
G1 X901.207 Y251.093 Z-1.255
G1 X901.09 Y251.111 Z-1.414
G1 X900.766 Y251.167 Z-1.865
G1 X900.63 Y251.193 Z-2.059
G1 X900.488 Y251.225 Z-2.267
G1 X900.34 Y251.263 Z-2.489
G1 X900.043 Y250.989
G1 X899.981 Y250.929
G1 X899.371 Y250.297
G1 X899.315 Y250.235
G1 X898.743 Y249.572
G1 X898.689 Y249.506
G1 X898.158 Y248.814
G1 X898.109 Y248.746
G1 X897.619 Y248.026
G1 X897.574 Y247.955
G1 X897.126 Y247.21
G1 X897.084 Y247.137
G1 X896.679 Y246.368
G1 X896.642 Y246.292
G1 X896.281 Y245.501
G1 X896.248 Y245.423
G1 X895.932 Y244.611
G1 X895.904 Y244.531
G1 X895.634 Y243.7
G1 X895.61 Y243.62
G1 X895.387 Y242.773
G1 X895.368 Y242.691
G1 X895.192 Y241.828
G1 X895.177 Y241.742
G1 X895.051 Y240.865
G1 X895.042 Y240.782
G1 X894.965 Y239.894
G1 X894.96 Y239.807
G1 X894.935 Y238.908
G1 X894.934 Y238.84
G1 X894.945 Y238.242
G1 X894.948 Y238.184
G1 X894.982 Y237.589
G1 X894.986 Y237.534
G1 X895.042 Y236.944
G1 X895.048 Y236.885
G1 X895.127 Y236.299
G1 X895.136 Y236.246
G1 X895.236 Y235.665
G1 X895.247 Y235.606
G1 X895.37 Y235.03
G1 X895.382 Y234.977
G1 X895.526 Y234.407
G1 X895.542 Y234.35
G1 X895.708 Y233.787
G1 X895.725 Y233.734
G1 X895.912 Y233.178
G1 X895.931 Y233.123
G1 X896.14 Y232.574
G1 X896.161 Y232.523
G1 X896.39 Y231.982
G1 X896.414 Y231.929
G1 X896.665 Y231.396
G1 X896.69 Y231.344
G1 X896.962 Y230.82
G1 X896.989 Y230.772
G1 X897.281 Y230.257
G1 X897.311 Y230.206
G1 X897.624 Y229.702
G1 X897.654 Y229.654
G1 X897.988 Y229.159
G1 X898.039 Y229.089
G1 X898.094 Y229.021
G1 X898.23 Y228.863
G3 X898.45 Y228.655 I1.127 J0.97
G1 X898.611 Y228.531
G3 X898.859 Y228.376 I0.907 J1.178
G1 X899.037 Y228.288
G3 X899.298 Y228.188 I0.659 J1.333
G1 X899.489 Y228.135
G3 X899.774 Y228.085 I0.398 J1.433
G1 X899.971 Y228.07
G3 X900.256 Y228.076 I0.113 J1.483
G1 X900.315 Y228.083
G1 X900.438 Y228.235 Z-2.251
G1 X900.526 Y228.35 Z-2.079
G1 X900.57 Y228.408 Z-1.997
G1 X900.775 Y228.702 Z-1.615
G1 X900.838 Y228.798 Z-1.498
G1 X900.894 Y228.893 Z-1.393
G1 X900.916 Y228.933 Z-1.351
G1 X901.015 Y229.103 Z-1.178
G1 X901.054 Y229.173 Z-1.11
G1 X901.088 Y229.244 Z-1.051
G1 X901.184 Y229.453 Z-0.886
G1 X901.201 Y229.491 Z-0.857
G1 X901.228 Y229.558 Z-0.816
G1 X901.302 Y229.756 Z-0.707
G1 X901.317 Y229.8 Z-0.685
G1 X901.358 Y229.95 Z-0.628
G1 X901.384 Y230.04 Z-0.6
G1 X901.402 Y230.114 Z-0.583
G1 X901.44 Y230.309 Z-0.557
G1 X901.448 Y230.365 Z-0.554
G1 X901.453 Y230.414 Z-0.555
G1 X901.474 Y230.573 Z-0.568
G1 X901.48 Y230.648 Z-0.581
G1 X901.486 Y230.85 Z-0.632
G1 X901.487 Y230.901 Z-0.649
G1 X901.48 Y231.145 Z-0.765
G1 X901.477 Y231.199 Z-0.793
G1 X901.46 Y231.337 Z-0.88
G1 X901.446 Y231.478 Z-0.978
G1 X901.403 Y231.823 Z-1.239
G1 X901.358 Y232.333 Z-1.652
G1 X901.351 Y232.435 Z-1.739
G1 X901.343 Y232.633 Z-1.912
G1 X901.342 Y232.875 Z-2.111
G1 X901.344 Y232.998 Z-2.215
G1 X901.355 Y233.308 Z-2.489
G1 X901.414 Y233.401
G1 X901.492 Y233.51
G1 X901.722 Y233.806
G1 X901.808 Y233.907
G1 X902.064 Y234.182
G1 X902.155 Y234.272
G1 X902.436 Y234.526
G1 X902.535 Y234.608
G1 X902.841 Y234.84
G1 X902.968 Y234.926
G1 X903.431 Y235.207
G1 X903.506 Y235.25
G1 X903.584 Y235.288
G1 X904.085 Y235.517
G1 X904.158 Y235.548
G1 X904.232 Y235.575
G1 X904.768 Y235.754
G1 X904.897 Y235.791
G1 X905.464 Y235.925
G1 X905.587 Y235.949
G1 X906.184 Y236.038
G1 X906.291 Y236.05
G1 X906.915 Y236.097
G1 X907.009 Y236.101
G1 X907.577 Y236.108
G1 X907.734 Y236.058 Z-2.403
G1 X908.456 Y235.812 Z-2.032
G1 X909.166 Y235.55 Z-1.695
G1 X909.875 Y235.271 Z-1.383
G1 X910.584 Y234.977 Z-1.092
G1 X911.292 Y234.669 Z-0.823
G1 X911.998 Y234.349 Z-0.572
G1 X912.706 Y234.017 Z-0.336
G1 X913.818 Y233.471 Z0
G1 X912.706 Y234.017 Z-0.336
G1 X911.998 Y234.349 Z-0.572
G1 X911.292 Y234.669 Z-0.823
G1 X910.584 Y234.977 Z-1.092
G1 X909.875 Y235.271 Z-1.383
G1 X909.166 Y235.55 Z-1.695
G1 X908.456 Y235.812 Z-2.032
G1 X907.734 Y236.058 Z-2.403
G1 X907.577 Y236.108 Z-2.489
G1 X900.222 Y241.286
G1 X900.167 Y241.032
G1 X900.06 Y240.321
G1 X899.994 Y239.598
G1 X899.972 Y238.872
G1 X900.007 Y237.947
G1 X900.111 Y237.04
G1 X900.282 Y236.15
G1 X900.521 Y235.278
G1 X900.826 Y234.427
G1 X901.195 Y233.602
G1 X901.355 Y233.308
G1 X901.195 Y233.602
G1 X900.826 Y234.427
G1 X900.521 Y235.278
G1 X900.282 Y236.15
G1 X900.111 Y237.04
G1 X900.007 Y237.947
G1 X899.972 Y238.872
G1 X899.994 Y239.598
G1 X900.06 Y240.321
G1 X900.167 Y241.032
G1 X900.222 Y241.286
G1 X900.131 Y241.519 Z-2.249
G1 X900.098 Y241.605 Z-2.164
G1 X900.034 Y241.8 Z-1.983
G1 X899.983 Y241.973 Z-1.819
G1 X899.958 Y242.068 Z-1.732
G1 X899.936 Y242.163 Z-1.652
G1 X899.919 Y242.256 Z-1.58
G1 X899.876 Y242.524 Z-1.384
G1 X899.864 Y242.616 Z-1.321
G1 X899.859 Y242.726 Z-1.251
G1 X899.855 Y242.985 Z-1.099
G1 X899.857 Y243.067 Z-1.055
G1 X899.863 Y243.148 Z-1.02
G1 X899.889 Y243.397 Z-0.923
G1 X899.901 Y243.466 Z-0.896
G1 X899.914 Y243.526 Z-0.878
G1 X899.968 Y243.736 Z-0.825
G1 X899.983 Y243.789 Z-0.814
G1 X900 Y243.841 Z-0.808
G1 X900.077 Y244.049 Z-0.794
G1 X900.091 Y244.083 Z-0.793
G1 X900.115 Y244.139 Z-0.796
G1 X900.2 Y244.3 Z-0.805
G1 X900.222 Y244.34 Z-0.809
G1 X900.342 Y244.531 Z-0.853
G1 X900.37 Y244.572 Z-0.865
G1 X900.51 Y244.755 Z-0.945
G1 X900.574 Y244.828 Z-0.983
G1 X900.699 Y244.958 Z-1.062
G1 X900.744 Y245.003 Z-1.092
G1 X900.933 Y245.168 Z-1.237
G1 X900.986 Y245.212 Z-1.28
G1 X901.122 Y245.313 Z-1.399
G1 X901.199 Y245.366 Z-1.462
G1 X901.274 Y245.416 Z-1.526
G1 X901.354 Y245.463 Z-1.598
G1 X901.529 Y245.562 Z-1.761
G1 X901.629 Y245.616 Z-1.857
G1 X901.735 Y245.666 Z-1.963
G1 X901.848 Y245.718 Z-2.08
G1 X901.932 Y245.753 Z-2.162
G1 X902.056 Y245.802 Z-2.286
G1 X902.255 Y245.875 Z-2.489
G1 X902.459 Y246.155
G1 X902.912 Y246.703
G1 X903.398 Y247.224
G1 X903.918 Y247.719
G1 X904.261 Y248.008
G1 X904.235 Y248.482 Z-1.833
G1 X904.203 Y249.778 Z0
G1 X904.235 Y248.482 Z-1.833
G1 X904.261 Y248.008 Z-2.489
G1 X910.271 Y243.966
G1 X902.255 Y245.875
G1 X910.271 Y243.966
G1 X917.658 Y240.731 Z0
G0 Z5
G0 X900.34 Y251.263
G1 Z-2.489 F100.
G1 X900.338 Y251.271 F200.
G1 X900.282 Y251.461
G2 X900.228 Y251.738 I1.426 J0.42
G1 X900.209 Y251.935
G2 Y252.22 I1.48 J0.143
G1 X900.228 Y252.418
G2 X900.283 Y252.702 I1.48 J-0.142
G1 X900.341 Y252.896
G2 X900.455 Y253.172 I1.425 J-0.426
G1 X900.554 Y253.357
G2 X900.722 Y253.605 I1.311 J-0.702
G1 X900.855 Y253.765
G2 X901.062 Y253.97 I1.143 J-0.95
G1 X901.22 Y254.098
G2 X901.47 Y254.262 I0.936 J-1.155
G1 X901.647 Y254.354
G2 X901.911 Y254.461 I0.686 J-1.319
G1 X902.1 Y254.517
G2 X902.372 Y254.57 I0.422 J-1.426
G1 X902.569 Y254.59
G2 X902.86 Y254.591 I0.15 J-1.479
G1 X903.059 Y254.572
G2 X903.344 Y254.517 I-0.141 J-1.48
G1 X903.538 Y254.459
G2 X903.817 Y254.343 I-0.426 J-1.425
G1 X904 Y254.244
G1 X904.126 Y254.169
G1 X904.989 Y253.588
G1 X905.032 Y253.679
G1 X905.081 Y253.768
G1 X905.162 Y253.904
G1 X905.226 Y254.003
G1 X905.298 Y254.097
G1 X905.4 Y254.219
G1 X905.473 Y254.3
G1 X905.551 Y254.375
G1 X905.671 Y254.482
G1 X905.767 Y254.56
G1 X905.868 Y254.63
G1 X906.006 Y254.717
G1 X906.108 Y254.775
G1 X906.213 Y254.826
G1 X906.367 Y254.892
G1 X906.509 Y254.944
G1 X907.106 Y255.131
G1 X907.163 Y255.148
G1 X907.767 Y255.311
G1 X907.826 Y255.325
G1 X908.436 Y255.463
G1 X908.495 Y255.475
G1 X909.11 Y255.588
G1 X909.17 Y255.598
G1 X909.79 Y255.686
G1 X909.85 Y255.693
G1 X910.474 Y255.756
G1 X910.533 Y255.761
G1 X911.161 Y255.799
G1 X911.223 Y255.802
G1 X911.853 Y255.814
G1 X911.918 Y255.813
G1 X912.713 Y255.793
G1 X912.789 Y255.79
G1 X913.573 Y255.73
G1 X913.647 Y255.722
G1 X914.42 Y255.624
G1 X914.495 Y255.613
G1 X915.255 Y255.477
G1 X915.328 Y255.462
G1 X916.076 Y255.289
G1 X916.149 Y255.27
G1 X916.882 Y255.061
G1 X916.951 Y255.039
G1 X917.669 Y254.796
G1 X917.738 Y254.771
G1 X918.44 Y254.494
G1 X918.509 Y254.465
G1 X919.193 Y254.154
G1 X919.255 Y254.124
G1 X919.922 Y253.783
G1 X919.988 Y253.747
G1 X920.635 Y253.374
G1 X920.695 Y253.337
G1 X921.323 Y252.934
G1 X921.382 Y252.895
G1 X921.988 Y252.464
G1 X922.045 Y252.421
G1 X922.629 Y251.962
G1 X922.685 Y251.916
G1 X923.246 Y251.429
G1 X923.296 Y251.383
G1 X923.834 Y250.871
G1 X923.885 Y250.82
G1 X924.397 Y250.283
G1 X924.446 Y250.23
G1 X924.932 Y249.668
G1 X924.975 Y249.615
G1 X925.435 Y249.031
G1 X925.479 Y248.973
G1 X925.91 Y248.367
G1 X925.949 Y248.309
G1 X926.352 Y247.682
G1 X926.391 Y247.618
G1 X926.763 Y246.97
G1 X926.796 Y246.909
G1 X927.138 Y246.243
G1 X927.17 Y246.177
G1 X927.48 Y245.492
G1 X927.508 Y245.425
G1 X927.785 Y244.723
G1 X927.81 Y244.655
G1 X928.054 Y243.937
G1 X928.076 Y243.865
G1 X928.284 Y243.132
G1 X928.303 Y243.061
G1 X928.476 Y242.314
G1 X928.49 Y242.242
G1 X928.627 Y241.481
G1 X928.639 Y241.405
G1 X928.737 Y240.632
G1 X928.745 Y240.558
G1 X928.805 Y239.774
G1 X928.808 Y239.698
G1 X928.828 Y238.904
G1 Y238.834
G1 X928.814 Y238.156
G1 X928.811 Y238.094
G1 X928.768 Y237.422
G1 X928.762 Y237.355
G1 X928.689 Y236.688
G1 X928.681 Y236.628
G1 X928.581 Y235.967
G1 X928.57 Y235.901
G1 X928.441 Y235.247
G1 X928.427 Y235.183
G1 X928.27 Y234.538
G1 X928.253 Y234.477
G1 X928.069 Y233.84
G1 X928.05 Y233.779
G1 X927.839 Y233.151
G1 X927.818 Y233.091
G1 X927.58 Y232.473
G1 X927.555 Y232.414
G1 X927.292 Y231.807
G1 X927.264 Y231.747
G1 X926.973 Y231.152
G1 X926.944 Y231.096
G1 X926.628 Y230.513
G1 X926.596 Y230.457
G1 X926.254 Y229.887
G1 X926.22 Y229.832
G1 X925.852 Y229.275
G1 X925.815 Y229.223
G1 X925.791 Y229.189
G1 X925.623 Y229.195 Z-2.247
G1 X925.463 Y229.194 Z-2.023
G1 X925.138 Y229.187 Z-1.574
G1 X925.006 Y229.182 Z-1.395
G1 X924.882 Y229.17 Z-1.233
G1 X924.726 Y229.152 Z-1.034
G1 X924.519 Y229.131 Z-0.775
G1 X923.874 Y229.037 Z0
G1 X924.519 Y229.131 Z-0.775
G1 X924.726 Y229.152 Z-1.034
G1 X924.882 Y229.17 Z-1.233
G1 X925.006 Y229.182 Z-1.395
G1 X925.138 Y229.187 Z-1.574
G1 X925.463 Y229.194 Z-2.023
G1 X925.623 Y229.195 Z-2.247
G1 X925.791 Y229.189 Z-2.489
G1 X925.833 Y229.112
G1 X925.921 Y228.939
G2 X926.021 Y228.691 I-1.325 J-0.674
G1 X926.076 Y228.507
G2 X926.13 Y228.236 I-1.425 J-0.426
G1 X926.15 Y228.045
G2 X926.152 Y227.76 I-1.479 J-0.155
G1 X926.135 Y227.567
G2 X926.086 Y227.296 I-1.481 J0.13
G1 X926.033 Y227.107
G2 X925.926 Y226.834 I-1.432 J0.401
G1 X925.834 Y226.653
G2 X925.681 Y226.413 I-1.326 J0.674
G1 X925.557 Y226.254
G2 X925.358 Y226.044 I-1.172 J0.914
G1 X925.209 Y225.915
G2 X924.979 Y225.751 I-0.973 J1.124
G1 X924.811 Y225.654
G2 X924.554 Y225.537 I-0.743 J1.288
G1 X924.372 Y225.474
G2 X924.11 Y225.409 I-0.486 J1.405
G1 X923.92 Y225.38
G2 X923.642 Y225.364 I-0.224 J1.47
G1 X923.449 Y225.371
G2 X923.164 Y225.409 I0.054 J1.486
G1 X922.972 Y225.454
G2 X922.7 Y225.547 I0.339 J1.448
G1 X922.516 Y225.63
G1 X922.398 Y225.689
G1 X922.048 Y225.886
G0 Z5
G0 X899.661 Y196.941
G1 Z-0.001 F100.
G1 X899.667 Y196.936 Z-0.012 F200.
G1 X899.686 Y196.919 Z-0.051
G1 X901.092 Y195.945 Z-2.488
G0 Z5
G0 X899.656 Y192.712
G1 Z0 F100.
G1 X901.093 Y193.706 Z-2.489 F200.
G1 Y195.945
G1 X915.95 Y201.54
G3 X916.818 Y203.455 I-0.524 J1.391
G3 X915.426 Y204.418 I-1.391 J-0.524
G1 X901.098
G1 X899.662 Y202.981 Z-0.001
G1 X901.098 Y204.418 Z-2.489
G1 X901.097 Y206.615
G1 X899.659 Y208.052 Z-0.001
G1 X901.097 Y206.615 Z-2.489
G1 X922.573
G1 X924.009 Y208.052 Z-0.001
G1 X922.573 Y206.615 Z-2.489
G1 X922.575 Y202.931
G1 Y202.292
G1 X924.012 Y201.297 Z0
G1 X922.575 Y202.292 Z-2.489
G1 X906.486 Y196.255
G3 X905.521 Y194.863 I0.522 J-1.392
G1 Y194.789
G3 X906.486 Y193.397 I1.487 J0
G1 X922.57 Y187.362
G1 X924.007 Y188.357 Z0
G1 X922.57 Y187.362 Z-2.489
G1 Y186.722
G1 Y186.721
G1 X922.572 Y183.037
G1 X924.009 Y181.6 Z-0.001
G1 X922.572 Y183.037 Z-2.489
G1 X901.095
G1 X899.659 Y181.6 Z-0.001
G1 X901.095 Y183.037 Z-2.489
G1 X901.094 Y185.235
G1 X899.656 Y186.672 Z-0.001
G1 X901.094 Y185.235 Z-2.489
G1 X915.421
G3 X916.908 Y186.722 I0 J1.487
G3 X915.945 Y188.113 I-1.487 J0
G1 X901.093 Y193.706
G0 Z5
G0 X899.659 Y167.58
G1 Z0 F100.
G1 X900.015 Y167.391 Z-0.616 F200.
G1 X900.377 Y167.181 Z-1.244
G1 X900.718 Y166.972 Z-1.834
G1 X901.043 Y166.761 Z-2.397
G1 X901.096 Y166.724 Z-2.489
G1 X901.276 Y166.794
G1 X901.516 Y166.877
G1 X901.778 Y166.955
G1 X902.09 Y167.038
G3 X903.097 Y167.946 I-0.383 J1.437
G1 X903.092 Y167.969 Z-2.467
G1 X903.066 Y168.085 Z-2.363
G1 X903.044 Y168.186 Z-2.283
G1 X903.013 Y168.315 Z-2.193
G1 X902.977 Y168.439 Z-2.114
G1 X902.935 Y168.56 Z-2.046
G1 X902.918 Y168.607 Z-2.023
G1 X902.902 Y168.649 Z-2.005
G1 X902.874 Y168.724 Z-1.98
G1 X902.831 Y168.831 Z-1.956
G1 X902.784 Y168.936 Z-1.942
G1 X902.731 Y169.037 Z-1.937
G1 X902.7 Y169.091 Z-1.938
G1 X902.666 Y169.15 Z-1.945
G1 X902.636 Y169.201 Z-1.956
G1 X902.586 Y169.284 Z-1.982
G1 X902.531 Y169.365 Z-2.015
G1 X902.473 Y169.445 Z-2.054
G1 X902.378 Y169.57 Z-2.123
G1 X902.306 Y169.67 Z-2.181
G1 X902.262 Y169.734 Z-2.221
G1 X902.096 Y169.99 Z-2.363
G1 X902.044 Y170.076 Z-2.405
G1 X901.982 Y170.183 Z-2.46
G1 X901.954 Y170.234 Z-2.489
G1 X901.86 Y170.651
G1 X901.838 Y170.771
G1 X901.77 Y171.257
G1 X901.758 Y171.381
G1 X901.731 Y171.868
G1 X901.73 Y172.003
G1 X901.747 Y172.48
G1 X901.752 Y172.559
G1 X901.761 Y172.638
G1 X901.826 Y173.091
G1 X901.843 Y173.187
G1 X901.866 Y173.281
G1 X901.983 Y173.699
G1 X902.021 Y173.814
G1 X902.067 Y173.926
G1 X902.239 Y174.295
G1 X902.288 Y174.391
G1 X902.344 Y174.483
G1 X902.451 Y174.646
G1 X902.502 Y174.719
G1 X902.557 Y174.788
G1 X902.68 Y174.934
G1 X902.741 Y175.002
G1 X902.806 Y175.066
G1 X902.944 Y175.194
G1 X903.022 Y175.262
G1 X903.105 Y175.324
G1 X903.26 Y175.432
G1 X903.345 Y175.487
G1 X903.433 Y175.536
G1 X903.603 Y175.623
G1 X903.7 Y175.668
G1 X903.801 Y175.707
G1 X903.989 Y175.771
G1 X904.085 Y175.8
G1 X904.183 Y175.822
G1 X904.388 Y175.862
G1 X904.487 Y175.878
G1 X904.586 Y175.887
G1 X904.809 Y175.9
G1 X904.956 Y175.902
G1 X905.254 Y175.89
G1 X905.395 Y175.877
G1 X905.673 Y175.839
G1 X905.751 Y175.827
G1 X905.827 Y175.81
G1 X906.083 Y175.747
G1 X906.166 Y175.724
G1 X906.247 Y175.696
G1 X906.483 Y175.608
G1 X906.572 Y175.572
G1 X906.658 Y175.53
G1 X906.872 Y175.417
G1 X906.959 Y175.367
G1 X907.043 Y175.311
G1 X907.236 Y175.173
G1 X907.317 Y175.111
G1 X907.394 Y175.043
G1 X907.566 Y174.88
G1 X907.637 Y174.808
G1 X907.702 Y174.732
G1 X907.853 Y174.544
G1 X907.912 Y174.466
G1 X907.965 Y174.385
G1 X908.095 Y174.171
G1 X908.138 Y174.096
G1 X908.176 Y174.018
G1 X908.285 Y173.78
G1 X908.317 Y173.704
G1 X908.345 Y173.626
G1 X908.432 Y173.362
G1 X908.468 Y173.234
G1 X908.535 Y172.946
G1 X908.559 Y172.82
G1 X908.604 Y172.506
G1 X908.615 Y172.404
G1 X908.64 Y172.065
G1 X908.644 Y171.968
G1 X908.647 Y171.604
G1 X908.645 Y171.523
G1 X908.629 Y171.169
G1 Y169.174
G1 X908.668 Y169.602
G1 X908.715 Y170.236
G1 X908.746 Y170.846
G1 X908.763 Y171.432
G1 X908.766 Y171.994
G1 X908.755 Y172.532
G1 X908.73 Y173.046
G1 X908.692 Y173.534
G1 X908.641 Y173.995
G1 X908.577 Y174.432
G1 X908.501 Y174.843
G1 X908.412 Y175.23
G1 X908.314 Y175.589
G1 X908.206 Y175.92
G1 X908.087 Y176.227
G1 X907.96 Y176.509
G1 X907.825 Y176.767
G1 X907.684 Y177
G1 X907.537 Y177.21
G1 X907.383 Y177.398
G1 X907.222 Y177.569
G1 X907.056 Y177.719
G1 X906.88 Y177.856
G1 X906.696 Y177.978
G1 X906.5 Y178.085
G1 X906.289 Y178.181
G1 X906.067 Y178.263
G1 X905.827 Y178.331
G1 X905.568 Y178.387
G1 X905.288 Y178.427
G1 X904.987 Y178.453
G1 X904.629 Y178.463
G1 X904.038 Y178.479
G1 X903.563 Y178.45
G1 X903.147 Y178.384
G1 X902.785 Y178.283
G1 X902.472 Y178.155
G1 X902.2 Y177.998
G1 X901.957 Y177.81
G1 X901.737 Y177.587
G1 X901.533 Y177.317
G1 X901.344 Y176.992
G1 X901.175 Y176.607
G1 X901.028 Y176.155
G1 X900.907 Y175.634
G1 X900.817 Y175.047
G1 X900.762 Y174.392
G1 X900.743 Y173.665
G1 X900.749 Y173.319
G1 X900.771 Y172.992
G1 X900.808 Y172.677
G1 X900.859 Y172.382
G1 X900.925 Y172.098
G1 X901.005 Y171.828
G1 X901.097 Y171.572
G1 X901.204 Y171.326
G1 X901.324 Y171.091
G1 X901.458 Y170.867
G1 X901.607 Y170.649
G1 X901.77 Y170.441
G1 X901.949 Y170.239
G1 X901.954 Y170.234
G1 X901.949 Y170.239
G1 X901.77 Y170.441
G1 X901.607 Y170.649
G1 X901.458 Y170.867
G1 X901.324 Y171.091
G1 X901.204 Y171.326
G1 X901.097 Y171.572
G1 X901.005 Y171.828
G1 X900.925 Y172.098
G1 X900.859 Y172.382
G1 X900.808 Y172.677
G1 X900.771 Y172.992
G1 X900.749 Y173.319
G1 X900.743 Y173.665
G1 X900.762 Y174.392
G1 X900.817 Y175.047
G1 X900.907 Y175.634
G1 X901.028 Y176.155
G1 X901.175 Y176.607
G1 X901.344 Y176.992
G1 X901.533 Y177.317
G1 X901.737 Y177.587
G1 X901.957 Y177.81
G1 X902.2 Y177.998
G1 X902.472 Y178.155
G1 X902.785 Y178.283
G1 X903.147 Y178.384
G1 X903.563 Y178.45
G1 X904.038 Y178.479
G1 X904.629 Y178.463
G1 X904.987 Y178.453
G1 X905.288 Y178.427
G1 X905.568 Y178.387
G1 X905.827 Y178.331
G1 X906.067 Y178.263
G1 X906.289 Y178.181
G1 X906.5 Y178.085
G1 X906.696 Y177.978
G1 X906.88 Y177.856
G1 X907.056 Y177.719
G1 X907.222 Y177.569
G1 X907.383 Y177.398
G1 X907.537 Y177.21
G1 X907.684 Y177
G1 X907.825 Y176.767
G1 X907.96 Y176.509
G1 X908.087 Y176.227
G1 X908.206 Y175.92
G1 X908.314 Y175.589
G1 X908.412 Y175.23
G1 X908.501 Y174.843
G1 X908.577 Y174.432
G1 X908.641 Y173.995
G1 X908.692 Y173.534
G1 X908.73 Y173.046
G1 X908.755 Y172.532
G1 X908.766 Y171.994
G1 X908.763 Y171.432
G1 X908.746 Y170.846
G1 X908.715 Y170.236
G1 X908.668 Y169.602
G1 X908.629 Y169.174
G1 X908.618 Y168.927 Z-2.469
G1 X908.615 Y168.792 Z-2.464
G1 Y168.696 Z-2.469
G1 Y168.643 Z-2.477
G1 Y168.586 Z-2.489
G2 X907.142 Y167.305 I-1.472 J0.206
G1 X904.377
G2 X903.447 Y167.632 I0 J1.487
G1 X903.326 Y167.729
G1 X903.261 Y167.784
G1 X903.2 Y167.842
G1 X903.097 Y167.946
G1 X903.2 Y167.842
G1 X903.261 Y167.784
G1 X903.326 Y167.729
G1 X903.447 Y167.632
G3 X904.377 Y167.305 I0.93 J1.16
G1 X907.142
G3 X908.615 Y168.586 I0 J1.487
G3 X910.097 Y167.305 I1.472 J0.206
G1 X910.527 Y167.308
G1 X910.558 Y167.309
G1 X910.96 Y167.32
G1 X910.998 Y167.321
G1 X911.373 Y167.341
G1 X911.439 Y167.346
G1 X911.787 Y167.38
G1 X911.864 Y167.39
G1 X912.089 Y167.424
G1 X912.21 Y167.447
G1 X912.425 Y167.498
G1 X912.565 Y167.539
G1 X912.769 Y167.609
G1 X912.9 Y167.661
G1 X913.092 Y167.748
G1 X913.167 Y167.785
G1 X913.241 Y167.826
G1 X913.42 Y167.933
G1 X913.487 Y167.976
G1 X913.553 Y168.022
G1 X913.72 Y168.148
G1 X913.785 Y168.2
G1 X913.847 Y168.256
G1 X914.001 Y168.402
G1 X914.061 Y168.463
G1 X914.118 Y168.526
G1 X914.257 Y168.692
G1 X914.305 Y168.753
G1 X914.35 Y168.816
G1 X914.476 Y169.003
G1 X914.555 Y169.134
G1 X914.666 Y169.342
G1 X914.728 Y169.474
G1 X914.823 Y169.704
G1 X914.866 Y169.822
G1 X914.946 Y170.074
G1 X914.977 Y170.188
G1 X915.041 Y170.464
G1 X915.062 Y170.568
G1 X915.109 Y170.866
G1 X915.12 Y170.96
G1 X915.15 Y171.282
G1 X915.156 Y171.369
G1 X915.168 Y171.716
G1 Y171.827
G1 X915.154 Y172.173
G1 X915.142 Y172.306
G1 X915.102 Y172.612
G1 X915.077 Y172.751
G1 X915.017 Y173.013
G1 X914.99 Y173.116
G1 X914.898 Y173.417
G1 X914.852 Y173.545
G1 X914.721 Y173.865
G1 X914.685 Y173.946
G1 X914.644 Y174.025
G1 X914.467 Y174.343
G1 X914.404 Y174.446
G1 X914.333 Y174.544
G1 X914.1 Y174.838
G1 X914.032 Y174.917
G1 X913.959 Y174.992
G1 X913.82 Y175.124
G1 X913.76 Y175.178
G1 X913.697 Y175.229
G1 X913.542 Y175.347
G1 X913.473 Y175.396
G1 X913.403 Y175.441
G1 X913.047 Y175.256 Z-1.901
G1 X912.944 Y175.2 Z-1.729
G1 X912.846 Y175.143 Z-1.569
G1 X912.483 Y174.924 Z-0.972
G1 X912.431 Y174.889 Z-0.887
G1 X912.104 Y174.661 Z-0.354
G1 X911.886 Y174.49 Z-0.001
G1 X912.104 Y174.661 Z-0.354
G1 X912.431 Y174.889 Z-0.887
G1 X912.483 Y174.924 Z-0.972
G1 X912.846 Y175.143 Z-1.569
G1 X912.944 Y175.2 Z-1.729
G1 X913.047 Y175.256 Z-1.901
G1 X913.403 Y175.441 Z-2.489
G1 X913.585 Y177.73
G1 X913.301 Y178.114 Z-1.946
G1 X912.84 Y178.669 Z-1.074
G1 X912.267 Y179.291 Z0
G1 X912.84 Y178.669 Z-1.074
G1 X913.301 Y178.114 Z-1.946
G1 X913.585 Y177.73 Z-2.489
G1 X913.648 Y177.716
G1 X913.995 Y177.592
G1 X914.303 Y177.433
G1 X914.58 Y177.238
G1 X914.835 Y177
G1 X915.075 Y176.709
G1 X915.299 Y176.356
G1 X915.506 Y175.933
G1 X915.69 Y175.438
G1 X915.848 Y174.87
G1 X915.976 Y174.224
G1 X916.07 Y173.505
G1 X916.127 Y172.713
G1 X916.147 Y171.839
G1 X916.142 Y171.346
G1 X916.127 Y170.864
G1 X916.102 Y170.402
G1 X916.067 Y169.96
G1 X916.023 Y169.537
G1 X915.97 Y169.135
G1 X915.907 Y168.754
G1 X915.837 Y168.393
G1 X915.758 Y168.054
G1 X915.671 Y167.736
G1 X915.578 Y167.44
G1 X915.477 Y167.165
G1 X915.37 Y166.91
G1 X915.258 Y166.674
G1 X915.142 Y166.46
G1 X915.022 Y166.267
G1 X914.899 Y166.094
G1 X914.771 Y165.936
G1 X914.641 Y165.794
G1 X914.51 Y165.67
G1 X914.372 Y165.558
G1 X914.231 Y165.459
G1 X914.084 Y165.372
G1 X913.927 Y165.293
G1 X913.763 Y165.225
G1 X913.59 Y165.167
G1 X913.402 Y165.119
G1 X913.2 Y165.081
G1 X912.987 Y165.054
G1 X912.756 Y165.039
G1 X912.509 Y165.037
G1 X912.211 Y165.05
G1 X912.145 Y165.052
G1 X904.935 Y165.05
G1 X904.887 Y165.049
G1 X904.389 Y165.033
G1 X904.362 Y165.032
G1 X903.885 Y165.008
G1 X903.859 Y165.006
G1 X903.405 Y164.975
G1 X903.376 Y164.973
G1 X902.944 Y164.935
G1 X902.912 Y164.932
G1 X902.501 Y164.887
G1 X902.466 Y164.883
G1 X902.078 Y164.831
G1 X902.038 Y164.825
G1 X901.672 Y164.766
G1 X901.625 Y164.757
G1 X901.281 Y164.69
G1 X901.236 Y164.681
G1 X901.096 Y164.649
G1 Y166.724
G1 Y164.649
G1 X900.904 Y164.408 Z-2.157
G1 X900.635 Y164.055 Z-1.69
G1 X900.394 Y163.726 Z-1.274
G1 X900.182 Y163.42 Z-0.906
G1 X899.997 Y163.137 Z-0.586
G1 X899.844 Y162.883 Z-0.32
G1 X899.714 Y162.651 Z-0.095
G1 X899.659 Y162.543 Z0
G0 Z5
G0 X904.851 Y162.044
G1 Z-0.001 F100.
G1 X904.564 Y161.736 Z-0.523 F200.
G1 X904.272 Y161.406 Z-1.056
G1 X904.019 Y161.105 Z-1.519
G1 X903.802 Y160.83 Z-1.918
G1 X903.616 Y160.58 Z-2.261
G1 X903.492 Y160.404 Z-2.489
G1 X903.627 Y157.62
G1 X903.943 Y157.432 Z-1.958
G1 X904.03 Y157.376 Z-1.812
G1 X904.384 Y157.142 Z-1.219
G1 X904.479 Y157.076 Z-1.061
G1 X904.848 Y156.804 Z-0.445
G1 X905.116 Y156.588 Z-0.001
G1 X904.848 Y156.804 Z-0.445
G1 X904.479 Y157.076 Z-1.061
G1 X904.384 Y157.142 Z-1.219
G1 X904.03 Y157.376 Z-1.812
G1 X903.943 Y157.432 Z-1.958
G1 X903.627 Y157.62 Z-2.489
G1 X903.538 Y157.576
G1 X903.463 Y157.537
G1 X903.391 Y157.493
G1 X903.191 Y157.365
G1 X903.121 Y157.318
G1 X903.054 Y157.266
G1 X902.871 Y157.117
G1 X902.807 Y157.062
G1 X902.746 Y157.003
G1 X902.581 Y156.834
G1 X902.525 Y156.773
G1 X902.472 Y156.709
G1 X902.324 Y156.519
G1 X902.277 Y156.455
G1 X902.234 Y156.389
G1 X902.103 Y156.178
G1 X902.029 Y156.045
G1 X901.916 Y155.813
G1 X901.864 Y155.691
G1 X901.768 Y155.439
G1 X901.727 Y155.318
G1 X901.649 Y155.045
G1 X901.623 Y154.939
G1 X901.562 Y154.645
G1 X901.546 Y154.549
G1 X901.502 Y154.235
G1 X901.492 Y154.144
G1 X901.466 Y153.809
G1 X901.462 Y153.732
G1 X901.453 Y153.376
G1 X901.452 Y153.309
G1 X901.459 Y152.955
G1 X901.462 Y152.894
G1 X901.482 Y152.564
G1 X901.488 Y152.489
G1 X901.522 Y152.184
G1 X901.534 Y152.104
G1 X901.581 Y151.823
G1 X901.599 Y151.729
G1 X901.659 Y151.473
G1 X901.69 Y151.36
G1 X901.764 Y151.128
G1 X901.81 Y151.004
G1 X901.897 Y150.797
G1 X901.93 Y150.725
G1 X901.966 Y150.655
G1 X902.067 Y150.472
G1 X902.113 Y150.394
G1 X902.163 Y150.32
G1 X902.277 Y150.162
G1 X902.338 Y150.083
G1 X902.404 Y150.009
G1 X902.531 Y149.875
G1 X902.61 Y149.797
G1 X902.695 Y149.726
G1 X902.836 Y149.616
G1 X902.932 Y149.547
G1 X903.032 Y149.486
G1 X903.187 Y149.401
G1 X903.294 Y149.348
G1 X903.405 Y149.303
G1 X903.573 Y149.243
G1 X903.677 Y149.21
G1 X903.783 Y149.185
G1 X903.964 Y149.149
G1 X904.063 Y149.132
G1 X904.162 Y149.123
G1 X904.356 Y149.111
G1 X904.448 Y149.108
G1 X904.541 Y149.111
G1 X904.62 Y149.116
G1 X904.661 Y149.111
G3 X904.952 Y149.107 I0.165 J1.478
G1 X905.117 Y149.121
G3 X905.421 Y149.18 I-0.126 J1.482
G1 X905.58 Y149.228
G3 X905.845 Y149.337 I-0.43 J1.423
G1 X906 Y149.419
G3 X906.214 Y149.556 I-0.695 J1.314
G1 X906.362 Y149.671
G1 X906.444 Y149.738
G1 X906.52 Y149.811
G1 X906.664 Y149.959
G1 X906.724 Y150.025
G1 X906.78 Y150.094
G1 X906.919 Y150.276
G1 X907 Y150.394
G1 X907.134 Y150.61
G1 X907.19 Y150.708
G1 X907.319 Y150.956
G1 X907.362 Y151.045
G1 X907.486 Y151.328
G1 X907.516 Y151.403
G1 X907.634 Y151.718
G1 X907.657 Y151.783
G1 X907.77 Y152.133
G1 X907.785 Y152.182
G1 X907.894 Y152.564
G1 X907.907 Y152.615
G1 X908.01 Y153.031
G1 X908.02 Y153.072
G1 X908.118 Y153.522
G1 X908.125 Y153.557
G1 X908.218 Y154.04
G1 X908.23 Y154.108
G1 X908.29 Y154.447
G1 X908.377 Y154.872
G1 X908.487 Y155.346
G1 X908.625 Y155.855
G1 X908.791 Y156.389
G1 X908.985 Y156.928
G1 X909.211 Y157.462
G1 X909.465 Y157.976
G1 X909.746 Y158.454
G1 X910.053 Y158.884
G1 X910.396 Y159.274
G1 X910.551 Y159.421
G1 X910.725 Y159.566
G1 X910.9 Y159.693
G1 X911.08 Y159.803
G1 X911.266 Y159.897
G1 X911.458 Y159.975
G1 X911.658 Y160.038
G1 X911.869 Y160.084
G1 X912.095 Y160.113
G1 X912.324 Y160.122
G1 X912.806 Y160.094
G1 X913.232 Y160.019
G1 X913.607 Y159.904
G1 X913.941 Y159.751
G1 X914.244 Y159.557
G1 X914.526 Y159.317
G1 X914.792 Y159.021
G1 X915.044 Y158.66
G1 X915.28 Y158.226
G1 X915.495 Y157.717
G1 X915.685 Y157.129
G1 X915.846 Y156.461
G1 X915.976 Y155.715
G1 X916.071 Y154.891
G1 X916.128 Y153.993
G1 X916.147 Y153.02
G1 X916.127 Y152.064
G1 X916.069 Y151.183
G1 X915.974 Y150.378
G1 X915.844 Y149.65
G1 X915.682 Y148.999
G1 X915.49 Y148.427
G1 X915.273 Y147.93
G1 X915.038 Y147.511
G1 X914.785 Y147.162
G1 X914.516 Y146.874
G1 X914.231 Y146.64
G1 X913.923 Y146.451
G1 X913.628 Y146.321
G1 X913.594 Y146.264 Z-2.422
G1 X913.279 Y145.811 Z-1.821
G1 X912.847 Y145.264 Z-1.006
G1 X912.31 Y144.656 Z-0.001
G1 X912.847 Y145.264 Z-1.006
G1 X913.279 Y145.811 Z-1.821
G1 X913.594 Y146.264 Z-2.422
G1 X913.628 Y146.321 Z-2.489
G1 X913.441 Y148.87
G1 X913.053 Y149.108 Z-1.849
G1 X912.973 Y149.161 Z-1.717
G1 X912.63 Y149.396 Z-1.154
G1 X912.546 Y149.456 Z-1.017
G1 X912.189 Y149.729 Z-0.434
G1 X911.921 Y149.949 Z0
G1 X912.189 Y149.729 Z-0.434
G1 X912.546 Y149.456 Z-1.017
G1 X912.63 Y149.396 Z-1.154
G1 X912.973 Y149.161 Z-1.717
G1 X913.053 Y149.108 Z-1.849
G1 X913.441 Y148.87 Z-2.489
G1 X913.481 Y148.887
G1 X913.556 Y148.921
G1 X913.628 Y148.96
G1 X913.839 Y149.079
G1 X913.914 Y149.124
G1 X913.986 Y149.173
G1 X914.179 Y149.314
G1 X914.247 Y149.367
G1 X914.312 Y149.424
G1 X914.487 Y149.586
G1 X914.551 Y149.649
G1 X914.611 Y149.715
G1 X914.767 Y149.899
G1 X914.82 Y149.965
G1 X914.868 Y150.033
G1 X915.006 Y150.239
G1 X915.084 Y150.37
G1 X915.204 Y150.596
G1 X915.269 Y150.734
G1 X915.37 Y150.983
G1 X915.413 Y151.105
G1 X915.496 Y151.375
G1 X915.526 Y151.488
G1 X915.591 Y151.779
G1 X915.611 Y151.887
G1 X915.657 Y152.2
G1 X915.668 Y152.292
G1 X915.696 Y152.627
G1 X915.7 Y152.709
G1 X915.71 Y153.065
G1 X915.711 Y153.133
G1 X915.705 Y153.476
G1 X915.703 Y153.534
G1 X915.685 Y153.853
G1 X915.679 Y153.924
G1 X915.648 Y154.219
G1 X915.637 Y154.298
G1 X915.594 Y154.568
G1 X915.576 Y154.664
G1 X915.52 Y154.91
G1 X915.491 Y155.017
G1 X915.423 Y155.238
G1 X915.38 Y155.36
G1 X915.3 Y155.557
G1 X915.266 Y155.634
G1 X915.228 Y155.708
G1 X915.134 Y155.881
G1 X915.09 Y155.958
G1 X915.041 Y156.031
G1 X914.936 Y156.179
G1 X914.871 Y156.264
G1 X914.8 Y156.344
G1 X914.682 Y156.468
G1 X914.595 Y156.552
G1 X914.501 Y156.629
G1 X914.37 Y156.728
G1 X914.272 Y156.797
G1 X914.168 Y156.857
G1 X914.026 Y156.932
G3 X913.786 Y157.033 I-0.694 J-1.315
G1 X913.63 Y157.083
G1 X913.518 Y157.114
G1 X913.403 Y157.136
G1 X913.235 Y157.162
G1 X913.13 Y157.175
G1 X913.025 Y157.18
G1 X912.845 Y157.182
G1 X912.748 Y157.18
G1 X912.652 Y157.171
G1 X912.637 Y157.17
G3 X912.374 Y157.177 I-0.175 J-1.477
G1 X912.206 Y157.167
G3 X911.935 Y157.126 I0.088 J-1.484
G1 X911.774 Y157.086
G3 X911.514 Y156.995 I0.359 J-1.443
G1 X911.359 Y156.924
G1 X911.249 Y156.868
G1 X911.144 Y156.803
G1 X910.995 Y156.702
G1 X910.905 Y156.636
G1 X910.82 Y156.564
G1 X910.677 Y156.432
G1 X910.612 Y156.367
G1 X910.551 Y156.299
G1 X910.414 Y156.137
G1 X910.365 Y156.076
G1 X910.319 Y156.012
G1 X910.188 Y155.819
G1 X910.121 Y155.711
G1 X909.996 Y155.488
G1 X909.945 Y155.387
G1 X909.827 Y155.133
G1 X909.793 Y155.057
G1 X909.68 Y154.773
G1 X909.653 Y154.699
G1 X909.547 Y154.385
G1 X909.529 Y154.327
G1 X909.428 Y153.982
G1 X909.413 Y153.926
G1 X909.319 Y153.551
G1 X909.308 Y153.504
G1 X909.22 Y153.098
G1 X909.212 Y153.057
G1 X909.13 Y152.62
G1 X909.117 Y152.54
G1 X909.108 Y152.459
G1 X909.102 Y152.411
G1 X909.083 Y152.277
G1 X909.057 Y152.122
G1 X909.024 Y151.935
G1 X909.023 Y151.926
G1 X908.965 Y151.629
G1 X908.887 Y151.273
G1 X908.789 Y150.877
G1 X908.665 Y150.426
G1 X908.661 Y150.409
G1 X908.654 Y150.39
G1 X908.525 Y149.976
G1 X908.385 Y149.576
G1 X908.226 Y149.17
G1 X908.052 Y148.77
G1 X907.859 Y148.383
G1 X907.65 Y148.008
G1 X907.426 Y147.658
G1 X907.187 Y147.336
G1 X906.936 Y147.045
G1 X906.676 Y146.792
G1 X906.406 Y146.577
G1 X906.127 Y146.399
G1 X905.835 Y146.26
G1 X905.528 Y146.157
G1 X905.195 Y146.092
G1 X904.803 Y146.067
G1 X904.566 Y146.076
G1 X904.308 Y146.098
G1 X904.064 Y146.132
G1 X903.836 Y146.178
G1 X903.62 Y146.235
G1 X903.418 Y146.302
G1 X903.229 Y146.379
G1 X903.049 Y146.466
G1 X902.876 Y146.566
G1 X902.711 Y146.676
G1 X902.554 Y146.796
G1 X902.403 Y146.93
G1 X902.256 Y147.079
G1 X902.112 Y147.244
G1 X901.972 Y147.424
G1 X901.84 Y147.619
G1 X901.711 Y147.835
G1 X901.587 Y148.069
G1 X901.469 Y148.323
G1 X901.356 Y148.598
G1 X901.251 Y148.889
G1 X901.154 Y149.202
G1 X901.063 Y149.538
G1 X900.981 Y149.892
G1 X900.908 Y150.268
G1 X900.843 Y150.66
G1 X900.789 Y151.074
G1 X900.743 Y151.51
G1 X900.707 Y151.962
G1 X900.682 Y152.435
G1 X900.666 Y152.927
G1 X900.661 Y153.438
G1 X900.666 Y153.94
G1 X900.682 Y154.421
G1 X900.708 Y154.885
G1 X900.743 Y155.328
G1 X900.79 Y155.753
G1 X900.845 Y156.158
G1 X900.91 Y156.542
G1 X900.984 Y156.907
G1 X901.067 Y157.254
G1 X901.157 Y157.579
G1 X901.255 Y157.883
G1 X901.361 Y158.167
G1 X901.474 Y158.433
G1 X901.593 Y158.68
G1 X901.717 Y158.907
G1 X901.845 Y159.114
G1 X901.98 Y159.304
G1 X902.118 Y159.478
G1 X902.261 Y159.635
G1 X902.409 Y159.779
G1 X902.563 Y159.909
G1 X902.722 Y160.027
G1 X902.889 Y160.133
G1 X903.064 Y160.229
G1 X903.247 Y160.313
G1 X903.441 Y160.388
G1 X903.492 Y160.404
G0 Z5
G0 X899.662 Y137.463
G1 Z-0.001 F100.
G1 X901.099 Y138.9 Z-2.489 F200.
G1 Y141.399
G1 X899.662 Y142.836 Z-0.001
G1 X901.099 Y141.399 Z-2.489
G1 X922.576
G1 X924.013 Y142.836 Z-0.001
G1 X922.576 Y141.399 Z-2.489
G1 Y138.9
G1 X924.013 Y137.463 Z-0.001
G1 X922.576 Y138.9 Z-2.489
G1 X901.099
G0 Z5
G0 X904.648 Y130.551
G1 Z-2.489 F100.
G1 X904.506 Y130.49 F200.
G1 X904.435 Y130.458
G1 X904.208 Y130.347
G1 X904.127 Y130.304
G1 X903.919 Y130.186
G1 X903.809 Y130.117
G1 X903.448 Y129.868
G1 X903.37 Y129.811
G1 X903.297 Y129.749
G1 X903.004 Y129.485
G1 X902.938 Y129.421
G1 X902.875 Y129.354
G1 X902.641 Y129.084
G1 X902.581 Y129.009
G1 X902.525 Y128.931
G1 X902.345 Y128.659
G1 X902.298 Y128.582
G1 X902.255 Y128.503
G1 X902.122 Y128.237
G1 X902.088 Y128.164
G1 X902.058 Y128.09
G1 X901.964 Y127.837
G1 X901.939 Y127.763
G1 X901.918 Y127.688
G1 X901.858 Y127.454
G1 X901.83 Y127.324
G1 X901.796 Y127.115
G1 X901.782 Y126.993
G1 X901.768 Y126.816
G1 X901.763 Y126.71
G1 X901.762 Y126.572
G1 Y126.55
G1 X901.763 Y126.412
G1 X901.768 Y126.297
G1 X901.783 Y126.12
G1 X901.796 Y126.014
G1 X901.829 Y125.805
G1 X901.859 Y125.662
G1 X901.92 Y125.428
G1 X901.963 Y125.292
G1 X902.056 Y125.038
G1 X902.087 Y124.959
G1 X902.123 Y124.882
G1 X902.256 Y124.617
G1 X902.298 Y124.539
G1 X902.345 Y124.463
G1 X902.525 Y124.191
G1 X902.58 Y124.114
G1 X902.64 Y124.04
G1 X902.874 Y123.769
G1 X902.938 Y123.699
G1 X903.008 Y123.633
G1 X903.302 Y123.37
G1 X903.372 Y123.311
G1 X903.445 Y123.257
G1 X903.805 Y123.007
G1 X903.924 Y122.932
G1 X904.132 Y122.815
G1 X904.203 Y122.778
G1 X904.43 Y122.666
G1 X904.506 Y122.631
G1 X904.753 Y122.526
G1 X904.829 Y122.496
G1 X905.097 Y122.399
G1 X905.165 Y122.376
G1 X905.454 Y122.287
G1 X905.524 Y122.267
G1 X905.837 Y122.187
G1 X905.902 Y122.172
G1 X906.238 Y122.102
G1 X906.305 Y122.09
G1 X906.664 Y122.032
G1 X906.718 Y122.024
G1 X907.104 Y121.976
G1 X907.164 Y121.97
G1 X907.575 Y121.936
G1 X907.623 Y121.933
G1 X908.061 Y121.911
G1 X908.114 Y121.909
G1 X908.581 Y121.902
G1 X908.625
G1 X909.091 Y121.909
G1 X909.144 Y121.911
G1 X909.582 Y121.933
G1 X909.629 Y121.936
G1 X910.041 Y121.97
G1 X910.103 Y121.977
G1 X910.488 Y122.025
G1 X910.54 Y122.032
G1 X910.901 Y122.09
G1 X910.968 Y122.102
G1 X911.304 Y122.172
G1 X911.37 Y122.188
G1 X911.682 Y122.268
G1 X911.749 Y122.287
G1 X912.039 Y122.376
G1 X912.109 Y122.399
G1 X912.377 Y122.496
G1 X912.453 Y122.526
G1 X912.7 Y122.631
G1 X912.776 Y122.666
G1 X913.003 Y122.778
G1 X913.077 Y122.817
G1 X913.284 Y122.934
G1 X913.398 Y123.006
G1 X913.76 Y123.256
G1 X913.834 Y123.31
G1 X913.904 Y123.37
G1 X914.198 Y123.633
G1 X914.269 Y123.7
G1 X914.334 Y123.772
G1 X914.567 Y124.043
G1 X914.625 Y124.114
G1 X914.678 Y124.188
G1 X914.859 Y124.46
G1 X914.907 Y124.537
G1 X914.95 Y124.617
G1 X915.083 Y124.882
G1 X915.119 Y124.959
G1 X915.15 Y125.038
G1 X915.243 Y125.292
G1 X915.286 Y125.428
G1 X915.347 Y125.662
G1 X915.377 Y125.805
G1 X915.41 Y126.014
G1 X915.423 Y126.129
G1 X915.437 Y126.306
G1 X915.442 Y126.401
G1 X915.444 Y126.539
G1 Y126.583
G1 X915.442 Y126.721
G1 X915.437 Y126.816
G1 X915.423 Y126.993
G1 X915.41 Y127.108
G1 X915.377 Y127.317
G1 X915.347 Y127.46
G1 X915.286 Y127.694
G1 X915.243 Y127.832
G1 X915.15 Y128.085
G1 X915.119 Y128.162
G1 X915.084 Y128.237
G1 X914.951 Y128.503
G1 X914.907 Y128.584
G1 X914.859 Y128.662
G1 X914.678 Y128.934
G1 X914.624 Y129.009
G1 X914.566 Y129.081
G1 X914.333 Y129.351
G1 X914.269 Y129.421
G1 X914.2 Y129.486
G1 X913.906 Y129.75
G1 X913.834 Y129.812
G1 X913.757 Y129.868
G1 X913.396 Y130.117
G1 X913.288 Y130.185
G1 X913.081 Y130.303
G1 X912.998 Y130.347
G1 X912.771 Y130.458
G1 X912.7 Y130.49
G1 X912.453 Y130.595
G1 X912.382 Y130.623
G1 X912.114 Y130.721
G1 X912.035 Y130.748
G1 X911.745 Y130.836
G1 X911.682 Y130.853
G1 X911.37 Y130.933
G1 X911.304 Y130.949
G1 X910.968 Y131.019
G1 X910.905 Y131.03
G1 X910.544 Y131.089
G1 X910.484 Y131.098
G1 X910.099 Y131.145
G1 X910.045 Y131.151
G1 X909.633 Y131.186
G1 X909.578 Y131.189
G1 X909.14 Y131.21
G1 X909.091 Y131.212
G1 X908.625 Y131.219
G1 X908.581
G1 X908.114 Y131.212
G1 X908.065 Y131.21
G1 X907.627 Y131.189
G1 X907.572 Y131.186
G1 X907.161 Y131.151
G1 X907.107 Y131.145
G1 X906.721 Y131.098
G1 X906.661 Y131.089
G1 X906.301 Y131.03
G1 X906.238 Y131.019
G1 X905.902 Y130.949
G1 X905.837 Y130.934
G1 X905.524 Y130.854
G1 X905.459 Y130.835
G1 X905.17 Y130.747
G1 X905.092 Y130.721
G1 X904.824 Y130.623
G1 X904.753 Y130.595
G1 X904.648 Y130.551
G0 Z5
G0 X903.066 Y132.431
G1 Z-2.489 F100.
G1 X902.966 Y132.347 F200.
G1 X902.721 Y132.116
G1 X902.488 Y131.871
G1 X902.267 Y131.61
G1 X902.06 Y131.335
G1 X901.866 Y131.042
G1 X901.685 Y130.734
G1 X901.518 Y130.408
G1 X901.365 Y130.064
G1 X901.227 Y129.701
G1 X901.104 Y129.316
