(METICULOUSSLED_PLYWOODDUSTCHUTE_0500INPLY_150MM2FL)
(12 PLYWOOD PARTS FOR THE METICULOUS Z-AXIS PLYWOOD DUST CHUTE. T1 = 14 1 FLUTE FLAT END MILL, T6 = 1.5MM FLAT END MILL. PROGRAMMED 2242019 BY BRYAN MAYNARD.)
(T6  D=1.5 CR=0 - ZMIN=-3 - FLAT END MILL)
G0 G40 G90 G17
G21

(2D POCKET2)
T6 M6
M3 S10000
G0 X209.869 Y88.098
G0 Z8
G0 Z6
G1 Z2.5 F500.
G1 Z-1 F150.
G1 Y-2.55 F500.
G1 Y-3.193
G1 Y-3.197
G1 X209.863 Y-3.222
G1 X209.845 Y-3.241
G1 X209.819 Y-3.249
G1 X209.794 Y-3.242
G1 X209.775 Y-3.224
G1 X209.768 Y-3.198
G1 Y87.45
G1 Y88.093
G1 Y88.097
G1 X209.774 Y88.122
G1 X209.792 Y88.141
G1 X209.818 Y88.149
G1 X209.843 Y88.142
G1 X209.862 Y88.123
G1 X209.869 Y88.098
G1 Z-2 F150.
G1 Y-2.55 F500.
G1 Y-3.193
G1 Y-3.197
G1 X209.863 Y-3.222
G1 X209.845 Y-3.241
G1 X209.819 Y-3.249
G1 X209.794 Y-3.242
G1 X209.775 Y-3.224
G1 X209.768 Y-3.198
G1 Y87.45
G1 Y88.093
G1 Y88.097
G1 X209.774 Y88.122
G1 X209.792 Y88.141
G1 X209.818 Y88.149
G1 X209.843 Y88.142
G1 X209.862 Y88.123
G1 X209.869 Y88.098
G1 Z-3 F150.
G1 Y-2.55 F500.
G1 Y-3.193
G1 Y-3.197
G1 X209.863 Y-3.222
G1 X209.845 Y-3.241
G1 X209.819 Y-3.249
G1 X209.794 Y-3.242
G1 X209.775 Y-3.224
G1 X209.768 Y-3.198
G1 Y87.45
G1 Y88.093
G1 Y88.097
G1 X209.769 Y88.1 Z-2.999
G1 X209.77 Y88.104 Z-2.997
G1 X209.772 Y88.106 Z-2.995
G1 X209.774 Y88.109 Z-2.993
G1 X209.775 Y88.11 Z-2.99
G1 X209.777 Y88.112 Z-2.987
G1 X209.778 Y88.113 Z-2.983
G1 X209.779 Z-2.98
G1 Z-2.976
G0 Z8

(2D POCKET3)
G0 X-15.021 Y76.869
G0 Z8
G0 Z6
G1 Z1.857 F500.
G1 X-15.013 Y76.872 Z1.644
G1 X-14.991 Y76.88 Z1.432
G1 X-14.953 Y76.893 Z1.222
G1 X-14.901 Y76.911 Z1.015
G1 X-14.835 Y76.935 Z0.814
G1 X-14.754 Y76.963 Z0.618
G1 X-14.66 Y76.997 Z0.429
G1 X-14.553 Y77.034 Z0.248
G1 X-14.433 Y77.077 Z0.076
G1 X-14.301 Y77.123 Z-0.086
G1 X-14.159 Y77.173 Z-0.237
G1 X-14.006 Y77.227 Z-0.377
G1 X-13.844 Y77.284 Z-0.503
G1 X-13.673 Y77.345 Z-0.617
G1 X-13.495 Y77.407 Z-0.717
G1 X-13.311 Y77.473 Z-0.802
G1 X-13.12 Y77.54 Z-0.873
G1 X-12.926 Y77.608 Z-0.928
G1 X-12.728 Y77.678 Z-0.968
G1 X-12.528 Y77.749 Z-0.992
G1 X-12.326 Y77.82 Z-1
G1 X-12.319 Y77.823
G1 X-12.282 Y77.832
G1 X0.136 Y80.119
G3 X139.189 Y129.558 I-84.14 J456.927
G1 X139.439 Y129.125
G2 X-0.135 Y79.561 I-223.445 J407.92
G1 X-12.28 Y77.334
G1 X-13.569 Y77.283
G1 X-13.597 Y77.277
G1 X-13.621 Y77.26
G1 X-13.636 Y77.236
G1 X-13.641 Y77.208
G1 X-13.646 Y77.182
G1 X-13.659 Y77.16
G1 X-13.679 Y77.143
G1 X-13.703 Y77.134
G1 X-15.566 Y76.802
G1 X-15.598 Y76.803
G1 X-15.627 Y76.818
G1 X-15.647 Y76.844
G1 X-15.654 Y76.876
G1 X-15.647 Y76.908
G1 X-15.627 Y76.933
G1 X-15.598 Y76.948
G1 X-15.404 Y77 Z-1.006
G1 X-15.211 Y77.052 Z-1.025
G1 X-15.02 Y77.103 Z-1.057
G1 X-14.831 Y77.153 Z-1.101
G1 X-14.645 Y77.203 Z-1.157
G1 X-14.462 Y77.251 Z-1.226
G1 X-14.285 Y77.299 Z-1.306
G1 X-14.112 Y77.345 Z-1.397
G1 X-13.946 Y77.389 Z-1.5
G1 X-13.779 Y77.434 Z-1.603
G1 X-13.606 Y77.48 Z-1.694
G1 X-13.429 Y77.527 Z-1.774
G1 X-13.246 Y77.576 Z-1.843
G1 X-13.06 Y77.625 Z-1.899
G1 X-12.871 Y77.676 Z-1.943
G1 X-12.68 Y77.727 Z-1.975
G1 X-12.487 Y77.778 Z-1.994
G1 X-12.293 Y77.83 Z-2
G1 X-12.282 Y77.832
G1 X0.136 Y80.119
G3 X139.189 Y129.558 I-84.14 J456.927
G1 X139.439 Y129.125
G2 X-0.135 Y79.561 I-223.445 J407.92
G1 X-12.28 Y77.334
G1 X-12.298 Y77.332 Z-1.999
G1 X-12.316 Y77.333 Z-1.994
G1 X-12.333 Y77.337 Z-1.987
G1 X-12.347 Y77.342 Z-1.978
G1 X-12.36 Y77.348 Z-1.966
G1 X-12.37 Y77.355 Z-1.952
G1 X-12.377 Y77.361 Z-1.936
G1 X-12.382 Y77.365 Z-1.92
G1 X-12.385 Y77.368 Z-1.902
G1 X-12.386 Y77.369 Z-1.884
G0 Z8

(2D POCKET4)
G0 X-15.186 Y9.54
G0 Z8
G0 Z6
G1 Z1.857 F500.
G1 X-15.178 Y9.539 Z1.644
G1 X-15.154 Z1.432
G1 X-15.114 Y9.538 Z1.222
G1 X-15.059 Y9.536 Z1.015
G1 X-14.988 Y9.535 Z0.814
G1 X-14.903 Y9.533 Z0.618
G1 X-14.803 Y9.53 Z0.429
G1 X-14.689 Y9.528 Z0.248
G1 X-14.563 Y9.524 Z0.076
G1 X-14.423 Y9.521 Z-0.086
G1 X-14.272 Y9.517 Z-0.237
G1 X-14.11 Y9.513 Z-0.377
G1 X-13.938 Y9.509 Z-0.503
G1 X-13.758 Y9.505 Z-0.617
G1 X-13.569 Y9.5 Z-0.717
G1 X-13.373 Y9.496 Z-0.802
G1 X-13.171 Y9.491 Z-0.873
G1 X-12.965 Y9.486 Z-0.928
G1 X-12.755 Y9.481 Z-0.968
G1 X-12.543 Y9.475 Z-0.992
G1 X-12.329 Y9.47 Z-1
G1 X-12.321
G1 X-12.283 Y9.466
G1 X-0.135 Y7.239
G2 X139.439 Y-42.325 I-83.87 J-457.485
G1 X139.189 Y-42.758
G3 X0.136 Y6.681 I-223.194 J-407.488
G1 X-12.283 Y8.968
G1 X-13.567 Y9.391
G1 X-13.595 Y9.395
G1 X-13.623 Y9.388
G1 X-13.646 Y9.371
G1 X-13.661 Y9.346
G1 X-13.674 Y9.323
G1 X-13.694 Y9.307
G1 X-13.719 Y9.298
G1 X-13.745
G1 X-15.713 Y9.67
G1 X-15.743 Y9.682
G1 X-15.765 Y9.707
G1 X-15.774 Y9.738
G1 X-15.769 Y9.77
G1 X-15.751 Y9.797
G1 X-15.724 Y9.814
G1 X-15.691 Y9.818
G1 X-15.492 Y9.797 Z-1.006
G1 X-15.293 Y9.777 Z-1.025
G1 X-15.096 Y9.757 Z-1.057
G1 X-14.901 Y9.736 Z-1.101
G1 X-14.71 Y9.717 Z-1.157
G1 X-14.522 Y9.697 Z-1.226
G1 X-14.339 Y9.678 Z-1.306
G1 X-14.162 Y9.66 Z-1.397
G1 X-13.99 Y9.642 Z-1.5
G1 X-13.819 Y9.625 Z-1.603
G1 X-13.641 Y9.606 Z-1.694
G1 X-13.458 Y9.588 Z-1.774
G1 X-13.271 Y9.568 Z-1.843
G1 X-13.079 Y9.548 Z-1.899
G1 X-12.884 Y9.528 Z-1.943
G1 X-12.687 Y9.508 Z-1.975
G1 X-12.488 Y9.488 Z-1.994
G1 X-12.289 Y9.467 Z-2
G1 X-12.283 Y9.466
G1 X-0.135 Y7.239
G2 X139.439 Y-42.325 I-83.87 J-457.485
G1 X139.189 Y-42.758
G3 X0.136 Y6.681 I-223.194 J-407.488
G1 X-12.283 Y8.968
G1 X-12.301 Y8.973 Z-1.999
G1 X-12.317 Y8.98 Z-1.994
G1 X-12.332 Y8.989 Z-1.987
G1 X-12.343 Y8.999 Z-1.978
G1 X-12.353 Y9.009 Z-1.966
G1 X-12.36 Y9.019 Z-1.952
G1 X-12.365 Y9.027 Z-1.936
G1 X-12.368 Y9.033 Z-1.92
G1 X-12.37 Y9.037 Z-1.902
G1 Y9.038 Z-1.884
G0 Z8

G0 Z8
M5
M30
