(METICULOUSSLED_ALL)
(ENTIRE PROGRAM FOR THE METICULOUS SLED. SEE TOOL LIST BELOW FOR NEEDED TOOLING.)
(T1  D=6.35 CR=0 - ZMIN=-18.5 - FLAT END MILL)
(T2  D=0.04 CR=0.1 TAPER=15DEG - ZMIN=0 - TAPERED MILL)
(T4  D=3.175 CR=0 TAPER=118DEG - ZMIN=-11 - DRILL)
G0 G40 G90 G17
G21

(TRACE1)
T2 M6
M3 S10000
G0 X-219.667 Y326.588
G0 Z7
G0 Z0
G1 X-220.857 Y326.558 F500.
G1 X-222.031 Y326.469
G1 X-223.188 Y326.322
G1 X-224.326 Y326.118
G1 X-225.444 Y325.86
G1 X-226.541 Y325.549
G1 X-227.616 Y325.185
G1 X-228.665 Y324.771
G1 X-229.689 Y324.308
G1 X-230.686 Y323.798
G1 X-231.654 Y323.241
G1 X-232.592 Y322.64
G1 X-233.498 Y321.996
G1 X-234.372 Y321.309
G1 X-235.211 Y320.583
G1 X-236.013 Y319.817
G1 X-236.779 Y319.014
G1 X-237.505 Y318.176
G1 X-238.192 Y317.302
G1 X-238.836 Y316.396
G1 X-239.438 Y315.458
G1 X-239.994 Y314.49
G1 X-240.505 Y313.493
G1 X-240.968 Y312.469
G1 X-241.382 Y311.419
G1 X-241.745 Y310.345
G1 X-242.056 Y309.248
G1 X-242.315 Y308.13
G1 X-242.518 Y306.991
G1 X-242.665 Y305.834
G1 X-242.754 Y304.66
G1 X-242.784 Y303.471
G1 X-242.754 Y302.281
G1 X-242.665 Y301.107
G1 X-242.518 Y299.95
G1 X-242.315 Y298.812
G1 X-242.056 Y297.693
G1 X-241.745 Y296.596
G1 X-241.382 Y295.522
G1 X-240.968 Y294.472
G1 X-240.505 Y293.448
G1 X-239.994 Y292.451
G1 X-239.438 Y291.483
G1 X-238.836 Y290.545
G1 X-238.192 Y289.639
G1 X-237.505 Y288.766
G1 X-236.779 Y287.927
G1 X-236.013 Y287.124
G1 X-235.211 Y286.359
G1 X-234.372 Y285.632
G1 X-233.498 Y284.946
G1 X-232.592 Y284.301
G1 X-231.654 Y283.7
G1 X-230.686 Y283.143
G1 X-229.689 Y282.633
G1 X-228.665 Y282.17
G1 X-227.616 Y281.756
G1 X-226.541 Y281.392
G1 X-225.444 Y281.081
G1 X-224.326 Y280.823
G1 X-223.188 Y280.619
G1 X-222.031 Y280.472
G1 X-220.857 Y280.383
G1 X-219.667 Y280.353
G1 X-218.477 Y280.383
G1 X-217.303 Y280.472
G1 X-216.146 Y280.619
G1 X-215.008 Y280.823
G1 X-213.89 Y281.081
G1 X-212.793 Y281.392
G1 X-211.718 Y281.756
G1 X-210.669 Y282.17
G1 X-209.645 Y282.633
G1 X-208.648 Y283.143
G1 X-207.68 Y283.7
G1 X-206.742 Y284.301
G1 X-205.836 Y284.946
G1 X-204.962 Y285.632
G1 X-204.123 Y286.359
G1 X-203.321 Y287.124
G1 X-202.555 Y287.927
G1 X-201.829 Y288.766
G1 X-201.142 Y289.639
G1 X-200.498 Y290.545
G1 X-199.897 Y291.483
G1 X-199.34 Y292.451
G1 X-198.829 Y293.448
G1 X-198.367 Y294.472
G1 X-197.953 Y295.522
G1 X-197.589 Y296.596
G1 X-197.278 Y297.693
G1 X-197.02 Y298.812
G1 X-196.816 Y299.95
G1 X-196.669 Y301.107
G1 X-196.58 Y302.281
G1 X-196.55 Y303.471
G1 X-196.58 Y304.66
G1 X-196.669 Y305.834
G1 X-196.816 Y306.991
G1 X-197.02 Y308.13
G1 X-197.278 Y309.248
G1 X-197.589 Y310.345
G1 X-197.953 Y311.419
G1 X-198.367 Y312.469
G1 X-198.829 Y313.493
G1 X-199.34 Y314.49
G1 X-199.897 Y315.458
G1 X-200.498 Y316.396
G1 X-201.142 Y317.302
G1 X-201.829 Y318.176
G1 X-202.555 Y319.014
G1 X-203.321 Y319.817
G1 X-204.123 Y320.583
G1 X-204.962 Y321.309
G1 X-205.836 Y321.996
G1 X-206.742 Y322.64
G1 X-207.68 Y323.241
G1 X-208.648 Y323.798
G1 X-209.645 Y324.308
G1 X-210.669 Y324.771
G1 X-211.718 Y325.185
G1 X-212.793 Y325.549
G1 X-213.89 Y325.86
G1 X-215.008 Y326.118
G1 X-216.146 Y326.322
G1 X-217.303 Y326.469
G1 X-218.477 Y326.558
G1 X-219.667 Y326.588
G0 Z5
G0 Y318.842
G0 Z0
G1 X-218.989 Y318.827 F500.
G1 X-218.317 Y318.784
G1 X-217.65 Y318.711
G1 X-216.989 Y318.611
G1 X-216.335 Y318.482
G1 X-215.69 Y318.325
G1 X-215.053 Y318.141
G1 X-214.425 Y317.93
G1 X-213.807 Y317.692
G1 X-213.2 Y317.428
G1 X-212.605 Y317.137
G1 X-212.022 Y316.821
G1 X-211.452 Y316.479
G1 X-210.895 Y316.111
G1 X-210.354 Y315.719
G1 X-209.827 Y315.302
G1 X-209.524 Y315.732
G1 X-209.392 Y315.886
G1 X-209.238 Y316.008
G1 X-209.065 Y316.096
G1 X-208.881 Y316.151
G1 X-208.69 Y316.171
G1 X-208.497 Y316.154
G1 X-208.308 Y316.101
G1 X-208.127 Y316.009
G1 X-207.968 Y315.885
G1 X-207.839 Y315.736
G1 X-207.742 Y315.568
G1 X-207.679 Y315.386
G1 X-207.65 Y315.196
G1 X-207.657 Y315.003
G1 X-207.702 Y314.811
G1 X-207.785 Y314.627
G1 X-208.076 Y314.11
G1 X-208.371 Y313.57
G1 X-208.97 Y312.428
G1 X-209.571 Y311.217
G1 X-210.164 Y309.952
G1 X-210.738 Y308.65
G1 X-211.282 Y307.326
G1 X-211.785 Y305.997
G1 X-212.238 Y304.678
G1 X-212.63 Y303.385
G1 X-212.799 Y302.754
G1 X-212.949 Y302.135
G1 X-213.078 Y301.531
G1 X-213.186 Y300.943
G1 X-213.27 Y300.374
G1 X-213.329 Y299.825
G1 X-213.362 Y299.299
G1 X-213.368 Y298.797
G1 X-213.346 Y298.322
G1 X-213.294 Y297.876
G1 X-213.21 Y297.46
G1 X-213.094 Y297.076
G1 X-212.943 Y296.727
G1 X-212.758 Y296.414
G1 X-212.63 Y296.247
G1 X-212.486 Y296.093
G1 X-212.328 Y295.953
G1 X-212.155 Y295.827
G1 X-211.966 Y295.714
G1 X-211.763 Y295.615
G1 X-211.545 Y295.53
G1 X-211.312 Y295.458
G1 X-211.064 Y295.4
G1 X-210.802 Y295.356
G1 X-210.525 Y295.325
G1 X-210.233 Y295.309
G1 X-209.927 Y295.306
G1 X-209.606 Y295.316
G1 X-208.921 Y295.379
G1 X-208.605 Y295.82
G1 X-208.309 Y296.27
G1 X-208.032 Y296.73
G1 X-207.775 Y297.199
G1 X-207.537 Y297.676
G1 X-207.319 Y298.162
G1 X-207.122 Y298.655
G1 X-206.945 Y299.156
G1 X-206.788 Y299.664
G1 X-206.651 Y300.178
G1 X-206.535 Y300.699
G1 X-206.44 Y301.226
G1 X-206.366 Y301.757
G1 X-206.313 Y302.294
G1 X-206.281 Y302.836
G1 X-206.27 Y303.382
G1 X-206.304 Y304.344
G1 X-206.406 Y305.296
G1 X-206.575 Y306.235
G1 X-206.81 Y307.157
G1 X-207.11 Y308.06
G1 X-207.474 Y308.94
G1 X-207.901 Y309.793
G1 X-208.391 Y310.618
G1 X-208.486 Y310.804
G1 X-208.54 Y311
G1 X-208.555 Y311.199
G1 X-208.531 Y311.395
G1 X-208.471 Y311.584
G1 X-208.375 Y311.759
G1 X-208.244 Y311.914
G1 X-208.081 Y312.044
G1 X-207.895 Y312.139
G1 X-207.699 Y312.193
G1 X-207.5 Y312.208
G1 X-207.304 Y312.184
G1 X-207.115 Y312.124
G1 X-206.94 Y312.028
G1 X-206.785 Y311.898
G1 X-206.655 Y311.734
G1 X-206.09 Y310.782
G1 X-205.596 Y309.796
G1 X-205.176 Y308.781
G1 X-204.83 Y307.739
G1 X-204.559 Y306.674
G1 X-204.363 Y305.591
G1 X-204.246 Y304.492
G1 X-204.206 Y303.382
G1 X-204.22 Y302.723
G1 X-204.26 Y302.069
G1 X-204.327 Y301.422
G1 X-204.421 Y300.781
G1 X-204.541 Y300.146
G1 X-204.687 Y299.52
G1 X-204.86 Y298.901
G1 X-205.058 Y298.29
G1 X-205.282 Y297.689
G1 X-205.531 Y297.097
G1 X-205.806 Y296.516
G1 X-206.105 Y295.945
G1 X-206.43 Y295.385
G1 X-206.779 Y294.836
G1 X-207.153 Y294.3
G1 X-207.551 Y293.777
G1 X-207.684 Y293.638
G1 X-207.838 Y293.528
G1 X-208.009 Y293.447
G1 X-208.195 Y293.399
G1 X-208.742 Y293.322
G1 X-209.27 Y293.271
G1 X-209.776 Y293.245
G1 X-210.262
G1 X-210.728 Y293.27
G1 X-211.172 Y293.321
G1 X-211.596 Y293.398
G1 X-211.998 Y293.501
G1 X-212.38 Y293.629
G1 X-212.741 Y293.782
G1 X-213.08 Y293.962
G1 X-213.398 Y294.166
G1 X-213.694 Y294.396
G1 X-213.969 Y294.652
G1 X-214.223 Y294.933
G1 X-214.455 Y295.239
G1 X-214.736 Y295.702
G1 X-214.965 Y296.203
G1 X-215.144 Y296.739
G1 X-215.278 Y297.306
G1 X-215.367 Y297.903
G1 X-215.414 Y298.527
G1 X-215.422 Y299.174
G1 X-215.394 Y299.842
G1 X-215.33 Y300.528
G1 X-215.235 Y301.23
G1 X-215.111 Y301.944
G1 X-214.959 Y302.668
G1 X-214.782 Y303.399
G1 X-214.584 Y304.134
G1 X-214.13 Y305.606
G1 X-223.422 Y292.407
G1 X-223.591 Y292.219
G1 X-223.796 Y292.082
G1 X-224.024 Y291.997
G1 X-224.266 Y291.968
G1 X-224.48 Y291.991
G1 X-224.69 Y292.06
G1 X-224.849 Y292.149
G1 X-224.987 Y292.262
G1 X-225.101 Y292.396
G1 X-225.192 Y292.545
G1 X-225.255 Y292.708
G1 X-225.291 Y292.881
G1 X-225.296 Y293.059
G1 X-225.269 Y293.239
G1 X-221.418 Y309.415
G1 X-230.639 Y295.702
G1 X-230.15 Y295.046
G1 X-229.627 Y294.426
G1 X-229.071 Y293.841
G1 X-228.484 Y293.294
G1 X-227.868 Y292.785
G1 X-227.225 Y292.315
G1 X-226.555 Y291.886
G1 X-225.862 Y291.497
G1 X-225.147 Y291.15
G1 X-224.411 Y290.847
G1 X-223.657 Y290.587
G1 X-222.886 Y290.373
G1 X-222.1 Y290.204
G1 X-221.3 Y290.083
G1 X-220.488 Y290.009
G1 X-219.667 Y289.984
G1 X-218.634 Y290.023
G1 X-217.614 Y290.14
G1 X-216.612 Y290.333
G1 X-215.63 Y290.602
G1 X-214.672 Y290.945
G1 X-213.742 Y291.361
G1 X-212.843 Y291.85
G1 X-211.977 Y292.41
G1 X-211.795 Y292.512
G1 X-211.602 Y292.574
G1 X-211.404 Y292.597
G1 X-211.207 Y292.581
G1 X-211.016 Y292.529
G1 X-210.837 Y292.44
G1 X-210.677 Y292.316
G1 X-210.54 Y292.158
G1 X-210.438 Y291.976
G1 X-210.376 Y291.782
G1 X-210.353 Y291.584
G1 X-210.368 Y291.387
G1 X-210.421 Y291.196
G1 X-210.509 Y291.018
G1 X-210.633 Y290.857
G1 X-210.791 Y290.721
G1 X-211.286 Y290.387
G1 X-211.79 Y290.074
G1 X-212.305 Y289.782
G1 X-212.829 Y289.51
G1 X-213.362 Y289.259
G1 X-213.903 Y289.03
G1 X-214.452 Y288.821
G1 X-215.008 Y288.634
G1 X-215.571 Y288.468
G1 X-216.141 Y288.324
G1 X-216.717 Y288.201
G1 X-217.298 Y288.101
G1 X-217.884 Y288.022
G1 X-218.474 Y287.966
G1 X-219.069 Y287.932
G1 X-219.667 Y287.921
G1 X-220.566 Y287.946
G1 X-221.454 Y288.023
G1 X-222.331 Y288.149
G1 X-223.194 Y288.325
G1 X-224.041 Y288.548
G1 X-224.872 Y288.818
G1 X-225.684 Y289.134
G1 X-226.475 Y289.495
G1 X-227.244 Y289.9
G1 X-227.989 Y290.348
G1 X-228.709 Y290.838
G1 X-229.401 Y291.369
G1 X-230.064 Y291.941
G1 X-230.696 Y292.551
G1 X-231.295 Y293.2
G1 X-231.861 Y293.886
G1 X-232.023 Y293.645
G1 X-232.156 Y293.484
G1 X-232.314 Y293.357
G1 X-232.491 Y293.264
G1 X-232.681 Y293.208
G1 X-232.878 Y293.189
G1 X-233.076 Y293.208
G1 X-233.27 Y293.266
G1 X-233.455 Y293.365
G1 X-233.615 Y293.498
G1 X-233.743 Y293.656
G1 X-233.835 Y293.833
G1 X-233.891 Y294.022
G1 X-233.911 Y294.219
G1 X-233.892 Y294.418
G1 X-233.834 Y294.612
G1 X-233.735 Y294.796
G1 X-219.95 Y315.295
G1 X-219.834 Y315.438
G1 X-219.698 Y315.556
G1 X-219.546 Y315.647
G1 X-219.382 Y315.71
G1 X-219.209 Y315.745
G1 X-219.032 Y315.75
G1 X-218.854 Y315.723
G1 X-218.679 Y315.665
G1 X-218.518 Y315.576
G1 X-218.378 Y315.464
G1 X-218.261 Y315.33
G1 X-218.17 Y315.18
G1 X-218.105 Y315.016
G1 X-218.069 Y314.842
G1 X-218.063 Y314.663
G1 X-218.09 Y314.481
G1 X-222.017 Y297.986
G1 X-211.019 Y313.609
G1 X-211.479 Y313.982
G1 X-211.953 Y314.333
G1 X-212.441 Y314.662
G1 X-212.94 Y314.968
G1 X-213.452 Y315.252
G1 X-213.975 Y315.512
G1 X-214.508 Y315.749
G1 X-215.051 Y315.962
G1 X-215.603 Y316.151
G1 X-216.164 Y316.316
G1 X-216.732 Y316.456
G1 X-217.308 Y316.571
G1 X-217.889 Y316.661
G1 X-218.477 Y316.726
G1 X-219.07 Y316.765
G1 X-219.667 Y316.778
G1 X-220.355 Y316.761
G1 X-221.035 Y316.709
G1 X-221.704 Y316.624
G1 X-222.363 Y316.506
G1 X-223.011 Y316.356
G1 X-223.646 Y316.175
G1 X-224.268 Y315.964
G1 X-224.877 Y315.724
G1 X-225.47 Y315.455
G1 X-226.047 Y315.159
G1 X-226.608 Y314.836
G1 X-227.152 Y314.487
G1 X-227.677 Y314.113
G1 X-228.184 Y313.715
G1 X-228.67 Y313.294
G1 X-229.135 Y312.85
G1 X-229.579 Y312.384
G1 X-230.001 Y311.898
G1 X-230.399 Y311.392
G1 X-230.773 Y310.866
G1 X-231.121 Y310.323
G1 X-231.444 Y309.762
G1 X-231.741 Y309.184
G1 X-232.009 Y308.591
G1 X-232.249 Y307.983
G1 X-232.46 Y307.361
G1 X-232.641 Y306.725
G1 X-232.791 Y306.078
G1 X-232.909 Y305.419
G1 X-232.994 Y304.749
G1 X-233.046 Y304.07
G1 X-233.064 Y303.381
G1 X-233.053 Y302.834
G1 X-233.02 Y302.29
G1 X-232.965 Y301.749
G1 X-232.889 Y301.212
G1 X-232.791 Y300.679
G1 X-232.672 Y300.151
G1 X-232.531 Y299.628
G1 X-232.369 Y299.11
G1 X-232.322 Y298.906
G1 X-232.318 Y298.704
G1 X-232.352 Y298.507
G1 X-232.423 Y298.322
G1 X-232.527 Y298.154
G1 X-232.663 Y298.008
G1 X-232.828 Y297.89
G1 X-233.018 Y297.804
G1 X-233.182 Y297.763
G1 X-233.347 Y297.75
G1 X-233.507 Y297.762
G1 X-233.661 Y297.799
G1 X-233.807 Y297.858
G1 X-233.943 Y297.939
G1 X-234.065 Y298.041
G1 X-234.172 Y298.161
G1 X-234.259 Y298.299
G1 X-234.325 Y298.453
G1 X-234.512 Y299.05
G1 X-234.675 Y299.654
G1 X-234.813 Y300.264
G1 X-234.926 Y300.879
G1 X-235.014 Y301.499
G1 X-235.077 Y302.123
G1 X-235.115 Y302.751
G1 X-235.127 Y303.381
G1 X-235.107 Y304.176
G1 X-235.047 Y304.96
G1 X-234.949 Y305.733
G1 X-234.813 Y306.493
G1 X-234.64 Y307.241
G1 X-234.431 Y307.974
G1 X-234.188 Y308.692
G1 X-233.911 Y309.394
G1 X-233.6 Y310.078
G1 X-233.259 Y310.745
G1 X-232.886 Y311.392
G1 X-232.483 Y312.02
G1 X-232.052 Y312.626
G1 X-231.593 Y313.21
G1 X-231.106 Y313.771
G1 X-230.594 Y314.309
G1 X-230.057 Y314.821
G1 X-229.495 Y315.307
G1 X-228.911 Y315.767
G1 X-228.305 Y316.198
G1 X-227.678 Y316.601
G1 X-227.03 Y316.973
G1 X-226.364 Y317.315
G1 X-225.679 Y317.625
G1 X-224.977 Y317.902
G1 X-224.259 Y318.146
G1 X-223.526 Y318.354
G1 X-222.779 Y318.527
G1 X-222.018 Y318.664
G1 X-221.245 Y318.762
G1 X-220.461 Y318.822
G1 X-219.667 Y318.842
G0 Z5
G0 X-188.902 Y293.888
G0 Z0
G1 Y291.109 F500.
G1 X-183.731 Y291.112
G1 Y306.926
G1 X-177.776 Y291.112
G1 X-177.749
G1 Y291.106
G1 X-173.477
G1 X-167.522 Y306.921
G1 Y291.106
G1 X-162.35 Y291.109
G1 Y315.559
G1 X-167.522 Y315.557
G1 X-169.192
G1 X-175.589 Y298.508
G1 X-175.663
G1 X-182.062 Y315.562
G1 X-183.731
G1 X-188.902 Y315.559
G1 Y293.888
G0 Z5
G0 X-160.133 Y304.435
G0 Z0
G1 X-160.139 Y304.376 F500.
G1 X-160.141 Y303.721
G1 X-155.247 Y303.332
G1 X-155.21 Y303.564
G1 X-155.149 Y303.775
G1 X-155.066 Y303.967
G1 X-154.964 Y304.141
G1 X-154.846 Y304.296
G1 X-154.714 Y304.435
G1 X-154.42 Y304.668
G1 X-154.102 Y304.845
G1 X-153.782 Y304.976
G1 X-153.481 Y305.068
G1 X-153.219 Y305.128
G1 X-152.913 Y305.168
G1 X-152.567 Y305.182
G1 X-152.22 Y305.17
G1 X-151.898 Y305.14
G1 X-151.6 Y305.093
G1 X-151.324 Y305.029
G1 X-151.072 Y304.949
G1 X-150.842 Y304.854
G1 X-150.634 Y304.743
G1 X-150.447 Y304.617
G1 X-150.281 Y304.478
G1 X-150.135 Y304.324
G1 X-150.009 Y304.157
G1 X-149.902 Y303.978
G1 X-149.815 Y303.786
G1 X-149.745 Y303.582
G1 X-149.694 Y303.367
G1 X-149.66 Y303.142
G1 X-149.626 Y302.794
G1 X-149.606 Y302.419
G1 X-149.595 Y302.017
G1 X-149.592 Y301.587
G1 X-150.279 Y301.65
G1 X-150.943 Y301.699
G1 X-151.586 Y301.732
G1 X-152.207 Y301.75
G1 X-152.806 Y301.753
G1 X-153.384 Y301.741
G1 X-153.939 Y301.714
G1 X-154.473 Y301.673
G1 X-154.985 Y301.616
G1 X-155.476 Y301.544
G1 X-155.944 Y301.457
G1 X-156.391 Y301.355
G1 X-156.816 Y301.239
G1 X-157.219 Y301.107
G1 X-157.6 Y300.96
G1 X-157.96 Y300.798
G1 X-158.298 Y300.621
G1 X-158.613 Y300.43
G1 X-158.908 Y300.223
G1 X-159.18 Y300.001
G1 X-159.431 Y299.764
G1 X-159.659 Y299.513
G1 X-159.866 Y299.246
G1 X-160.052 Y298.964
G1 X-160.215 Y298.667
G1 X-160.357 Y298.355
G1 X-160.477 Y298.029
G1 X-160.575 Y297.687
G1 X-160.651 Y297.33
G1 X-160.705 Y296.958
G1 X-160.738 Y296.571
G1 X-160.767 Y295.514
G1 X-160.73 Y294.901
G1 X-160.639 Y294.33
G1 X-160.492 Y293.801
G1 X-160.292 Y293.315
G1 X-160.036 Y292.871
G1 X-159.726 Y292.469
G1 X-159.361 Y292.109
G1 X-158.941 Y291.792
G1 X-158.467 Y291.517
G1 X-157.938 Y291.284
G1 X-157.354 Y291.094
G1 X-156.715 Y290.946
G1 X-156.022 Y290.84
G1 X-155.274 Y290.777
G1 X-154.472 Y290.756
G1 X-154.057 Y290.763
G1 X-153.655 Y290.79
G1 X-153.264 Y290.836
G1 X-152.886 Y290.901
G1 X-152.519 Y290.987
G1 X-152.165 Y291.091
G1 X-151.822 Y291.215
G1 X-151.491 Y291.359
G1 X-151.172 Y291.522
G1 X-150.866 Y291.704
G1 X-150.571 Y291.906
G1 X-150.288 Y292.127
G1 X-150.017 Y292.368
G1 X-149.758 Y292.628
G1 X-149.511 Y292.908
G1 X-149.275 Y293.207
G1 X-149.186 Y292.873
G1 X-149.092 Y292.56
G1 X-148.991 Y292.267
G1 X-148.886 Y291.994
G1 X-148.774 Y291.742
G1 X-148.657 Y291.511
G1 X-148.535 Y291.3
G1 X-148.407 Y291.109
G1 X-143.244
G1 X-143.367 Y291.276
G1 X-143.483 Y291.466
G1 X-143.593 Y291.677
G1 X-143.695 Y291.911
G1 X-143.789 Y292.166
G1 X-143.877 Y292.444
G1 X-143.958 Y292.743
G1 X-144.031 Y293.065
G1 X-144.098 Y293.409
G1 X-144.157 Y293.775
G1 X-144.209 Y294.163
G1 X-144.254 Y294.574
G1 X-144.292 Y295.006
G1 X-144.323 Y295.46
G1 X-144.347 Y295.937
G1 X-144.363 Y296.435
G1 X-144.365 Y303.645
G1 X-144.35 Y303.983
G1 X-144.353 Y304.31
G1 X-144.373 Y304.626
G1 X-144.411 Y304.931
G1 X-144.467 Y305.226
G1 X-144.54 Y305.51
G1 X-144.631 Y305.784
G1 X-144.74 Y306.046
G1 X-144.866 Y306.298
G1 X-145.01 Y306.54
G1 X-145.172 Y306.77
G1 X-145.351 Y306.99
G1 X-145.548 Y307.199
G1 X-145.763 Y307.397
G1 X-145.995 Y307.585
G1 X-146.245 Y307.762
G1 X-146.513 Y307.928
G1 X-146.798 Y308.083
G1 X-147.102 Y308.228
G1 X-147.422 Y308.362
G1 X-147.761 Y308.486
G1 X-148.117 Y308.598
G1 X-148.49 Y308.7
G1 X-148.882 Y308.791
G1 X-149.291 Y308.871
G1 X-149.717 Y308.941
G1 X-150.162 Y309
G1 X-150.624 Y309.048
G1 X-151.103 Y309.086
G1 X-151.601 Y309.113
G1 X-152.116 Y309.129
G1 X-152.649 Y309.134
G1 X-153.583 Y309.113
G1 X-154.455 Y309.05
G1 X-155.265 Y308.944
G1 X-156.013 Y308.796
G1 X-156.698 Y308.606
G1 X-157.322 Y308.373
G1 X-157.883 Y308.098
G1 X-158.383 Y307.781
G1 X-158.82 Y307.421
G1 X-159.195 Y307.02
G1 X-159.508 Y306.575
G1 X-159.759 Y306.089
G1 X-159.948 Y305.56
G1 X-160.074 Y304.99
G1 X-160.133 Y304.435
G0 Z5
G0 X-150.403 Y295.253
G0 Z0
G1 X-150.454 Y295.225 F500.
G1 X-150.86 Y295.056
G1 X-151.305 Y294.917
G1 X-151.777 Y294.811
G1 X-152.263 Y294.743
G1 X-152.75 Y294.716
G1 X-153.227 Y294.733
G1 X-153.68 Y294.798
G1 X-154.098 Y294.915
G1 X-154.467 Y295.087
G1 X-154.63 Y295.194
G1 X-154.776 Y295.317
G1 X-154.904 Y295.455
G1 X-155.012 Y295.61
G1 X-155.099 Y295.78
G1 X-155.163 Y295.968
G1 X-155.203 Y296.173
G1 X-155.216 Y296.396
G1 X-155.204 Y296.694
G1 X-155.166 Y296.972
G1 X-155.103 Y297.228
G1 X-155.015 Y297.464
G1 X-154.902 Y297.678
G1 X-154.764 Y297.871
G1 X-154.601 Y298.043
G1 X-154.413 Y298.194
G1 X-154.199 Y298.324
G1 X-153.961 Y298.433
G1 X-153.697 Y298.52
G1 X-153.409 Y298.587
G1 X-153.095 Y298.632
G1 X-152.756 Y298.657
G1 X-152.392 Y298.66
G1 X-152.003 Y298.642
G1 X-149.592
G1 Y295.877
G1 X-149.689 Y295.756
G1 X-149.807 Y295.639
G1 X-150.099 Y295.42
G1 X-150.403 Y295.253
G0 Z5
G0 X-142.896 Y296.399
G0 Z0
G1 X-142.888 Y296.047 F500.
G1 X-142.863 Y295.706
G1 X-142.821 Y295.376
G1 X-142.762 Y295.057
G1 X-142.686 Y294.75
G1 X-142.593 Y294.453
G1 X-142.484 Y294.168
G1 X-142.357 Y293.894
G1 X-142.214 Y293.632
G1 X-142.053 Y293.38
G1 X-141.876 Y293.14
G1 X-141.681 Y292.91
G1 X-141.47 Y292.692
G1 X-141.242 Y292.485
G1 X-140.997 Y292.29
G1 X-140.735 Y292.105
G1 X-140.456 Y291.932
G1 X-140.16 Y291.77
G1 X-139.847 Y291.619
G1 X-139.517 Y291.479
G1 X-139.17 Y291.35
G1 X-138.807 Y291.233
G1 X-138.426 Y291.127
G1 X-138.028 Y291.032
G1 X-137.614 Y290.948
G1 X-137.182 Y290.875
G1 X-136.734 Y290.814
G1 X-136.269 Y290.763
G1 X-135.786 Y290.724
G1 X-135.287 Y290.696
G1 X-134.771 Y290.679
G1 X-134.238 Y290.674
G1 X-133.696 Y290.679
G1 X-133.171 Y290.696
G1 X-132.664 Y290.723
G1 X-132.173 Y290.762
G1 X-131.699 Y290.812
G1 X-131.243 Y290.872
G1 X-130.804 Y290.944
G1 X-130.381 Y291.027
G1 X-129.976 Y291.121
G1 X-129.588 Y291.226
G1 X-129.217 Y291.341
G1 X-128.864 Y291.468
G1 X-128.527 Y291.606
G1 X-128.207 Y291.755
G1 X-127.905 Y291.915
G1 X-127.619 Y292.086
G1 X-127.351 Y292.268
G1 X-127.1 Y292.462
G1 X-126.866 Y292.666
G1 X-126.649 Y292.881
G1 X-126.449 Y293.107
G1 X-126.266 Y293.345
G1 X-126.101 Y293.593
G1 X-125.952 Y293.852
G1 X-125.82 Y294.123
G1 X-125.706 Y294.404
G1 X-125.609 Y294.696
G1 X-125.529 Y295
G1 X-125.466 Y295.314
G1 X-125.42 Y295.64
G1 X-125.391 Y295.977
G1 X-125.379 Y296.324
G1 X-125.414 Y296.884
G1 X-125.516 Y297.407
G1 X-125.679 Y297.895
G1 X-125.897 Y298.349
G1 X-126.164 Y298.77
G1 X-126.475 Y299.16
G1 X-126.824 Y299.519
G1 X-127.206 Y299.849
G1 X-127.614 Y300.151
G1 X-128.044 Y300.426
G1 X-128.489 Y300.675
G1 X-128.943 Y300.9
G1 X-129.402 Y301.1
G1 X-129.859 Y301.279
G1 X-130.308 Y301.436
G1 X-130.744 Y301.573
G1 X-130.73 Y301.586
G1 X-130.832 Y301.599
G1 X-131.302 Y301.728
G1 X-131.736 Y301.835
G1 X-132.128 Y301.921
G1 X-132.468 Y301.987
G1 X-132.475 Y301.988
G1 X-132.672 Y302.023
G1 X-132.85 Y302.052
G1 X-133.007 Y302.075
G1 X-133.145 Y302.093
G1 X-133.146 Y302.091
G1 X-133.583 Y302.173
G1 X-133.989 Y302.261
G1 X-134.364 Y302.355
G1 X-134.709 Y302.456
G1 X-135.023 Y302.562
G1 X-135.307 Y302.675
G1 X-135.561 Y302.793
G1 X-135.784 Y302.918
G1 X-135.977 Y303.049
G1 X-136.139 Y303.186
G1 X-136.271 Y303.329
G1 X-136.372 Y303.478
G1 X-136.443 Y303.633
G1 X-136.483 Y303.794
G1 X-136.493 Y303.962
G1 X-136.472 Y304.135
G1 X-136.495 Y304.328
G1 X-136.493 Y304.508
G1 X-136.467 Y304.676
G1 X-136.417 Y304.832
G1 X-136.342 Y304.974
G1 X-136.243 Y305.105
G1 X-136.119 Y305.223
G1 X-135.971 Y305.328
G1 X-135.798 Y305.422
G1 X-135.601 Y305.502
G1 X-135.38 Y305.57
G1 X-135.134 Y305.626
G1 X-134.864 Y305.669
G1 X-134.569 Y305.7
G1 X-134.25 Y305.718
G1 X-133.907 Y305.724
G1 X-133.551 Y305.714
G1 X-133.216 Y305.686
G1 X-132.903 Y305.64
G1 X-132.612 Y305.575
G1 X-132.342 Y305.492
G1 X-132.093 Y305.391
G1 X-131.867 Y305.271
G1 X-131.661 Y305.133
G1 X-131.477 Y304.977
G1 X-131.315 Y304.802
G1 X-131.174 Y304.609
G1 X-131.055 Y304.398
G1 X-130.957 Y304.168
G1 X-130.881 Y303.92
G1 X-130.827 Y303.653
G1 X-130.793 Y303.368
G1 X-125.403 Y303.763
G1 X-125.436 Y304.414
G1 X-125.535 Y305.022
G1 X-125.7 Y305.589
G1 X-125.93 Y306.113
G1 X-126.226 Y306.596
G1 X-126.588 Y307.036
G1 X-127.015 Y307.435
G1 X-127.508 Y307.792
G1 X-128.067 Y308.106
G1 X-128.692 Y308.379
G1 X-129.382 Y308.61
G1 X-130.138 Y308.799
G1 X-130.96 Y308.946
G1 X-131.847 Y309.05
G1 X-132.8 Y309.113
G1 X-133.819 Y309.134
G1 X-134.855 Y309.114
G1 X-135.824 Y309.052
G1 X-136.727 Y308.948
G1 X-137.563 Y308.803
G1 X-138.333 Y308.617
G1 X-139.036 Y308.39
G1 X-139.673 Y308.121
G1 X-140.243 Y307.81
G1 X-140.747 Y307.459
G1 X-141.184 Y307.066
G1 X-141.555 Y306.631
G1 X-141.859 Y306.155
G1 X-142.097 Y305.638
G1 X-142.268 Y305.079
G1 X-142.373 Y304.479
G1 X-142.411 Y303.838
G1 X-142.396 Y303.469
G1 X-142.35 Y303.115
G1 X-142.277 Y302.778
G1 X-142.176 Y302.455
G1 X-142.051 Y302.148
G1 X-141.902 Y301.855
G1 X-141.732 Y301.576
G1 X-141.541 Y301.312
G1 X-141.332 Y301.061
G1 X-141.105 Y300.823
G1 X-140.609 Y300.386
G1 X-140.064 Y299.998
G1 X-139.484 Y299.656
G1 X-138.881 Y299.358
G1 X-138.27 Y299.1
G1 X-137.662 Y298.881
G1 X-137.07 Y298.697
G1 X-136.509 Y298.545
G1 X-135.99 Y298.424
G1 X-135.526 Y298.329
G1 X-135.131 Y298.259
G1 X-135.121 Y298.258
G1 X-134.638 Y298.165
G1 X-134.188 Y298.067
G1 X-133.772 Y297.964
G1 X-133.39 Y297.855
G1 X-133.04 Y297.742
G1 X-132.725 Y297.624
G1 X-132.442 Y297.5
G1 X-132.194 Y297.371
G1 X-131.978 Y297.237
G1 X-131.796 Y297.098
G1 X-131.648 Y296.954
G1 X-131.533 Y296.805
G1 X-131.451 Y296.65
G1 X-131.403 Y296.491
G1 X-131.389 Y296.326
G1 X-131.408 Y296.156
G1 X-131.395 Y295.948
G1 X-131.407 Y295.754
G1 X-131.443 Y295.573
G1 X-131.503 Y295.405
G1 X-131.588 Y295.251
G1 X-131.698 Y295.11
G1 X-131.832 Y294.983
G1 X-131.99 Y294.869
G1 X-132.173 Y294.768
G1 X-132.38 Y294.681
G1 X-132.612 Y294.607
G1 X-132.868 Y294.547
G1 X-133.149 Y294.5
G1 X-133.454 Y294.466
G1 X-133.784 Y294.446
G1 X-134.138 Y294.439
G1 X-134.494 Y294.448
G1 X-134.829 Y294.474
G1 X-135.143 Y294.518
G1 X-135.437 Y294.579
G1 X-135.71 Y294.657
G1 X-135.962 Y294.753
G1 X-136.194 Y294.866
G1 X-136.405 Y294.997
G1 X-136.595 Y295.145
G1 X-136.764 Y295.31
G1 X-136.913 Y295.493
G1 X-137.041 Y295.693
G1 X-137.148 Y295.911
G1 X-137.235 Y296.146
G1 X-137.301 Y296.399
G1 X-137.346 Y296.668
G1 X-142.896 Y296.399
G0 Z5
G0 X-123.686 Y296.33
G0 Z0
G1 Y315.563 F500.
G1 X-118.213
G1 Y291.112
G1 X-123.686
G1 Y296.33
G0 Z5
G0 X-112.928 Y307.588
G0 Z0
G1 X-112.994 Y307.544 F500.
G1 X-113.337 Y307.285
G1 X-113.663 Y307.01
G1 X-113.969 Y306.719
G1 X-114.257 Y306.413
G1 X-114.527 Y306.092
G1 X-114.779 Y305.757
G1 X-115.013 Y305.409
G1 X-115.228 Y305.048
G1 X-115.426 Y304.675
G1 X-115.606 Y304.29
G1 X-115.768 Y303.895
G1 X-115.913 Y303.489
G1 X-116.15 Y302.648
G1 X-116.319 Y301.774
G1 X-116.419 Y300.871
G1 X-116.452 Y299.945
G1 X-116.419 Y299.018
G1 X-116.319 Y298.115
G1 X-116.15 Y297.241
G1 X-115.913 Y296.401
G1 X-115.768 Y295.995
G1 X-115.606 Y295.599
G1 X-115.426 Y295.215
G1 X-115.229 Y294.842
G1 X-115.013 Y294.481
G1 X-114.779 Y294.132
G1 X-114.528 Y293.798
G1 X-114.258 Y293.477
G1 X-113.97 Y293.171
G1 X-113.663 Y292.88
G1 X-113.338 Y292.605
G1 X-112.994 Y292.346
G1 X-112.631 Y292.105
G1 X-112.25 Y291.881
G1 X-111.85 Y291.676
G1 X-111.43 Y291.489
G1 X-110.991 Y291.323
G1 X-110.533 Y291.176
G1 X-110.056 Y291.05
G1 X-109.559 Y290.946
G1 X-109.042 Y290.864
G1 X-108.506 Y290.805
G1 X-107.949 Y290.768
G1 X-107.373 Y290.756
G1 X-106.797 Y290.768
G1 X-106.24 Y290.804
G1 X-105.703 Y290.863
G1 X-105.186 Y290.944
G1 X-104.688 Y291.048
G1 X-104.21 Y291.172
G1 X-103.751 Y291.317
G1 X-103.312 Y291.483
G1 X-102.891 Y291.668
G1 X-102.489 Y291.872
G1 X-102.107 Y292.094
G1 X-101.743 Y292.334
G1 X-101.398 Y292.591
G1 X-101.071 Y292.865
G1 X-100.763 Y293.154
G1 X-100.474 Y293.459
G1 X-100.202 Y293.779
G1 X-99.949 Y294.113
G1 X-99.715 Y294.461
G1 X-99.498 Y294.821
G1 X-99.299 Y295.194
G1 X-99.118 Y295.579
G1 X-98.954 Y295.975
G1 X-98.808 Y296.381
G1 X-98.569 Y297.224
G1 X-98.399 Y298.102
G1 X-98.298 Y299.01
G1 X-98.265 Y299.945
G1 X-98.298 Y300.879
G1 X-98.399 Y301.788
G1 X-98.569 Y302.666
G1 X-98.808 Y303.509
G1 X-98.954 Y303.915
G1 X-99.118 Y304.311
G1 X-99.299 Y304.696
G1 X-99.498 Y305.069
G1 X-99.715 Y305.429
G1 X-99.95 Y305.777
G1 X-100.203 Y306.111
G1 X-100.474 Y306.431
G1 X-100.763 Y306.736
G1 X-101.071 Y307.026
G1 X-101.398 Y307.299
G1 X-101.743 Y307.556
G1 X-102.107 Y307.796
G1 X-102.489 Y308.019
G1 X-102.891 Y308.222
G1 X-103.312 Y308.407
G1 X-103.751 Y308.573
G1 X-104.21 Y308.718
G1 X-104.689 Y308.843
G1 X-105.186 Y308.946
G1 X-105.703 Y309.027
G1 X-106.24 Y309.086
G1 X-106.797 Y309.122
G1 X-107.373 Y309.134
G1 X-107.949 Y309.122
G1 X-108.505 Y309.086
G1 X-109.042 Y309.026
G1 X-109.558 Y308.944
G1 X-110.055 Y308.84
G1 X-110.533 Y308.714
G1 X-110.991 Y308.567
G1 X-111.43 Y308.401
G1 X-111.849 Y308.214
G1 X-112.25 Y308.009
G1 X-112.631 Y307.785
G1 X-112.928 Y307.588
G0 Z5
G0 X-107.361 Y305.457
G0 Z0
G1 X-107.223 Y305.455 F500.
G1 X-107.046 Y305.441
G1 X-106.837 Y305.408
G1 X-106.603 Y305.347
G1 X-106.349 Y305.254
G1 X-106.084 Y305.121
G1 X-105.812 Y304.94
G1 X-105.541 Y304.707
G1 X-105.278 Y304.413
G1 X-105.028 Y304.052
G1 X-104.911 Y303.845
G1 X-104.799 Y303.618
G1 X-104.694 Y303.371
G1 X-104.597 Y303.103
G1 X-104.508 Y302.813
G1 X-104.428 Y302.501
G1 X-104.358 Y302.165
G1 X-104.3 Y301.804
G1 X-104.252 Y301.419
G1 X-104.218 Y301.007
G1 X-104.196 Y300.569
G1 X-104.189 Y300.103
G1 X-104.196 Y299.636
G1 X-104.218 Y299.198
G1 X-104.252 Y298.787
G1 X-104.3 Y298.401
G1 X-104.358 Y298.041
G1 X-104.428 Y297.705
G1 X-104.508 Y297.392
G1 X-104.597 Y297.103
G1 X-104.694 Y296.835
G1 X-104.799 Y296.588
G1 X-104.911 Y296.361
G1 X-105.028 Y296.153
G1 X-105.278 Y295.793
G1 X-105.541 Y295.499
G1 X-105.812 Y295.265
G1 X-106.084 Y295.085
G1 X-106.349 Y294.952
G1 X-106.603 Y294.859
G1 X-106.837 Y294.798
G1 X-107.046 Y294.765
G1 X-107.223 Y294.75
G1 X-107.361 Y294.749
G1 X-107.499 Y294.75
G1 X-107.676 Y294.764
G1 X-107.885 Y294.798
G1 X-108.119 Y294.858
G1 X-108.372 Y294.952
G1 X-108.638 Y295.085
G1 X-108.91 Y295.265
G1 X-109.18 Y295.499
G1 X-109.444 Y295.792
G1 X-109.693 Y296.153
G1 X-109.811 Y296.361
G1 X-109.922 Y296.588
G1 X-110.027 Y296.835
G1 X-110.125 Y297.103
G1 X-110.213 Y297.392
G1 X-110.293 Y297.705
G1 X-110.363 Y298.041
G1 X-110.422 Y298.401
G1 X-110.469 Y298.787
G1 X-110.504 Y299.198
G1 X-110.525 Y299.636
G1 X-110.532 Y300.103
G1 X-110.525 Y300.569
G1 X-110.504 Y301.007
G1 X-110.469 Y301.419
G1 X-110.422 Y301.804
G1 X-110.363 Y302.165
G1 X-110.293 Y302.501
G1 X-110.213 Y302.813
G1 X-110.125 Y303.103
G1 X-110.027 Y303.371
G1 X-109.922 Y303.618
G1 X-109.811 Y303.845
G1 X-109.693 Y304.052
G1 X-109.444 Y304.413
G1 X-109.18 Y304.707
G1 X-108.91 Y304.94
G1 X-108.638 Y305.121
G1 X-108.372 Y305.254
G1 X-108.119 Y305.347
G1 X-107.885 Y305.408
G1 X-107.676 Y305.441
G1 X-107.499 Y305.455
G1 X-107.361 Y305.457
G0 Z5
G0 X-96.982 Y303.363
G0 Z0
G1 X-94.03 Y291.127 F500.
G1 X-87.245
G1 X-85.101 Y301.459
G1 X-85.098
G1 X-82.954 Y291.127
G1 X-76.17
G1 X-71.914 Y308.762
G1 X-77.57
G1 X-80.271 Y297.415
G1 X-82.854 Y308.762
G1 X-87.274
G1 X-89.975 Y297.415
G1 X-92.557 Y308.762
G1 X-98.285
G1 X-96.982 Y303.363
G0 Z5
G0 X275.355 Y-45.518
G0 Z0
G1 X274.59 Y-46.32 F500.
G1 X273.863 Y-47.159
G1 X273.177 Y-48.033
G1 X272.532 Y-48.939
G1 X271.931 Y-49.877
G1 X271.374 Y-50.845
G1 X270.864 Y-51.842
G1 X270.401 Y-52.866
G1 X269.987 Y-53.916
G1 X269.623 Y-54.99
G1 X269.312 Y-56.087
G1 X269.054 Y-57.205
G1 X268.851 Y-58.343
G1 X268.704 Y-59.5
G1 X268.614 Y-60.674
G1 X268.584 Y-61.864
G1 X268.614 Y-63.054
G1 X268.704 Y-64.228
G1 X268.851 Y-65.385
G1 X269.054 Y-66.523
G1 X269.312 Y-67.642
G1 X269.623 Y-68.739
G1 X269.987 Y-69.813
G1 X270.401 Y-70.862
G1 X270.864 Y-71.886
G1 X271.374 Y-72.883
G1 X271.931 Y-73.851
G1 X272.532 Y-74.789
G1 X273.177 Y-75.696
G1 X273.863 Y-76.569
G1 X274.59 Y-77.408
G1 X275.355 Y-78.211
G1 X276.158 Y-78.976
G1 X276.997 Y-79.702
G1 X277.87 Y-80.389
G1 X278.776 Y-81.033
G1 X279.714 Y-81.634
G1 X280.682 Y-82.191
G1 X281.679 Y-82.702
G1 X282.703 Y-83.165
G1 X283.753 Y-83.578
G1 X284.827 Y-83.942
G1 X285.924 Y-84.253
G1 X287.043 Y-84.511
G1 X288.181 Y-84.715
G1 X289.338 Y-84.862
G1 X290.512 Y-84.951
G1 X291.702 Y-84.981
G1 X292.891 Y-84.951
G1 X294.065 Y-84.862
G1 X295.222 Y-84.715
G1 X296.361 Y-84.511
G1 X297.479 Y-84.253
G1 X298.576 Y-83.942
G1 X299.65 Y-83.578
G1 X300.7 Y-83.165
G1 X301.724 Y-82.702
G1 X302.721 Y-82.191
G1 X303.689 Y-81.634
G1 X304.627 Y-81.033
G1 X305.533 Y-80.389
G1 X306.407 Y-79.702
G1 X307.245 Y-78.976
G1 X308.048 Y-78.211
G1 X308.814 Y-77.408
G1 X309.54 Y-76.569
G1 X310.227 Y-75.696
G1 X310.871 Y-74.789
G1 X311.472 Y-73.851
G1 X312.029 Y-72.883
G1 X312.54 Y-71.886
G1 X313.003 Y-70.862
G1 X313.416 Y-69.813
G1 X313.78 Y-68.739
G1 X314.091 Y-67.642
G1 X314.35 Y-66.523
G1 X314.553 Y-65.385
G1 X314.7 Y-64.228
G1 X314.789 Y-63.054
G1 X314.819 Y-61.864
G1 X314.789 Y-60.674
G1 X314.7 Y-59.5
G1 X314.553 Y-58.343
G1 X314.35 Y-57.205
G1 X314.091 Y-56.087
G1 X313.78 Y-54.99
G1 X313.416 Y-53.916
G1 X313.003 Y-52.866
G1 X312.54 Y-51.842
G1 X312.029 Y-50.845
G1 X311.472 Y-49.877
G1 X310.871 Y-48.939
G1 X310.227 Y-48.033
G1 X309.54 Y-47.159
G1 X308.814 Y-46.32
G1 X308.048 Y-45.518
G1 X307.245 Y-44.752
G1 X306.407 Y-44.026
G1 X305.533 Y-43.339
G1 X304.627 Y-42.695
G1 X303.689 Y-42.094
G1 X302.721 Y-41.537
G1 X301.724 Y-41.026
G1 X300.7 Y-40.563
G1 X299.65 Y-40.15
G1 X298.576 Y-39.786
G1 X297.479 Y-39.475
G1 X296.361 Y-39.216
G1 X295.222 Y-39.013
G1 X294.065 Y-38.866
G1 X292.891 Y-38.777
G1 X291.702 Y-38.747
G1 X290.512 Y-38.777
G1 X289.338 Y-38.866
G1 X288.181 Y-39.013
G1 X287.043 Y-39.216
G1 X285.924 Y-39.475
G1 X284.827 Y-39.786
G1 X283.753 Y-40.15
G1 X282.703 Y-40.563
G1 X281.679 Y-41.026
G1 X280.682 Y-41.537
G1 X279.714 Y-42.094
G1 X278.776 Y-42.695
G1 X277.87 Y-43.339
G1 X276.997 Y-44.026
G1 X276.158 Y-44.752
G1 X275.355 Y-45.518
G0 Z5
G0 X291.695 Y-92.629
G0 Z0
G1 X279.34 F500.
G1 X279.343 Y-97.8
G1 X295.157
G1 X279.343 Y-103.755
G1 Y-103.782
G1 X279.338
G1 Y-108.054
G1 X295.152 Y-114.009
G1 X279.338
G1 X279.34 Y-119.181
G1 X303.79
G1 X303.788 Y-114.009
G1 Y-112.339
G1 X286.739 Y-105.942
G1 Y-105.869
G1 X303.793 Y-99.469
G1 Y-97.8
G1 X303.79 Y-92.629
G1 X291.695
G0 Z5
G0 X281.102 Y-121.495
G0 Z0
G1 X280.7 Y-121.805 F500.
G1 X280.34 Y-122.17
G1 X280.023 Y-122.59
G1 X279.748 Y-123.064
G1 X279.515 Y-123.594
G1 X279.325 Y-124.177
G1 X279.177 Y-124.816
G1 X279.071 Y-125.509
G1 X279.008 Y-126.257
G1 X278.987 Y-127.059
G1 X278.994 Y-127.474
G1 X279.021 Y-127.876
G1 X279.067 Y-128.267
G1 X279.133 Y-128.645
G1 X279.218 Y-129.012
G1 X279.322 Y-129.366
G1 X279.446 Y-129.709
G1 X279.59 Y-130.04
G1 X279.753 Y-130.359
G1 X279.935 Y-130.665
G1 X280.137 Y-130.96
G1 X280.358 Y-131.243
G1 X280.599 Y-131.514
G1 X280.859 Y-131.773
G1 X281.139 Y-132.021
G1 X281.438 Y-132.256
G1 X281.104 Y-132.345
G1 X280.791 Y-132.44
G1 X280.498 Y-132.54
G1 X280.225 Y-132.646
G1 X279.973 Y-132.757
G1 X279.742 Y-132.874
G1 X279.531 Y-132.996
G1 X279.34 Y-133.124
G1 Y-138.287
G1 X279.508 Y-138.164
G1 X279.697 Y-138.048
G1 X279.908 Y-137.939
G1 X280.142 Y-137.837
G1 X280.397 Y-137.742
G1 X280.675 Y-137.654
G1 X280.975 Y-137.573
G1 X281.296 Y-137.5
G1 X281.64 Y-137.433
G1 X282.006 Y-137.374
G1 X282.394 Y-137.322
G1 X282.805 Y-137.277
G1 X283.237 Y-137.239
G1 X283.691 Y-137.208
G1 X284.168 Y-137.185
G1 X284.667 Y-137.168
G1 X291.876 Y-137.166
G1 X292.214 Y-137.181
G1 X292.541 Y-137.178
G1 X292.857 Y-137.158
G1 X293.163 Y-137.12
G1 X293.457 Y-137.064
G1 X293.741 Y-136.991
G1 X294.015 Y-136.9
G1 X294.278 Y-136.791
G1 X294.529 Y-136.665
G1 X294.771 Y-136.521
G1 X295.001 Y-136.359
G1 X295.221 Y-136.18
G1 X295.43 Y-135.983
G1 X295.628 Y-135.768
G1 X295.816 Y-135.536
G1 X295.993 Y-135.286
G1 X296.159 Y-135.018
G1 X296.315 Y-134.733
G1 X296.459 Y-134.43
G1 X296.593 Y-134.109
G1 X296.717 Y-133.771
G1 X296.829 Y-133.415
G1 X296.931 Y-133.041
G1 X297.022 Y-132.649
G1 X297.103 Y-132.24
G1 X297.172 Y-131.814
G1 X297.231 Y-131.369
G1 X297.279 Y-130.907
G1 X297.317 Y-130.428
G1 X297.344 Y-129.93
G1 X297.36 Y-129.415
G1 X297.365 Y-128.883
G1 X297.344 Y-127.948
G1 X297.281 Y-127.076
G1 X297.175 Y-126.266
G1 X297.027 Y-125.519
G1 X296.837 Y-124.833
G1 X296.604 Y-124.209
G1 X296.329 Y-123.648
G1 X296.012 Y-123.148
G1 X295.652 Y-122.711
G1 X295.251 Y-122.336
G1 X294.807 Y-122.023
G1 X294.32 Y-121.772
G1 X293.792 Y-121.583
G1 X293.221 Y-121.457
G1 X292.607 Y-121.392
G1 X291.952 Y-121.39
G1 X291.563 Y-126.284
G1 X291.795 Y-126.321
G1 X292.006 Y-126.382
G1 X292.198 Y-126.465
G1 X292.372 Y-126.567
G1 X292.527 Y-126.685
G1 X292.667 Y-126.817
G1 X292.899 Y-127.111
G1 X293.076 Y-127.429
G1 X293.207 Y-127.749
G1 X293.299 Y-128.05
G1 X293.359 Y-128.312
G1 X293.399 Y-128.618
G1 X293.413 Y-128.964
G1 X293.401 Y-129.311
G1 X293.371 Y-129.633
G1 X293.324 Y-129.932
G1 X293.26 Y-130.207
G1 X293.181 Y-130.459
G1 X293.085 Y-130.689
G1 X292.974 Y-130.897
G1 X292.848 Y-131.084
G1 X292.709 Y-131.251
G1 X292.555 Y-131.396
G1 X292.388 Y-131.522
G1 X292.209 Y-131.629
G1 X292.017 Y-131.717
G1 X291.813 Y-131.786
G1 X291.598 Y-131.837
G1 X291.373 Y-131.871
G1 X291.025 Y-131.905
G1 X290.651 Y-131.925
G1 X290.248 Y-131.936
G1 X289.818 Y-131.939
G1 X289.881 Y-131.252
G1 X289.93 Y-130.588
G1 X289.963 Y-129.945
G1 X289.981 Y-129.324
G1 X289.984 Y-128.725
G1 X289.972 Y-128.147
G1 X289.946 Y-127.592
G1 X289.904 Y-127.058
G1 X289.847 Y-126.546
G1 X289.775 Y-126.055
G1 X289.688 Y-125.587
G1 X289.587 Y-125.14
G1 X289.47 Y-124.715
G1 X289.338 Y-124.312
G1 X289.191 Y-123.931
G1 X289.029 Y-123.571
G1 X288.853 Y-123.234
G1 X288.661 Y-122.918
G1 X288.454 Y-122.623
G1 X288.232 Y-122.351
G1 X287.995 Y-122.1
G1 X287.744 Y-121.872
G1 X287.477 Y-121.665
G1 X287.195 Y-121.479
G1 X286.898 Y-121.316
G1 X286.586 Y-121.174
G1 X286.26 Y-121.055
G1 X285.918 Y-120.956
G1 X285.561 Y-120.88
G1 X285.189 Y-120.826
G1 X284.803 Y-120.793
G1 X283.745 Y-120.764
G1 X283.132 Y-120.801
G1 X282.561 Y-120.892
G1 X282.032 Y-121.039
G1 X281.546 Y-121.24
G1 X281.102 Y-121.495
G0 Z5
G0 X283.03 Y-127.851
G0 Z0
G1 X283.146 Y-127.434 F500.
G1 X283.318 Y-127.064
G1 X283.426 Y-126.901
G1 X283.548 Y-126.755
G1 X283.687 Y-126.627
G1 X283.841 Y-126.519
G1 X284.012 Y-126.432
G1 X284.199 Y-126.368
G1 X284.404 Y-126.328
G1 X284.627 Y-126.315
G1 X284.925 Y-126.327
G1 X285.203 Y-126.365
G1 X285.459 Y-126.428
G1 X285.695 Y-126.516
G1 X285.909 Y-126.629
G1 X286.102 Y-126.767
G1 X286.274 Y-126.93
G1 X286.425 Y-127.118
G1 X286.555 Y-127.332
G1 X286.664 Y-127.57
G1 X286.751 Y-127.834
G1 X286.818 Y-128.122
G1 X286.863 Y-128.436
G1 X286.888 Y-128.775
G1 X286.891 Y-129.139
G1 X286.873 Y-129.528
G1 Y-131.939
G1 X284.108
G1 X283.987 Y-131.842
G1 X283.87 Y-131.724
G1 X283.652 Y-131.433
G1 X283.456 Y-131.077
G1 X283.287 Y-130.671
G1 X283.148 Y-130.226
G1 X283.043 Y-129.754
G1 X282.975 Y-129.268
G1 X282.947 Y-128.781
G1 X282.964 Y-128.304
G1 X283.03 Y-127.851
G0 Z5
G0 X284.63 Y-138.636
G0 Z0
G1 X284.278 Y-138.644 F500.
G1 X283.937 Y-138.669
G1 X283.607 Y-138.71
G1 X283.288 Y-138.769
G1 X282.981 Y-138.845
G1 X282.685 Y-138.938
G1 X282.399 Y-139.047
G1 X282.125 Y-139.174
G1 X281.863 Y-139.318
G1 X281.611 Y-139.478
G1 X281.371 Y-139.655
G1 X281.141 Y-139.85
G1 X280.923 Y-140.061
G1 X280.716 Y-140.289
G1 X280.521 Y-140.534
G1 X280.336 Y-140.796
G1 X280.163 Y-141.075
G1 X280.001 Y-141.371
G1 X279.85 Y-141.684
G1 X279.71 Y-142.014
G1 X279.581 Y-142.361
G1 X279.464 Y-142.725
G1 X279.358 Y-143.105
G1 X279.263 Y-143.503
G1 X279.179 Y-143.917
G1 X279.106 Y-144.349
G1 X279.045 Y-144.797
G1 X278.994 Y-145.262
G1 X278.955 Y-145.745
G1 X278.927 Y-146.244
G1 X278.91 Y-146.76
G1 X278.905 Y-147.293
G1 X278.91 Y-147.835
G1 X278.927 Y-148.36
G1 X278.955 Y-148.868
G1 X278.993 Y-149.358
G1 X279.043 Y-149.832
G1 X279.103 Y-150.288
G1 X279.175 Y-150.727
G1 X279.258 Y-151.15
G1 X279.352 Y-151.555
G1 X279.457 Y-151.943
G1 X279.573 Y-152.314
G1 X279.699 Y-152.668
G1 X279.837 Y-153.004
G1 X279.986 Y-153.324
G1 X280.146 Y-153.626
G1 X280.317 Y-153.912
G1 X280.5 Y-154.18
G1 X280.693 Y-154.431
G1 X280.897 Y-154.665
G1 X281.112 Y-154.882
G1 X281.338 Y-155.082
G1 X281.576 Y-155.265
G1 X281.824 Y-155.431
G1 X282.083 Y-155.579
G1 X282.354 Y-155.711
G1 X282.635 Y-155.825
G1 X282.928 Y-155.922
G1 X283.231 Y-156.002
G1 X283.546 Y-156.065
G1 X283.871 Y-156.111
G1 X284.208 Y-156.14
G1 X284.555 Y-156.152
G1 X285.115 Y-156.117
G1 X285.638 Y-156.015
G1 X286.126 Y-155.852
G1 X286.58 Y-155.635
G1 X287.001 Y-155.367
G1 X287.391 Y-155.056
G1 X287.75 Y-154.707
G1 X288.08 Y-154.325
G1 X288.382 Y-153.917
G1 X288.657 Y-153.487
G1 X288.906 Y-153.042
G1 X289.131 Y-152.588
G1 X289.332 Y-152.129
G1 X289.51 Y-151.673
G1 X289.667 Y-151.223
G1 X289.804 Y-150.787
G1 X289.817 Y-150.801
G1 X289.83 Y-150.699
G1 X289.959 Y-150.23
G1 X290.066 Y-149.795
G1 X290.152 Y-149.403
G1 X290.218 Y-149.063
G1 X290.22 Y-149.057
G1 X290.254 Y-148.859
G1 X290.283 Y-148.681
G1 X290.307 Y-148.524
G1 X290.324 Y-148.386
G1 X290.322 Y-148.385
G1 X290.404 Y-147.948
G1 X290.492 Y-147.543
G1 X290.587 Y-147.167
G1 X290.687 Y-146.822
G1 X290.793 Y-146.508
G1 X290.906 Y-146.224
G1 X291.024 Y-145.97
G1 X291.149 Y-145.747
G1 X291.28 Y-145.554
G1 X291.417 Y-145.392
G1 X291.56 Y-145.261
G1 X291.709 Y-145.159
G1 X291.864 Y-145.089
G1 X292.025 Y-145.048
G1 X292.193 Y-145.038
G1 X292.366 Y-145.059
G1 X292.559 Y-145.036
G1 X292.739 Y-145.038
G1 X292.907 Y-145.064
G1 X293.063 Y-145.114
G1 X293.206 Y-145.189
G1 X293.336 Y-145.288
G1 X293.454 Y-145.412
G1 X293.56 Y-145.56
G1 X293.653 Y-145.733
G1 X293.733 Y-145.93
G1 X293.801 Y-146.151
G1 X293.857 Y-146.397
G1 X293.9 Y-146.667
G1 X293.931 Y-146.962
G1 X293.949 Y-147.281
G1 X293.955 Y-147.624
G1 X293.945 Y-147.98
G1 X293.917 Y-148.315
G1 X293.871 Y-148.628
G1 X293.806 Y-148.919
G1 X293.723 Y-149.189
G1 X293.622 Y-149.438
G1 X293.502 Y-149.665
G1 X293.364 Y-149.87
G1 X293.208 Y-150.054
G1 X293.033 Y-150.216
G1 X292.84 Y-150.357
G1 X292.629 Y-150.476
G1 X292.399 Y-150.574
G1 X292.151 Y-150.65
G1 X291.884 Y-150.705
G1 X291.599 Y-150.738
G1 X291.994 Y-156.128
G1 X292.645 Y-156.095
G1 X293.253 Y-155.996
G1 X293.82 Y-155.831
G1 X294.344 Y-155.601
G1 X294.827 Y-155.305
G1 X295.267 Y-154.943
G1 X295.666 Y-154.516
G1 X296.023 Y-154.023
G1 X296.337 Y-153.464
G1 X296.61 Y-152.839
G1 X296.841 Y-152.149
G1 X297.03 Y-151.393
G1 X297.177 Y-150.571
G1 X297.282 Y-149.684
G1 X297.345 Y-148.731
G1 X297.366 Y-147.712
G1 X297.345 Y-146.676
G1 X297.283 Y-145.707
G1 X297.179 Y-144.804
G1 X297.035 Y-143.968
G1 X296.848 Y-143.198
G1 X296.621 Y-142.495
G1 X296.352 Y-141.858
G1 X296.041 Y-141.288
G1 X295.69 Y-140.784
G1 X295.297 Y-140.347
G1 X294.862 Y-139.976
G1 X294.386 Y-139.672
G1 X293.869 Y-139.434
G1 X293.31 Y-139.263
G1 X292.71 Y-139.158
G1 X292.069 Y-139.12
G1 X291.7 Y-139.136
G1 X291.346 Y-139.181
G1 X291.009 Y-139.255
G1 X290.686 Y-139.355
G1 X290.379 Y-139.48
G1 X290.086 Y-139.629
G1 X289.807 Y-139.8
G1 X289.543 Y-139.99
G1 X289.292 Y-140.2
G1 X289.054 Y-140.426
G1 X288.617 Y-140.922
G1 X288.229 Y-141.467
G1 X287.887 Y-142.047
G1 X287.589 Y-142.65
G1 X287.332 Y-143.261
G1 X287.112 Y-143.869
G1 X286.928 Y-144.461
G1 X286.777 Y-145.022
G1 X286.655 Y-145.541
G1 X286.561 Y-146.005
G1 X286.491 Y-146.4
G1 X286.396 Y-146.893
G1 X286.298 Y-147.343
G1 X286.195 Y-147.759
G1 X286.087 Y-148.142
G1 X285.973 Y-148.491
G1 X285.855 Y-148.806
G1 X285.731 Y-149.089
G1 X285.602 Y-149.338
G1 X285.468 Y-149.553
G1 X285.329 Y-149.735
G1 X285.185 Y-149.883
G1 X285.036 Y-149.998
G1 X284.882 Y-150.08
G1 X284.722 Y-150.128
G1 X284.557 Y-150.142
G1 X284.387 Y-150.123
G1 X284.18 Y-150.136
G1 X283.985 Y-150.124
G1 X283.804 Y-150.088
G1 X283.636 Y-150.028
G1 X283.482 Y-149.943
G1 X283.341 Y-149.833
G1 X283.214 Y-149.699
G1 X283.1 Y-149.541
G1 X282.999 Y-149.358
G1 X282.912 Y-149.151
G1 X282.838 Y-148.919
G1 X282.778 Y-148.663
G1 X282.731 Y-148.382
G1 X282.697 Y-148.077
G1 X282.677 Y-147.747
G1 X282.67 Y-147.393
G1 X282.679 Y-147.037
G1 X282.705 Y-146.702
G1 X282.749 Y-146.388
G1 X282.81 Y-146.094
G1 X282.888 Y-145.821
G1 X282.984 Y-145.569
G1 X283.097 Y-145.337
G1 X283.228 Y-145.126
G1 X283.376 Y-144.936
G1 X283.541 Y-144.767
G1 X283.724 Y-144.618
G1 X283.924 Y-144.49
G1 X284.142 Y-144.383
G1 X284.377 Y-144.296
G1 X284.63 Y-144.23
G1 X284.9 Y-144.185
G1 X284.63 Y-138.636
G0 Z5
G0 X293.958 Y-157.845
G0 Z0
G1 X303.794 F500.
G1 Y-163.319
G1 X279.343
G1 Y-157.845
G1 X293.958
G0 Z5
G0 X283.446 Y-166.105
G0 Z0
G1 X283.073 Y-166.303 F500.
G1 X282.712 Y-166.518
G1 X282.363 Y-166.752
G1 X282.029 Y-167.003
G1 X281.708 Y-167.273
G1 X281.402 Y-167.561
G1 X281.111 Y-167.868
G1 X280.836 Y-168.193
G1 X280.577 Y-168.537
G1 X280.336 Y-168.9
G1 X280.112 Y-169.281
G1 X279.907 Y-169.682
G1 X279.72 Y-170.101
G1 X279.554 Y-170.54
G1 X279.407 Y-170.998
G1 X279.281 Y-171.475
G1 X279.177 Y-171.972
G1 X279.095 Y-172.489
G1 X279.036 Y-173.025
G1 X279 Y-173.582
G1 X278.987 Y-174.158
G1 X278.999 Y-174.734
G1 X279.035 Y-175.291
G1 X279.094 Y-175.828
G1 X279.175 Y-176.345
G1 X279.279 Y-176.843
G1 X279.403 Y-177.321
G1 X279.548 Y-177.78
G1 X279.714 Y-178.22
G1 X279.899 Y-178.64
G1 X280.103 Y-179.042
G1 X280.325 Y-179.424
G1 X280.565 Y-179.788
G1 X280.822 Y-180.133
G1 X281.096 Y-180.46
G1 X281.385 Y-180.768
G1 X281.69 Y-181.057
G1 X282.01 Y-181.329
G1 X282.344 Y-181.582
G1 X282.692 Y-181.817
G1 X283.052 Y-182.033
G1 X283.425 Y-182.232
G1 X283.81 Y-182.414
G1 X284.206 Y-182.577
G1 X284.612 Y-182.723
G1 X285.455 Y-182.962
G1 X286.333 Y-183.132
G1 X287.242 Y-183.233
G1 X288.176 Y-183.266
G1 X289.11 Y-183.233
G1 X290.019 Y-183.132
G1 X290.897 Y-182.962
G1 X291.74 Y-182.723
G1 X292.146 Y-182.577
G1 X292.542 Y-182.413
G1 X292.927 Y-182.232
G1 X293.3 Y-182.033
G1 X293.661 Y-181.817
G1 X294.008 Y-181.582
G1 X294.342 Y-181.329
G1 X294.662 Y-181.057
G1 X294.967 Y-180.768
G1 X295.257 Y-180.46
G1 X295.53 Y-180.133
G1 X295.787 Y-179.788
G1 X296.027 Y-179.424
G1 X296.25 Y-179.042
G1 X296.454 Y-178.64
G1 X296.638 Y-178.219
G1 X296.804 Y-177.78
G1 X296.949 Y-177.321
G1 X297.074 Y-176.843
G1 X297.177 Y-176.345
G1 X297.258 Y-175.828
G1 X297.317 Y-175.291
G1 X297.353 Y-174.734
G1 X297.365 Y-174.158
G1 X297.353 Y-173.582
G1 X297.317 Y-173.026
G1 X297.257 Y-172.489
G1 X297.175 Y-171.973
G1 X297.071 Y-171.476
G1 X296.945 Y-170.998
G1 X296.799 Y-170.54
G1 X296.632 Y-170.102
G1 X296.445 Y-169.682
G1 X296.24 Y-169.282
G1 X296.016 Y-168.9
G1 X295.775 Y-168.537
G1 X295.516 Y-168.194
G1 X295.241 Y-167.868
G1 X294.95 Y-167.562
G1 X294.644 Y-167.274
G1 X294.323 Y-167.004
G1 X293.988 Y-166.752
G1 X293.64 Y-166.518
G1 X293.279 Y-166.303
G1 X292.906 Y-166.105
G1 X292.521 Y-165.925
G1 X292.126 Y-165.763
G1 X291.72 Y-165.618
G1 X290.879 Y-165.381
G1 X290.005 Y-165.212
G1 X289.102 Y-165.112
G1 X288.176 Y-165.079
G1 X287.249 Y-165.112
G1 X286.346 Y-165.212
G1 X285.472 Y-165.381
G1 X284.632 Y-165.618
G1 X284.226 Y-165.763
G1 X283.831 Y-165.925
G1 X283.446 Y-166.105
G0 Z5
G0 X293.688 Y-174.17
G0 Z0
G1 X293.686 Y-174.308 F500.
G1 X293.672 Y-174.485
G1 X293.639 Y-174.694
G1 X293.578 Y-174.928
G1 X293.485 Y-175.182
G1 X293.352 Y-175.447
G1 X293.172 Y-175.719
G1 X292.938 Y-175.99
G1 X292.644 Y-176.253
G1 X292.283 Y-176.503
G1 X292.076 Y-176.62
G1 X291.849 Y-176.732
G1 X291.602 Y-176.837
G1 X291.334 Y-176.934
G1 X291.044 Y-177.023
G1 X290.732 Y-177.103
G1 X290.396 Y-177.173
G1 X290.035 Y-177.231
G1 X289.65 Y-177.279
G1 X289.238 Y-177.313
G1 X288.8 Y-177.335
G1 X288.334 Y-177.342
G1 X287.868 Y-177.335
G1 X287.429 Y-177.313
G1 X287.018 Y-177.279
G1 X286.632 Y-177.231
G1 X286.272 Y-177.173
G1 X285.936 Y-177.103
G1 X285.624 Y-177.023
G1 X285.334 Y-176.934
G1 X285.066 Y-176.837
G1 X284.819 Y-176.732
G1 X284.592 Y-176.62
G1 X284.384 Y-176.503
G1 X284.024 Y-176.253
G1 X283.73 Y-175.99
G1 X283.496 Y-175.719
G1 X283.316 Y-175.447
G1 X283.183 Y-175.182
G1 X283.09 Y-174.928
G1 X283.029 Y-174.694
G1 X282.996 Y-174.485
G1 X282.981 Y-174.308
G1 X282.98 Y-174.17
G1 X282.981 Y-174.032
G1 X282.996 Y-173.855
G1 X283.029 Y-173.646
G1 X283.09 Y-173.412
G1 X283.183 Y-173.159
G1 X283.316 Y-172.893
G1 X283.496 Y-172.622
G1 X283.73 Y-172.351
G1 X284.024 Y-172.087
G1 X284.384 Y-171.838
G1 X284.592 Y-171.72
G1 X284.819 Y-171.609
G1 X285.066 Y-171.504
G1 X285.334 Y-171.407
G1 X285.623 Y-171.318
G1 X285.936 Y-171.238
G1 X286.272 Y-171.168
G1 X286.632 Y-171.109
G1 X287.018 Y-171.062
G1 X287.429 Y-171.027
G1 X287.868 Y-171.006
G1 X288.334 Y-170.999
G1 X288.8 Y-171.006
G1 X289.238 Y-171.027
G1 X289.65 Y-171.062
G1 X290.035 Y-171.109
G1 X290.396 Y-171.168
G1 X290.732 Y-171.238
G1 X291.044 Y-171.318
G1 X291.334 Y-171.407
G1 X291.602 Y-171.504
G1 X291.849 Y-171.609
G1 X292.076 Y-171.72
G1 X292.283 Y-171.838
G1 X292.644 Y-172.087
G1 X292.938 Y-172.351
G1 X293.172 Y-172.622
G1 X293.352 Y-172.893
G1 X293.485 Y-173.159
G1 X293.578 Y-173.412
G1 X293.639 Y-173.646
G1 X293.672 Y-173.855
G1 X293.686 Y-174.032
G1 X293.688 Y-174.17
G0 Z5
G0 X285.825 Y-185.941
G0 Z0
G1 X279.358 Y-187.502 F500.
G1 Y-194.286
G1 X289.69 Y-196.43
G1 Y-196.434
G1 X279.358 Y-198.577
G1 Y-205.362
G1 X296.993 Y-209.617
G1 Y-203.961
G1 X285.646 Y-201.26
G1 X296.993 Y-198.678
G1 Y-194.257
G1 X285.646 Y-191.556
G1 X296.993 Y-188.974
G1 Y-183.246
G1 X285.825 Y-185.941
G0 Z5
G0 X290.301 Y-77.271
G0 Z0
G1 X289.653 Y-77.204 F500.
G1 X289.012 Y-77.11
G1 X288.378 Y-76.99
G1 X287.751 Y-76.844
G1 X287.132 Y-76.671
G1 X286.522 Y-76.473
G1 X285.92 Y-76.249
G1 X285.328 Y-76
G1 X284.747 Y-75.725
G1 X284.176 Y-75.426
G1 X283.616 Y-75.101
G1 X283.067 Y-74.752
G1 X282.531 Y-74.378
G1 X282.008 Y-73.98
G1 X281.87 Y-73.848
G1 X281.759 Y-73.693
G1 X281.679 Y-73.522
G1 X281.631 Y-73.337
G1 X281.553 Y-72.789
G1 X281.502 Y-72.262
G1 X281.476 Y-71.755
G1 Y-71.269
G1 X281.501 Y-70.803
G1 X281.553 Y-70.359
G1 X281.629 Y-69.935
G1 X281.732 Y-69.533
G1 X281.86 Y-69.151
G1 X282.014 Y-68.791
G1 X282.193 Y-68.451
G1 X282.397 Y-68.133
G1 X282.628 Y-67.837
G1 X282.883 Y-67.562
G1 X283.164 Y-67.308
G1 X283.47 Y-67.076
G1 X283.933 Y-66.796
G1 X284.434 Y-66.567
G1 X284.97 Y-66.387
G1 X285.537 Y-66.253
G1 X286.134 Y-66.164
G1 X286.758 Y-66.117
G1 X287.405 Y-66.109
G1 X288.073 Y-66.137
G1 X288.759 Y-66.201
G1 X289.461 Y-66.296
G1 X290.175 Y-66.421
G1 X290.899 Y-66.572
G1 X291.63 Y-66.749
G1 X292.365 Y-66.947
G1 X293.837 Y-67.401
G1 X280.638 Y-58.109
G1 X280.45 Y-57.94
G1 X280.313 Y-57.736
G1 X280.228 Y-57.507
G1 X280.199 Y-57.265
G1 X280.222 Y-57.051
G1 X280.291 Y-56.841
G1 X280.38 Y-56.682
G1 X280.493 Y-56.545
G1 X280.627 Y-56.43
G1 X280.777 Y-56.34
G1 X280.939 Y-56.276
G1 X281.112 Y-56.241
G1 X281.29 Y-56.235
G1 X281.471 Y-56.262
G1 X297.646 Y-60.113
G1 X283.933 Y-50.892
G1 X283.277 Y-51.381
G1 X282.657 Y-51.904
G1 X282.072 Y-52.46
G1 X281.525 Y-53.047
G1 X281.016 Y-53.663
G1 X280.547 Y-54.307
G1 X280.117 Y-54.976
G1 X279.728 Y-55.669
G1 X279.382 Y-56.384
G1 X279.078 Y-57.12
G1 X278.818 Y-57.874
G1 X278.604 Y-58.645
G1 X278.435 Y-59.431
G1 X278.314 Y-60.231
G1 X278.24 Y-61.043
G1 X278.215 Y-61.864
G1 X278.254 Y-62.897
G1 X278.371 Y-63.917
G1 X278.564 Y-64.919
G1 X278.833 Y-65.901
G1 X279.176 Y-66.859
G1 X279.592 Y-67.789
G1 X280.081 Y-68.688
G1 X280.641 Y-69.554
G1 X280.743 Y-69.736
G1 X280.805 Y-69.929
G1 X280.828 Y-70.127
G1 X280.813 Y-70.325
G1 X280.76 Y-70.515
G1 X280.671 Y-70.694
G1 X280.547 Y-70.855
G1 X280.389 Y-70.991
G1 X280.207 Y-71.093
G1 X280.014 Y-71.156
G1 X279.816 Y-71.178
G1 X279.618 Y-71.163
G1 X279.427 Y-71.111
G1 X279.249 Y-71.022
G1 X279.088 Y-70.898
G1 X278.952 Y-70.74
G1 X278.618 Y-70.245
G1 X278.305 Y-69.741
G1 X278.013 Y-69.226
G1 X277.741 Y-68.702
G1 X277.49 Y-68.17
G1 X277.261 Y-67.628
G1 X277.052 Y-67.079
G1 X276.865 Y-66.523
G1 X276.699 Y-65.96
G1 X276.555 Y-65.39
G1 X276.432 Y-64.814
G1 X276.332 Y-64.233
G1 X276.253 Y-63.647
G1 X276.197 Y-63.057
G1 X276.163 Y-62.462
G1 X276.152 Y-61.864
G1 X276.178 Y-60.965
G1 X276.254 Y-60.077
G1 X276.38 Y-59.2
G1 X276.556 Y-58.337
G1 X276.779 Y-57.49
G1 X277.049 Y-56.659
G1 X277.365 Y-55.847
G1 X277.726 Y-55.056
G1 X278.131 Y-54.287
G1 X278.579 Y-53.542
G1 X279.069 Y-52.822
G1 X279.6 Y-52.13
G1 X280.172 Y-51.467
G1 X280.782 Y-50.835
G1 X281.431 Y-50.236
G1 X282.117 Y-49.67
G1 X281.876 Y-49.508
G1 X281.715 Y-49.375
G1 X281.588 Y-49.217
G1 X281.496 Y-49.04
G1 X281.439 Y-48.85
G1 X281.42 Y-48.653
G1 X281.439 Y-48.455
G1 X281.497 Y-48.261
G1 X281.596 Y-48.077
G1 X281.729 Y-47.916
G1 X281.887 Y-47.788
G1 X282.064 Y-47.696
G1 X282.254 Y-47.64
G1 X282.451 Y-47.62
G1 X282.649 Y-47.639
G1 X282.843 Y-47.697
G1 X283.028 Y-47.796
G1 X303.526 Y-61.581
G1 X303.669 Y-61.697
G1 X303.787 Y-61.833
G1 X303.878 Y-61.985
G1 X303.941 Y-62.149
G1 X303.976 Y-62.322
G1 X303.981 Y-62.499
G1 X303.954 Y-62.677
G1 X303.896 Y-62.852
G1 X303.807 Y-63.013
G1 X303.695 Y-63.153
G1 X303.561 Y-63.27
G1 X303.411 Y-63.361
G1 X303.247 Y-63.426
G1 X303.073 Y-63.462
G1 X302.894 Y-63.468
G1 X302.712 Y-63.441
G1 X286.218 Y-59.514
G1 X301.84 Y-70.512
G1 X302.213 Y-70.052
G1 X302.565 Y-69.578
G1 X302.893 Y-69.09
G1 X303.2 Y-68.591
G1 X303.483 Y-68.079
G1 X303.743 Y-67.556
G1 X303.98 Y-67.023
G1 X304.193 Y-66.48
G1 X304.382 Y-65.928
G1 X304.547 Y-65.367
G1 X304.687 Y-64.799
G1 X304.802 Y-64.224
G1 X304.892 Y-63.642
G1 X304.957 Y-63.054
G1 X304.996 Y-62.461
G1 X305.009 Y-61.864
G1 X304.992 Y-61.176
G1 X304.94 Y-60.496
G1 X304.855 Y-59.827
G1 X304.737 Y-59.168
G1 X304.587 Y-58.52
G1 X304.406 Y-57.885
G1 X304.195 Y-57.263
G1 X303.955 Y-56.654
G1 X303.686 Y-56.061
G1 X303.39 Y-55.484
G1 X303.067 Y-54.923
G1 X302.718 Y-54.379
G1 X302.344 Y-53.854
G1 X301.946 Y-53.347
G1 X301.525 Y-52.861
G1 X301.081 Y-52.396
G1 X300.616 Y-51.952
G1 X300.129 Y-51.53
G1 X299.623 Y-51.132
G1 X299.098 Y-50.758
G1 X298.554 Y-50.41
G1 X297.993 Y-50.087
G1 X297.415 Y-49.791
G1 X296.822 Y-49.522
G1 X296.214 Y-49.282
G1 X295.592 Y-49.071
G1 X294.957 Y-48.89
G1 X294.309 Y-48.74
G1 X293.65 Y-48.622
G1 X292.98 Y-48.537
G1 X292.301 Y-48.485
G1 X291.612 Y-48.467
G1 X291.066 Y-48.478
G1 X290.521 Y-48.511
G1 X289.981 Y-48.566
G1 X289.443 Y-48.642
G1 X288.91 Y-48.74
G1 X288.382 Y-48.859
G1 X287.859 Y-49
G1 X287.341 Y-49.162
G1 X287.137 Y-49.209
G1 X286.935 Y-49.214
G1 X286.738 Y-49.179
G1 X286.553 Y-49.108
G1 X286.385 Y-49.004
G1 X286.239 Y-48.868
G1 X286.121 Y-48.703
G1 X286.035 Y-48.513
G1 X285.994 Y-48.349
G1 X285.981 Y-48.184
G1 X285.993 Y-48.024
G1 X286.03 Y-47.87
G1 X286.089 Y-47.724
G1 X286.17 Y-47.588
G1 X286.272 Y-47.466
G1 X286.392 Y-47.36
G1 X286.53 Y-47.272
G1 X286.684 Y-47.206
G1 X287.281 Y-47.019
G1 X287.885 Y-46.856
G1 X288.495 Y-46.718
G1 X289.11 Y-46.605
G1 X289.73 Y-46.517
G1 X290.354 Y-46.454
G1 X290.982 Y-46.416
G1 X291.612 Y-46.404
G1 X292.407 Y-46.424
G1 X293.191 Y-46.484
G1 X293.964 Y-46.582
G1 X294.724 Y-46.718
G1 X295.472 Y-46.891
G1 X296.205 Y-47.1
G1 X296.923 Y-47.343
G1 X297.625 Y-47.621
G1 X298.309 Y-47.931
G1 X298.976 Y-48.272
G1 X299.623 Y-48.645
G1 X300.251 Y-49.048
G1 X300.857 Y-49.479
G1 X301.441 Y-49.939
G1 X302.003 Y-50.425
G1 X302.54 Y-50.937
G1 X303.052 Y-51.474
G1 X303.538 Y-52.036
G1 X303.998 Y-52.62
G1 X304.429 Y-53.226
G1 X304.832 Y-53.854
G1 X305.204 Y-54.501
G1 X305.546 Y-55.167
G1 X305.856 Y-55.852
G1 X306.133 Y-56.554
G1 X306.377 Y-57.272
G1 X306.586 Y-58.005
G1 X306.758 Y-58.752
G1 X306.895 Y-59.513
G1 X306.993 Y-60.286
G1 X307.053 Y-61.07
G1 X307.073 Y-61.864
G1 X307.059 Y-62.542
G1 X307.015 Y-63.215
G1 X306.943 Y-63.882
G1 X306.842 Y-64.542
G1 X306.713 Y-65.196
G1 X306.557 Y-65.841
G1 X306.373 Y-66.479
G1 X306.161 Y-67.106
G1 X305.923 Y-67.724
G1 X305.659 Y-68.331
G1 X305.368 Y-68.926
G1 X305.052 Y-69.509
G1 X304.71 Y-70.079
G1 X304.342 Y-70.636
G1 X303.95 Y-71.177
G1 X303.533 Y-71.704
G1 X303.964 Y-72.007
G1 X304.117 Y-72.139
G1 X304.239 Y-72.294
G1 X304.327 Y-72.466
G1 X304.382 Y-72.65
G1 X304.402 Y-72.841
G1 X304.385 Y-73.034
G1 X304.332 Y-73.224
G1 X304.24 Y-73.404
G1 X304.116 Y-73.563
G1 X303.967 Y-73.692
G1 X303.799 Y-73.789
G1 X303.617 Y-73.852
G1 X303.427 Y-73.881
G1 X303.234 Y-73.874
G1 X303.042 Y-73.829
G1 X302.858 Y-73.746
G1 X302.341 Y-73.455
G1 X301.801 Y-73.16
G1 X300.659 Y-72.561
G1 X299.448 Y-71.96
G1 X298.183 Y-71.367
G1 X296.881 Y-70.793
G1 X295.557 Y-70.249
G1 X294.228 Y-69.746
G1 X292.909 Y-69.293
G1 X291.616 Y-68.901
G1 X290.985 Y-68.732
G1 X290.366 Y-68.582
G1 X289.762 Y-68.453
G1 X289.174 Y-68.346
G1 X288.605 Y-68.261
G1 X288.056 Y-68.202
G1 X287.53 Y-68.169
G1 X287.028 Y-68.163
G1 X286.553 Y-68.185
G1 X286.107 Y-68.238
G1 X285.691 Y-68.321
G1 X285.307 Y-68.438
G1 X284.958 Y-68.588
G1 X284.646 Y-68.773
G1 X284.478 Y-68.901
G1 X284.325 Y-69.045
G1 X284.184 Y-69.203
G1 X284.058 Y-69.376
G1 X283.945 Y-69.565
G1 X283.846 Y-69.768
G1 X283.761 Y-69.986
G1 X283.689 Y-70.219
G1 X283.631 Y-70.467
G1 X283.587 Y-70.729
G1 X283.556 Y-71.006
G1 X283.54 Y-71.298
G1 X283.537 Y-71.604
G1 X283.548 Y-71.925
G1 X283.611 Y-72.61
G1 X284.051 Y-72.926
G1 X284.502 Y-73.222
G1 X284.961 Y-73.499
G1 X285.43 Y-73.757
G1 X285.908 Y-73.994
G1 X286.393 Y-74.212
G1 X286.887 Y-74.409
G1 X287.387 Y-74.587
G1 X287.895 Y-74.743
G1 X288.41 Y-74.88
G1 X288.93 Y-74.996
G1 X289.457 Y-75.091
G1 X289.989 Y-75.165
G1 X290.525 Y-75.218
G1 X291.067 Y-75.251
G1 X291.613 Y-75.261
G1 X292.575 Y-75.227
G1 X293.527 Y-75.125
G1 X294.466 Y-74.956
G1 X295.388 Y-74.721
G1 X296.291 Y-74.421
G1 X297.171 Y-74.057
G1 X298.025 Y-73.63
G1 X298.849 Y-73.14
G1 X299.035 Y-73.046
G1 X299.231 Y-72.991
G1 X299.43 Y-72.977
G1 X299.626 Y-73
G1 X299.815 Y-73.06
G1 X299.99 Y-73.156
G1 X300.145 Y-73.287
G1 X300.275 Y-73.45
G1 X300.37 Y-73.636
G1 X300.424 Y-73.832
G1 X300.439 Y-74.031
G1 X300.416 Y-74.227
G1 X300.355 Y-74.416
G1 X300.259 Y-74.591
G1 X300.129 Y-74.746
G1 X299.965 Y-74.876
G1 X299.013 Y-75.441
G1 X298.028 Y-75.935
G1 X297.012 Y-76.355
G1 X295.97 Y-76.701
G1 X294.905 Y-76.973
G1 X293.822 Y-77.168
G1 X292.723 Y-77.285
G1 X291.613 Y-77.325
G1 X290.954 Y-77.312
G1 X290.301 Y-77.271
G0 Z7
G0 Z7

(DRILL1)
M5
T4 M6
M3 S10000
G0 X-346.5 Y293.2
G0 Z6
G0 Z5
G1 Z-3 F100.
G0 Z5
G0 Y225.2
G1 Z-3 F100.
G0 Z5
G0 X-433.5
G1 Z-3 F100.
G0 Z5
G0 Y293.2
G1 Z-3 F100.
G0 Z5
G0 X-470 Y-159.75
G1 Z-3 F100.
G0 Z5
G0 Y-32.25
G1 Z-3 F100.
G0 Z5
G0 Y64
G1 Z-3 F100.
G0 Z5
G0 X-310
G1 Z-3 F100.
G0 Z5
G0 Y-32.25
G1 Z-3 F100.
G0 Z5
G0 Y-159.75
G1 Z-3 F100.
G0 Z5
G0 X-80 Y-219
G1 Z-3 F100.
G0 Z5
G0 X-87.5 Y-127.5
G1 Z-3 F100.
G0 Z5
G0 X-80 Y-146
G1 Z-3 F100.
G0 Z5
G0 X-47.5 Y-127.5
G1 Z-3 F100.
G0 Z5
G0 X47.5
G1 Z-3 F100.
G0 Z5
G0 X80 Y-146
G1 Z-3 F100.
G0 Z5
G0 X87.5 Y-127.5
G1 Z-3 F100.
G0 Z5
G0 X80 Y-219
G1 Z-3 F100.
G0 Z5
G0 Z6

(DRILL2)
G0 X80.822 Y-80.822
G0 Z6
G0 Z5
G1 Z-11 F100.
G0 Z5
G0 X-80.822
G1 Z-11 F100.
G0 Z5
G0 Y80.822
G1 Z-11 F100.
G0 Z5
G0 X0 Y76.2
G1 Z-11 F100.
G0 Z5
G0 X80.822 Y80.822
G1 Z-11 F100.
G0 Z5
G0 X0 Y228.6
G1 Z-11 F100.
G0 Z5
G0 Z6
G0 Z7

(2D POCKET2)
M5
T1 M6
M3 S12000
G0 X1.175 Y76.2
G0 Z5
G1 Z2.5 F500.
G1 Z-8
G2 X2 Y77.025 I0.825 J0
G2 X2.825 Y76.2 I0 J-0.825
G2 X0 Y73.375 I-2.825 J0
G2 X-2.825 Y76.2 I0 J2.825
G2 X2 Y81.025 I4.825 J0
G2 X6.825 Y76.2 I0 J-4.825
G2 X0 Y69.375 I-6.825 J0
G2 X-6.825 Y76.2 I0 J6.825
G2 X2 Y85.025 I8.825 J0
G2 X10.825 Y76.2 I0 J-8.825
G2 X0 Y65.375 I-10.825 J0
G2 X-10.825 Y76.2 I0 J10.825
G2 X0 Y87.025 I10.825 J0
G2 X10.825 Y76.2 I0 J-10.825
G2 X10.19 Y75.565 I-0.635 J0
G0 Z5
G0 X80.997 Y80.822
G1 Z2.5 F500.
G1 Z-8
G2 X82.822 Y82.647 I1.825 J0
G2 X84.647 Y80.822 I0 J-1.825
G2 X80.822 Y76.997 I-3.825 J0
G2 X76.997 Y80.822 I0 J3.825
G2 X82.822 Y86.647 I5.825 J0
G2 X88.647 Y80.822 I0 J-5.825
G2 X80.822 Y72.997 I-7.825 J0
G2 X72.997 Y80.822 I0 J7.825
G2 X80.822 Y88.647 I7.825 J0
G2 X88.647 Y80.822 I0 J-7.825
G2 X88.012 Y80.187 I-0.635 J0
G0 Z5
G0 X80.997 Y-80.822
G1 Z2.5 F500.
G1 Z-8
G2 X82.822 Y-78.997 I1.825 J0
G2 X84.647 Y-80.822 I0 J-1.825
G2 X80.822 Y-84.647 I-3.825 J0
G2 X76.997 Y-80.822 I0 J3.825
G2 X82.822 Y-74.997 I5.825 J0
G2 X88.647 Y-80.822 I0 J-5.825
G2 X80.822 Y-88.647 I-7.825 J0
G2 X72.997 Y-80.822 I0 J7.825
G2 X80.822 Y-72.997 I7.825 J0
G2 X88.647 Y-80.822 I0 J-7.825
G2 X88.012 Y-81.457 I-0.635 J0
G0 Z5
G0 X-80.647 Y-80.822
G1 Z2.5 F500.
G1 Z-8
G2 X-78.822 Y-78.997 I1.825 J0
G2 X-76.997 Y-80.822 I0 J-1.825
G2 X-80.822 Y-84.647 I-3.825 J0
G2 X-84.647 Y-80.822 I0 J3.825
G2 X-78.822 Y-74.997 I5.825 J0
G2 X-72.997 Y-80.822 I0 J-5.825
G2 X-80.822 Y-88.647 I-7.825 J0
G2 X-88.647 Y-80.822 I0 J7.825
G2 X-80.822 Y-72.997 I7.825 J0
G2 X-72.997 Y-80.822 I0 J-7.825
G2 X-73.632 Y-81.457 I-0.635 J0
G0 Z5
G0 X-80.647 Y80.822
G1 Z2.5 F500.
G1 Z-8
G2 X-78.822 Y82.647 I1.825 J0
G2 X-76.997 Y80.822 I0 J-1.825
G2 X-80.822 Y76.997 I-3.825 J0
G2 X-84.647 Y80.822 I0 J3.825
G2 X-78.822 Y86.647 I5.825 J0
G2 X-72.997 Y80.822 I0 J-5.825
G2 X-80.822 Y72.997 I-7.825 J0
G2 X-88.647 Y80.822 I0 J7.825
G2 X-80.822 Y88.647 I7.825 J0
G2 X-72.997 Y80.822 I0 J-7.825
G2 X-73.632 Y80.187 I-0.635 J0
G0 Z5
G0 X1.175 Y228.6
G1 Z2.5 F500.
G1 Z-8
G2 X2 Y229.425 I0.825 J0
G2 X2.825 Y228.6 I0 J-0.825
G2 X0 Y225.775 I-2.825 J0
G2 X-2.825 Y228.6 I0 J2.825
G2 X2 Y233.425 I4.825 J0
G2 X6.825 Y228.6 I0 J-4.825
G2 X0 Y221.775 I-6.825 J0
G2 X-6.825 Y228.6 I0 J6.825
G2 X2 Y237.425 I8.825 J0
G2 X10.825 Y228.6 I0 J-8.825
G2 X0 Y217.775 I-10.825 J0
G2 X-10.825 Y228.6 I0 J10.825
G2 X0 Y239.425 I10.825 J0
G2 X10.825 Y228.6 I0 J-10.825
G2 X10.19 Y227.965 I-0.635 J0
G0 Z5

(2D POCKET4)
G0 Z7
G0 X-129 Y-125.19
G1 Z-6 F500.
G1 X-127.009
G2 X-126.69 Y-125.509 I0 J-0.319
G1 Y-129.491
G2 X-127.009 Y-129.81 I-0.319 J0
G1 X-152.991
G2 X-153.31 Y-129.491 I0 J0.319
G1 Y-125.509
G2 X-152.991 Y-125.19 I0.319 J0
G1 X-129
G3 X-125.886 Y-123.403 I0 J3.606
G2 X-123.173 Y-121.051 I4.811 J-2.81
G3 X-122 Y-120.225 I-1.195 J2.941
G2 X-121.725 Y-120.21 I0.145 J-0.13
G2 X-121.66 Y-120.355 I-0.13 J-0.145
G2 X-121.725 Y-120.5 I-0.195 J0
G3 X-122.785 Y-122.868 I2.115 J-2.368
G1 Y-132.132
G3 X-121.725 Y-134.5 I3.175 J0
G2 X-121.71 Y-134.775 I-0.13 J-0.145
G2 X-121.855 Y-134.84 I-0.145 J0.13
G2 X-122 Y-134.775 I0 J0.195
G3 X-124.368 Y-133.715 I-2.368 J-2.115
G1 X-155.632
G3 X-158 Y-134.775 I0 J-3.175
G2 X-158.275 Y-134.79 I-0.145 J0.13
G2 X-158.34 Y-134.645 I0.13 J0.145
G2 X-158.275 Y-134.5 I0.195 J0
G3 X-157.215 Y-132.132 I-2.115 J2.368
G1 Y-122.868
G3 X-158.275 Y-120.5 I-3.175 J0
G2 X-158.29 Y-120.225 I0.13 J0.145
G2 X-158.145 Y-120.16 I0.145 J-0.13
G2 X-158 Y-120.225 I0 J-0.195
G3 X-155.632 Y-121.285 I2.368 J2.115
G1 X-124.368
G3 X-123.173 Y-121.051 I0 J3.175
G1 X-123.144 Y-121.047
G1 X-123.117 Y-121.054
G1 X-123.095 Y-121.072
G1 X-123.082 Y-121.098
G1 Y-121.127
G1 X-123.093 Y-121.153
G1 X-123.251 Y-121.367
G1 X-128.252 Y-125.54
G1 X-128.292 Y-125.569
G1 X-128.335 Y-125.591
G1 X-128.875 Y-125.815
G2 X-129.3 Y-125.639 I-0.125 J0.3
G2 X-129.125 Y-125.215 I0.3 J0.125
G2 X-129 Y-125.19 I0.125 J-0.3
G1 Z-12
G1 X-127.009
G2 X-126.69 Y-125.509 I0 J-0.319
G1 Y-129.491
G2 X-127.009 Y-129.81 I-0.319 J0
G1 X-152.991
G2 X-153.31 Y-129.491 I0 J0.319
G1 Y-125.509
G2 X-152.991 Y-125.19 I0.319 J0
G1 X-129
G3 X-125.886 Y-123.403 I0 J3.606
G2 X-123.173 Y-121.051 I4.811 J-2.81
G3 X-122 Y-120.225 I-1.195 J2.941
G2 X-121.725 Y-120.21 I0.145 J-0.13
G2 X-121.66 Y-120.355 I-0.13 J-0.145
G2 X-121.725 Y-120.5 I-0.195 J0
G3 X-122.785 Y-122.868 I2.115 J-2.368
G1 Y-132.132
G3 X-121.725 Y-134.5 I3.175 J0
G2 X-121.71 Y-134.775 I-0.13 J-0.145
G2 X-121.855 Y-134.84 I-0.145 J0.13
G2 X-122 Y-134.775 I0 J0.195
G3 X-124.368 Y-133.715 I-2.368 J-2.115
G1 X-155.632
G3 X-158 Y-134.775 I0 J-3.175
G2 X-158.275 Y-134.79 I-0.145 J0.13
G2 X-158.34 Y-134.645 I0.13 J0.145
G2 X-158.275 Y-134.5 I0.195 J0
G3 X-157.215 Y-132.132 I-2.115 J2.368
G1 Y-122.868
G3 X-158.275 Y-120.5 I-3.175 J0
G2 X-158.29 Y-120.225 I0.13 J0.145
G2 X-158.145 Y-120.16 I0.145 J-0.13
G2 X-158 Y-120.225 I0 J-0.195
G3 X-155.632 Y-121.285 I2.368 J2.115
G1 X-124.368
G3 X-123.173 Y-121.051 I0 J3.175
G1 X-123.144 Y-121.047
G1 X-123.117 Y-121.054
G1 X-123.095 Y-121.072
G1 X-123.082 Y-121.098
G1 Y-121.127
G1 X-123.093 Y-121.153
G1 X-123.251 Y-121.367
G1 X-128.252 Y-125.54
G1 X-128.292 Y-125.569
G1 X-128.335 Y-125.591
G1 X-128.875 Y-125.815
G2 X-129.3 Y-125.639 I-0.125 J0.3
G2 X-129.125 Y-125.215 I0.3 J0.125
G2 X-129 Y-125.19 I0.125 J-0.3
G1 Z-15.25
G1 X-127.009
G2 X-126.69 Y-125.509 I0 J-0.319
G1 Y-129.491
G2 X-127.009 Y-129.81 I-0.319 J0
G1 X-152.991
G2 X-153.31 Y-129.491 I0 J0.319
G1 Y-125.509
G2 X-152.991 Y-125.19 I0.319 J0
G1 X-129
G3 X-125.886 Y-123.403 I0 J3.606
G2 X-123.173 Y-121.051 I4.811 J-2.81
G3 X-122 Y-120.225 I-1.195 J2.941
G2 X-121.725 Y-120.21 I0.145 J-0.13
G2 X-121.66 Y-120.355 I-0.13 J-0.145
G2 X-121.725 Y-120.5 I-0.195 J0
G3 X-122.785 Y-122.868 I2.115 J-2.368
G1 Y-132.132
G3 X-121.725 Y-134.5 I3.175 J0
G2 X-121.71 Y-134.775 I-0.13 J-0.145
G2 X-121.855 Y-134.84 I-0.145 J0.13
G2 X-122 Y-134.775 I0 J0.195
G3 X-124.368 Y-133.715 I-2.368 J-2.115
G1 X-155.632
G3 X-158 Y-134.775 I0 J-3.175
G2 X-158.275 Y-134.79 I-0.145 J0.13
G2 X-158.34 Y-134.645 I0.13 J0.145
G2 X-158.275 Y-134.5 I0.195 J0
G3 X-157.215 Y-132.132 I-2.115 J2.368
G1 Y-122.868
G3 X-158.275 Y-120.5 I-3.175 J0
G2 X-158.29 Y-120.225 I0.13 J0.145
G2 X-158.145 Y-120.16 I0.145 J-0.13
G2 X-158 Y-120.225 I0 J-0.195
G3 X-155.632 Y-121.285 I2.368 J2.115
G1 X-124.368
G3 X-123.173 Y-121.051 I0 J3.175
G1 X-123.144 Y-121.047
G1 X-123.117 Y-121.054
G1 X-123.095 Y-121.072
G1 X-123.082 Y-121.098
G1 Y-121.127
G1 X-123.093 Y-121.153
G1 X-123.251 Y-121.367
G1 X-128.252 Y-125.54
G1 X-128.292 Y-125.569
G1 X-128.335 Y-125.591
G1 X-128.875 Y-125.815
G2 X-129.3 Y-125.639 I-0.125 J0.3
G2 X-129.125 Y-125.215 I0.3 J0.125
G2 X-129 Y-125.19 I0.125 J-0.3
G1 Z-18.5
G1 X-127.009
G2 X-126.69 Y-125.509 I0 J-0.319
G1 Y-129.491
G2 X-127.009 Y-129.81 I-0.319 J0
G1 X-152.991
G2 X-153.31 Y-129.491 I0 J0.319
G1 Y-125.509
G2 X-152.991 Y-125.19 I0.319 J0
G1 X-129
G3 X-125.886 Y-123.403 I0 J3.606
G2 X-123.173 Y-121.051 I4.811 J-2.81
G3 X-122 Y-120.225 I-1.195 J2.941
G2 X-121.725 Y-120.21 I0.145 J-0.13
G2 X-121.66 Y-120.355 I-0.13 J-0.145
G2 X-121.725 Y-120.5 I-0.195 J0
G3 X-122.785 Y-122.868 I2.115 J-2.368
G1 Y-132.132
G3 X-121.725 Y-134.5 I3.175 J0
G2 X-121.71 Y-134.775 I-0.13 J-0.145
G2 X-121.855 Y-134.84 I-0.145 J0.13
G2 X-122 Y-134.775 I0 J0.195
G3 X-124.368 Y-133.715 I-2.368 J-2.115
G1 X-155.632
G3 X-158 Y-134.775 I0 J-3.175
G2 X-158.275 Y-134.79 I-0.145 J0.13
G2 X-158.34 Y-134.645 I0.13 J0.145
G2 X-158.275 Y-134.5 I0.195 J0
G3 X-157.215 Y-132.132 I-2.115 J2.368
G1 Y-122.868
G3 X-158.275 Y-120.5 I-3.175 J0
G2 X-158.29 Y-120.225 I0.13 J0.145
G2 X-158.145 Y-120.16 I0.145 J-0.13
G2 X-158 Y-120.225 I0 J-0.195
G3 X-155.632 Y-121.285 I2.368 J2.115
G1 X-124.368
G3 X-123.173 Y-121.051 I0 J3.175
G0 Z7
G0 X-77.69 Y-202.5
G1 Z-6 F500.
G1 Y-204.491
G2 X-78.009 Y-204.81 I-0.319 J0
G1 X-81.991
G2 X-82.31 Y-204.491 I0 J0.319
G1 Y-168.509
G2 X-81.991 Y-168.19 I0.319 J0
G1 X-78.009
G2 X-77.69 Y-168.509 I0 J-0.319
G1 Y-202.5
G3 X-75.903 Y-205.614 I3.606 J0
G2 X-73.551 Y-208.327 I-2.81 J-4.811
G3 X-72.725 Y-209.5 I2.941 J1.195
G2 X-72.71 Y-209.775 I-0.13 J-0.145
G2 X-72.855 Y-209.84 I-0.145 J0.13
G2 X-73 Y-209.775 I0 J0.195
G3 X-75.368 Y-208.715 I-2.368 J-2.115
G1 X-84.632
G3 X-87 Y-209.775 I0 J-3.175
G2 X-87.275 Y-209.79 I-0.145 J0.13
G2 X-87.34 Y-209.645 I0.13 J0.145
G2 X-87.275 Y-209.5 I0.195 J0
G3 X-86.215 Y-207.132 I-2.115 J2.368
G1 Y-165.868
G3 X-87.275 Y-163.5 I-3.175 J0
G2 X-87.29 Y-163.225 I0.13 J0.145
G2 X-87.145 Y-163.16 I0.145 J-0.13
G2 X-87 Y-163.225 I0 J-0.195
G3 X-84.632 Y-164.285 I2.368 J2.115
G1 X-75.368
G3 X-73 Y-163.225 I0 J3.175
G2 X-72.725 Y-163.21 I0.145 J-0.13
G2 X-72.66 Y-163.355 I-0.13 J-0.145
G2 X-72.725 Y-163.5 I-0.195 J0
G3 X-73.785 Y-165.868 I2.115 J-2.368
G1 Y-207.132
G3 X-73.551 Y-208.327 I3.175 J0
G1 X-73.547 Y-208.356
G1 X-73.554 Y-208.383
G1 X-73.572 Y-208.405
G1 X-73.598 Y-208.418
G1 X-73.627
G1 X-73.653 Y-208.407
G1 X-73.867 Y-208.249
G1 X-78.04 Y-203.248
G1 X-78.069 Y-203.208
G1 X-78.091 Y-203.165
G1 X-78.315 Y-202.625
G2 X-78.139 Y-202.2 I0.3 J0.125
G2 X-77.715 Y-202.375 I0.125 J-0.3
G2 X-77.69 Y-202.5 I-0.3 J-0.125
G1 Z-12
G1 Y-204.491
G2 X-78.009 Y-204.81 I-0.319 J0
G1 X-81.991
G2 X-82.31 Y-204.491 I0 J0.319
G1 Y-168.509
G2 X-81.991 Y-168.19 I0.319 J0
G1 X-78.009
G2 X-77.69 Y-168.509 I0 J-0.319
G1 Y-202.5
G3 X-75.903 Y-205.614 I3.606 J0
G2 X-73.551 Y-208.327 I-2.81 J-4.811
G3 X-72.725 Y-209.5 I2.941 J1.195
G2 X-72.71 Y-209.775 I-0.13 J-0.145
G2 X-72.855 Y-209.84 I-0.145 J0.13
G2 X-73 Y-209.775 I0 J0.195
G3 X-75.368 Y-208.715 I-2.368 J-2.115
G1 X-84.632
G3 X-87 Y-209.775 I0 J-3.175
G2 X-87.275 Y-209.79 I-0.145 J0.13
G2 X-87.34 Y-209.645 I0.13 J0.145
G2 X-87.275 Y-209.5 I0.195 J0
G3 X-86.215 Y-207.132 I-2.115 J2.368
G1 Y-165.868
G3 X-87.275 Y-163.5 I-3.175 J0
G2 X-87.29 Y-163.225 I0.13 J0.145
G2 X-87.145 Y-163.16 I0.145 J-0.13
G2 X-87 Y-163.225 I0 J-0.195
G3 X-84.632 Y-164.285 I2.368 J2.115
G1 X-75.368
G3 X-73 Y-163.225 I0 J3.175
G2 X-72.725 Y-163.21 I0.145 J-0.13
G2 X-72.66 Y-163.355 I-0.13 J-0.145
G2 X-72.725 Y-163.5 I-0.195 J0
G3 X-73.785 Y-165.868 I2.115 J-2.368
G1 Y-207.132
G3 X-73.551 Y-208.327 I3.175 J0
G1 X-73.547 Y-208.356
G1 X-73.554 Y-208.383
G1 X-73.572 Y-208.405
G1 X-73.598 Y-208.418
G1 X-73.627
G1 X-73.653 Y-208.407
G1 X-73.867 Y-208.249
G1 X-78.04 Y-203.248
G1 X-78.069 Y-203.208
G1 X-78.091 Y-203.165
G1 X-78.315 Y-202.625
G2 X-78.139 Y-202.2 I0.3 J0.125
G2 X-77.715 Y-202.375 I0.125 J-0.3
G2 X-77.69 Y-202.5 I-0.3 J-0.125
G1 Z-15.25
G1 Y-204.491
G2 X-78.009 Y-204.81 I-0.319 J0
G1 X-81.991
G2 X-82.31 Y-204.491 I0 J0.319
G1 Y-168.509
G2 X-81.991 Y-168.19 I0.319 J0
G1 X-78.009
G2 X-77.69 Y-168.509 I0 J-0.319
G1 Y-202.5
G3 X-75.903 Y-205.614 I3.606 J0
G2 X-73.551 Y-208.327 I-2.81 J-4.811
G3 X-72.725 Y-209.5 I2.941 J1.195
G2 X-72.71 Y-209.775 I-0.13 J-0.145
G2 X-72.855 Y-209.84 I-0.145 J0.13
G2 X-73 Y-209.775 I0 J0.195
G3 X-75.368 Y-208.715 I-2.368 J-2.115
G1 X-84.632
G3 X-87 Y-209.775 I0 J-3.175
G2 X-87.275 Y-209.79 I-0.145 J0.13
G2 X-87.34 Y-209.645 I0.13 J0.145
G2 X-87.275 Y-209.5 I0.195 J0
G3 X-86.215 Y-207.132 I-2.115 J2.368
G1 Y-165.868
G3 X-87.275 Y-163.5 I-3.175 J0
G2 X-87.29 Y-163.225 I0.13 J0.145
G2 X-87.145 Y-163.16 I0.145 J-0.13
G2 X-87 Y-163.225 I0 J-0.195
G3 X-84.632 Y-164.285 I2.368 J2.115
G1 X-75.368
G3 X-73 Y-163.225 I0 J3.175
G2 X-72.725 Y-163.21 I0.145 J-0.13
G2 X-72.66 Y-163.355 I-0.13 J-0.145
G2 X-72.725 Y-163.5 I-0.195 J0
G3 X-73.785 Y-165.868 I2.115 J-2.368
G1 Y-207.132
G3 X-73.551 Y-208.327 I3.175 J0
G1 X-73.547 Y-208.356
G1 X-73.554 Y-208.383
G1 X-73.572 Y-208.405
G1 X-73.598 Y-208.418
G1 X-73.627
G1 X-73.653 Y-208.407
G1 X-73.867 Y-208.249
G1 X-78.04 Y-203.248
G1 X-78.069 Y-203.208
G1 X-78.091 Y-203.165
G1 X-78.315 Y-202.625
G2 X-78.139 Y-202.2 I0.3 J0.125
G2 X-77.715 Y-202.375 I0.125 J-0.3
G2 X-77.69 Y-202.5 I-0.3 J-0.125
G1 Z-18.5
G1 Y-204.491
G2 X-78.009 Y-204.81 I-0.319 J0
G1 X-81.991
G2 X-82.31 Y-204.491 I0 J0.319
G1 Y-168.509
G2 X-81.991 Y-168.19 I0.319 J0
G1 X-78.009
G2 X-77.69 Y-168.509 I0 J-0.319
G1 Y-202.5
G3 X-75.903 Y-205.614 I3.606 J0
G2 X-73.551 Y-208.327 I-2.81 J-4.811
G3 X-72.725 Y-209.5 I2.941 J1.195
G2 X-72.71 Y-209.775 I-0.13 J-0.145
G2 X-72.855 Y-209.84 I-0.145 J0.13
G2 X-73 Y-209.775 I0 J0.195
G3 X-75.368 Y-208.715 I-2.368 J-2.115
G1 X-84.632
G3 X-87 Y-209.775 I0 J-3.175
G2 X-87.275 Y-209.79 I-0.145 J0.13
G2 X-87.34 Y-209.645 I0.13 J0.145
G2 X-87.275 Y-209.5 I0.195 J0
G3 X-86.215 Y-207.132 I-2.115 J2.368
G1 Y-165.868
G3 X-87.275 Y-163.5 I-3.175 J0
G2 X-87.29 Y-163.225 I0.13 J0.145
G2 X-87.145 Y-163.16 I0.145 J-0.13
G2 X-87 Y-163.225 I0 J-0.195
G3 X-84.632 Y-164.285 I2.368 J2.115
G1 X-75.368
G3 X-73 Y-163.225 I0 J3.175
G2 X-72.725 Y-163.21 I0.145 J-0.13
G2 X-72.66 Y-163.355 I-0.13 J-0.145
G2 X-72.725 Y-163.5 I-0.195 J0
G3 X-73.785 Y-165.868 I2.115 J-2.368
G1 Y-207.132
G3 X-73.551 Y-208.327 I3.175 J0
G0 Z7
G0 X82.31 Y-202.5
G1 Z-6 F500.
G1 Y-204.491
G2 X81.991 Y-204.81 I-0.319 J0
G1 X78.009
G2 X77.69 Y-204.491 I0 J0.319
G1 Y-168.509
G2 X78.009 Y-168.19 I0.319 J0
G1 X81.991
G2 X82.31 Y-168.509 I0 J-0.319
G1 Y-202.5
G3 X84.097 Y-205.614 I3.606 J0
G2 X86.449 Y-208.327 I-2.81 J-4.811
G3 X87.275 Y-209.5 I2.941 J1.195
G2 X87.29 Y-209.775 I-0.13 J-0.145
G2 X87.145 Y-209.84 I-0.145 J0.13
G2 X87 Y-209.775 I0 J0.195
G3 X84.632 Y-208.715 I-2.368 J-2.115
G1 X75.368
G3 X73 Y-209.775 I0 J-3.175
G2 X72.725 Y-209.79 I-0.145 J0.13
G2 X72.66 Y-209.645 I0.13 J0.145
G2 X72.725 Y-209.5 I0.195 J0
G3 X73.785 Y-207.132 I-2.115 J2.368
G1 Y-165.868
G3 X72.725 Y-163.5 I-3.175 J0
G2 X72.71 Y-163.225 I0.13 J0.145
G2 X72.855 Y-163.16 I0.145 J-0.13
G2 X73 Y-163.225 I0 J-0.195
G3 X75.368 Y-164.285 I2.368 J2.115
G1 X84.632
G3 X87 Y-163.225 I0 J3.175
G2 X87.275 Y-163.21 I0.145 J-0.13
G2 X87.34 Y-163.355 I-0.13 J-0.145
G2 X87.275 Y-163.5 I-0.195 J0
G3 X86.215 Y-165.868 I2.115 J-2.368
G1 Y-207.132
G3 X86.449 Y-208.327 I3.175 J0
G1 X86.453 Y-208.356
G1 X86.446 Y-208.383
G1 X86.428 Y-208.405
G1 X86.402 Y-208.418
G1 X86.373
G1 X86.347 Y-208.407
G1 X86.133 Y-208.249
G1 X81.96 Y-203.248
G1 X81.931 Y-203.208
G1 X81.909 Y-203.165
G1 X81.685 Y-202.625
G2 X81.861 Y-202.2 I0.3 J0.125
G2 X82.285 Y-202.375 I0.125 J-0.3
G2 X82.31 Y-202.5 I-0.3 J-0.125
G1 Z-12
G1 Y-204.491
G2 X81.991 Y-204.81 I-0.319 J0
G1 X78.009
G2 X77.69 Y-204.491 I0 J0.319
G1 Y-168.509
G2 X78.009 Y-168.19 I0.319 J0
G1 X81.991
G2 X82.31 Y-168.509 I0 J-0.319
G1 Y-202.5
G3 X84.097 Y-205.614 I3.606 J0
G2 X86.449 Y-208.327 I-2.81 J-4.811
G3 X87.275 Y-209.5 I2.941 J1.195
G2 X87.29 Y-209.775 I-0.13 J-0.145
G2 X87.145 Y-209.84 I-0.145 J0.13
G2 X87 Y-209.775 I0 J0.195
G3 X84.632 Y-208.715 I-2.368 J-2.115
G1 X75.368
G3 X73 Y-209.775 I0 J-3.175
G2 X72.725 Y-209.79 I-0.145 J0.13
G2 X72.66 Y-209.645 I0.13 J0.145
G2 X72.725 Y-209.5 I0.195 J0
G3 X73.785 Y-207.132 I-2.115 J2.368
G1 Y-165.868
G3 X72.725 Y-163.5 I-3.175 J0
G2 X72.71 Y-163.225 I0.13 J0.145
G2 X72.855 Y-163.16 I0.145 J-0.13
G2 X73 Y-163.225 I0 J-0.195
G3 X75.368 Y-164.285 I2.368 J2.115
G1 X84.632
G3 X87 Y-163.225 I0 J3.175
G2 X87.275 Y-163.21 I0.145 J-0.13
G2 X87.34 Y-163.355 I-0.13 J-0.145
G2 X87.275 Y-163.5 I-0.195 J0
G3 X86.215 Y-165.868 I2.115 J-2.368
G1 Y-207.132
G3 X86.449 Y-208.327 I3.175 J0
G1 X86.453 Y-208.356
G1 X86.446 Y-208.383
G1 X86.428 Y-208.405
G1 X86.402 Y-208.418
G1 X86.373
G1 X86.347 Y-208.407
G1 X86.133 Y-208.249
G1 X81.96 Y-203.248
G1 X81.931 Y-203.208
G1 X81.909 Y-203.165
G1 X81.685 Y-202.625
G2 X81.861 Y-202.2 I0.3 J0.125
G2 X82.285 Y-202.375 I0.125 J-0.3
G2 X82.31 Y-202.5 I-0.3 J-0.125
G1 Z-15.25
G1 Y-204.491
G2 X81.991 Y-204.81 I-0.319 J0
G1 X78.009
G2 X77.69 Y-204.491 I0 J0.319
G1 Y-168.509
G2 X78.009 Y-168.19 I0.319 J0
G1 X81.991
G2 X82.31 Y-168.509 I0 J-0.319
G1 Y-202.5
G3 X84.097 Y-205.614 I3.606 J0
G2 X86.449 Y-208.327 I-2.81 J-4.811
G3 X87.275 Y-209.5 I2.941 J1.195
G2 X87.29 Y-209.775 I-0.13 J-0.145
G2 X87.145 Y-209.84 I-0.145 J0.13
G2 X87 Y-209.775 I0 J0.195
G3 X84.632 Y-208.715 I-2.368 J-2.115
G1 X75.368
G3 X73 Y-209.775 I0 J-3.175
G2 X72.725 Y-209.79 I-0.145 J0.13
G2 X72.66 Y-209.645 I0.13 J0.145
G2 X72.725 Y-209.5 I0.195 J0
G3 X73.785 Y-207.132 I-2.115 J2.368
G1 Y-165.868
G3 X72.725 Y-163.5 I-3.175 J0
G2 X72.71 Y-163.225 I0.13 J0.145
G2 X72.855 Y-163.16 I0.145 J-0.13
G2 X73 Y-163.225 I0 J-0.195
G3 X75.368 Y-164.285 I2.368 J2.115
G1 X84.632
G3 X87 Y-163.225 I0 J3.175
G2 X87.275 Y-163.21 I0.145 J-0.13
G2 X87.34 Y-163.355 I-0.13 J-0.145
G2 X87.275 Y-163.5 I-0.195 J0
G3 X86.215 Y-165.868 I2.115 J-2.368
G1 Y-207.132
G3 X86.449 Y-208.327 I3.175 J0
G1 X86.453 Y-208.356
G1 X86.446 Y-208.383
G1 X86.428 Y-208.405
G1 X86.402 Y-208.418
G1 X86.373
G1 X86.347 Y-208.407
G1 X86.133 Y-208.249
G1 X81.96 Y-203.248
G1 X81.931 Y-203.208
G1 X81.909 Y-203.165
G1 X81.685 Y-202.625
G2 X81.861 Y-202.2 I0.3 J0.125
G2 X82.285 Y-202.375 I0.125 J-0.3
G2 X82.31 Y-202.5 I-0.3 J-0.125
G1 Z-18.5
G1 Y-204.491
G2 X81.991 Y-204.81 I-0.319 J0
G1 X78.009
G2 X77.69 Y-204.491 I0 J0.319
G1 Y-168.509
G2 X78.009 Y-168.19 I0.319 J0
G1 X81.991
G2 X82.31 Y-168.509 I0 J-0.319
G1 Y-202.5
G3 X84.097 Y-205.614 I3.606 J0
G2 X86.449 Y-208.327 I-2.81 J-4.811
G3 X87.275 Y-209.5 I2.941 J1.195
G2 X87.29 Y-209.775 I-0.13 J-0.145
G2 X87.145 Y-209.84 I-0.145 J0.13
G2 X87 Y-209.775 I0 J0.195
G3 X84.632 Y-208.715 I-2.368 J-2.115
G1 X75.368
G3 X73 Y-209.775 I0 J-3.175
G2 X72.725 Y-209.79 I-0.145 J0.13
G2 X72.66 Y-209.645 I0.13 J0.145
G2 X72.725 Y-209.5 I0.195 J0
G3 X73.785 Y-207.132 I-2.115 J2.368
G1 Y-165.868
G3 X72.725 Y-163.5 I-3.175 J0
G2 X72.71 Y-163.225 I0.13 J0.145
G2 X72.855 Y-163.16 I0.145 J-0.13
G2 X73 Y-163.225 I0 J-0.195
G3 X75.368 Y-164.285 I2.368 J2.115
G1 X84.632
G3 X87 Y-163.225 I0 J3.175
G2 X87.275 Y-163.21 I0.145 J-0.13
G2 X87.34 Y-163.355 I-0.13 J-0.145
G2 X87.275 Y-163.5 I-0.195 J0
G3 X86.215 Y-165.868 I2.115 J-2.368
G1 Y-207.132
G3 X86.449 Y-208.327 I3.175 J0
G0 Z7
G0 X129 Y-125.19
G1 Z-6 F500.
G1 X152.991
G2 X153.31 Y-125.509 I0 J-0.319
G1 Y-129.491
G2 X152.991 Y-129.81 I-0.319 J0
G1 X127.009
G2 X126.69 Y-129.491 I0 J0.319
G1 Y-125.509
G2 X127.009 Y-125.19 I0.319 J0
G1 X129
G3 X131.929 Y-123.238 I0 J3.173
G2 X134.857 Y-121.285 I2.929 J-1.22
G1 X155.632
G3 X158 Y-120.225 I0 J3.175
G2 X158.275 Y-120.21 I0.145 J-0.13
G2 X158.34 Y-120.355 I-0.13 J-0.145
G2 X158.275 Y-120.5 I-0.195 J0
G3 X157.215 Y-122.868 I2.115 J-2.368
G1 Y-132.132
G3 X158.275 Y-134.5 I3.175 J0
G2 X158.29 Y-134.775 I-0.13 J-0.145
G2 X158.145 Y-134.84 I-0.145 J0.13
G2 X158 Y-134.775 I0 J0.195
G3 X155.632 Y-133.715 I-2.368 J-2.115
G1 X124.368
G3 X122 Y-134.775 I0 J-3.175
G2 X121.725 Y-134.79 I-0.145 J0.13
G2 X121.66 Y-134.645 I0.13 J0.145
G2 X121.725 Y-134.5 I0.195 J0
G3 X122.785 Y-132.132 I-2.115 J2.368
G1 Y-122.868
G3 X121.725 Y-120.5 I-3.175 J0
G2 X121.71 Y-120.225 I0.13 J0.145
G2 X121.855 Y-120.16 I0.145 J-0.13
G2 X122 Y-120.225 I0 J-0.195
G3 X124.368 Y-121.285 I2.368 J2.115
G1 X134.857
G2 X135.065 Y-121.492 I0 J-0.207
G2 X134.994 Y-121.649 I-0.207 J0
G1 X134.324 Y-122.227
G1 X129.198 Y-125.302
G1 X129.015 Y-125.343
G1 X128.983 Y-125.342
G1 X128.954 Y-125.329
G1 X128.933 Y-125.305
G1 X128.923 Y-125.274
G1 X128.927 Y-125.243
G1 X128.943 Y-125.215
G1 X128.969 Y-125.197
G1 X129 Y-125.19
G1 Z-12
G1 X152.991
G2 X153.31 Y-125.509 I0 J-0.319
G1 Y-129.491
G2 X152.991 Y-129.81 I-0.319 J0
G1 X127.009
G2 X126.69 Y-129.491 I0 J0.319
G1 Y-125.509
G2 X127.009 Y-125.19 I0.319 J0
G1 X129
G3 X131.929 Y-123.238 I0 J3.173
G2 X134.857 Y-121.285 I2.929 J-1.22
G1 X155.632
G3 X158 Y-120.225 I0 J3.175
G2 X158.275 Y-120.21 I0.145 J-0.13
G2 X158.34 Y-120.355 I-0.13 J-0.145
G2 X158.275 Y-120.5 I-0.195 J0
G3 X157.215 Y-122.868 I2.115 J-2.368
G1 Y-132.132
G3 X158.275 Y-134.5 I3.175 J0
G2 X158.29 Y-134.775 I-0.13 J-0.145
G2 X158.145 Y-134.84 I-0.145 J0.13
G2 X158 Y-134.775 I0 J0.195
G3 X155.632 Y-133.715 I-2.368 J-2.115
G1 X124.368
G3 X122 Y-134.775 I0 J-3.175
G2 X121.725 Y-134.79 I-0.145 J0.13
G2 X121.66 Y-134.645 I0.13 J0.145
G2 X121.725 Y-134.5 I0.195 J0
G3 X122.785 Y-132.132 I-2.115 J2.368
G1 Y-122.868
G3 X121.725 Y-120.5 I-3.175 J0
G2 X121.71 Y-120.225 I0.13 J0.145
G2 X121.855 Y-120.16 I0.145 J-0.13
G2 X122 Y-120.225 I0 J-0.195
G3 X124.368 Y-121.285 I2.368 J2.115
G1 X134.857
G2 X135.065 Y-121.492 I0 J-0.207
G2 X134.994 Y-121.649 I-0.207 J0
G1 X134.324 Y-122.227
G1 X129.198 Y-125.302
G1 X129.015 Y-125.343
G1 X128.983 Y-125.342
G1 X128.954 Y-125.329
G1 X128.933 Y-125.305
G1 X128.923 Y-125.274
G1 X128.927 Y-125.243
G1 X128.943 Y-125.215
G1 X128.969 Y-125.197
G1 X129 Y-125.19
G1 Z-15.25
G1 X152.991
G2 X153.31 Y-125.509 I0 J-0.319
G1 Y-129.491
G2 X152.991 Y-129.81 I-0.319 J0
G1 X127.009
G2 X126.69 Y-129.491 I0 J0.319
G1 Y-125.509
G2 X127.009 Y-125.19 I0.319 J0
G1 X129
G3 X131.929 Y-123.238 I0 J3.173
G2 X134.857 Y-121.285 I2.929 J-1.22
G1 X155.632
G3 X158 Y-120.225 I0 J3.175
G2 X158.275 Y-120.21 I0.145 J-0.13
G2 X158.34 Y-120.355 I-0.13 J-0.145
G2 X158.275 Y-120.5 I-0.195 J0
G3 X157.215 Y-122.868 I2.115 J-2.368
G1 Y-132.132
G3 X158.275 Y-134.5 I3.175 J0
G2 X158.29 Y-134.775 I-0.13 J-0.145
G2 X158.145 Y-134.84 I-0.145 J0.13
G2 X158 Y-134.775 I0 J0.195
G3 X155.632 Y-133.715 I-2.368 J-2.115
G1 X124.368
G3 X122 Y-134.775 I0 J-3.175
G2 X121.725 Y-134.79 I-0.145 J0.13
G2 X121.66 Y-134.645 I0.13 J0.145
G2 X121.725 Y-134.5 I0.195 J0
G3 X122.785 Y-132.132 I-2.115 J2.368
G1 Y-122.868
G3 X121.725 Y-120.5 I-3.175 J0
G2 X121.71 Y-120.225 I0.13 J0.145
G2 X121.855 Y-120.16 I0.145 J-0.13
G2 X122 Y-120.225 I0 J-0.195
G3 X124.368 Y-121.285 I2.368 J2.115
G1 X134.857
G2 X135.065 Y-121.492 I0 J-0.207
G2 X134.994 Y-121.649 I-0.207 J0
G1 X134.324 Y-122.227
G1 X129.198 Y-125.302
G1 X129.015 Y-125.343
G1 X128.983 Y-125.342
G1 X128.954 Y-125.329
G1 X128.933 Y-125.305
G1 X128.923 Y-125.274
G1 X128.927 Y-125.243
G1 X128.943 Y-125.215
G1 X128.969 Y-125.197
G1 X129 Y-125.19
G1 Z-18.5
G1 X152.991
G2 X153.31 Y-125.509 I0 J-0.319
G1 Y-129.491
G2 X152.991 Y-129.81 I-0.319 J0
G1 X127.009
G2 X126.69 Y-129.491 I0 J0.319
G1 Y-125.509
G2 X127.009 Y-125.19 I0.319 J0
G1 X129
G3 X131.929 Y-123.238 I0 J3.173
G2 X134.857 Y-121.285 I2.929 J-1.22
G1 X155.632
G3 X158 Y-120.225 I0 J3.175
G2 X158.275 Y-120.21 I0.145 J-0.13
G2 X158.34 Y-120.355 I-0.13 J-0.145
G2 X158.275 Y-120.5 I-0.195 J0
G3 X157.215 Y-122.868 I2.115 J-2.368
G1 Y-132.132
G3 X158.275 Y-134.5 I3.175 J0
G2 X158.29 Y-134.775 I-0.13 J-0.145
G2 X158.145 Y-134.84 I-0.145 J0.13
G2 X158 Y-134.775 I0 J0.195
G3 X155.632 Y-133.715 I-2.368 J-2.115
G1 X124.368
G3 X122 Y-134.775 I0 J-3.175
G2 X121.725 Y-134.79 I-0.145 J0.13
G2 X121.66 Y-134.645 I0.13 J0.145
G2 X121.725 Y-134.5 I0.195 J0
G3 X122.785 Y-132.132 I-2.115 J2.368
G1 Y-122.868
G3 X121.725 Y-120.5 I-3.175 J0
G2 X121.71 Y-120.225 I0.13 J0.145
G2 X121.855 Y-120.16 I0.145 J-0.13
G2 X122 Y-120.225 I0 J-0.195
G3 X124.368 Y-121.285 I2.368 J2.115
G1 X134.857
G0 Z7
G0 X-310 Y-82.69
G1 Z-6 F500.
G1 X-308.009
G2 X-307.69 Y-83.009 I0 J-0.319
G1 Y-108.991
G2 X-308.009 Y-109.31 I-0.319 J0
G1 X-311.991
G2 X-312.31 Y-108.991 I0 J0.319
G1 Y-83.009
G2 X-311.991 Y-82.69 I0.319 J0
G1 X-310
G3 X-306.886 Y-80.903 I0 J3.606
G2 X-304.173 Y-78.551 I4.811 J-2.81
G3 X-303 Y-77.725 I-1.195 J2.941
G2 X-302.725 Y-77.71 I0.145 J-0.13
G2 X-302.66 Y-77.855 I-0.13 J-0.145
G2 X-302.725 Y-78 I-0.195 J0
G3 X-303.785 Y-80.368 I2.115 J-2.368
G1 Y-111.632
G3 X-302.725 Y-114 I3.175 J0
G2 X-302.71 Y-114.275 I-0.13 J-0.145
G2 X-302.855 Y-114.34 I-0.145 J0.13
G2 X-303 Y-114.275 I0 J0.195
G3 X-305.368 Y-113.215 I-2.368 J-2.115
G1 X-314.632
G3 X-317 Y-114.275 I0 J-3.175
G2 X-317.275 Y-114.29 I-0.145 J0.13
G2 X-317.34 Y-114.145 I0.13 J0.145
G2 X-317.275 Y-114 I0.195 J0
G3 X-316.215 Y-111.632 I-2.115 J2.368
G1 Y-80.368
G3 X-317.275 Y-78 I-3.175 J0
G2 X-317.29 Y-77.725 I0.13 J0.145
G2 X-317.145 Y-77.66 I0.145 J-0.13
G2 X-317 Y-77.725 I0 J-0.195
G3 X-314.632 Y-78.785 I2.368 J2.115
G1 X-305.368
G3 X-304.173 Y-78.551 I0 J3.175
G2 X-303.912 Y-78.661 I0.075 J-0.185
G2 X-304 Y-78.911 I-0.185 J-0.075
G1 X-310.098 Y-82.315
G3 X-310.175 Y-82.588 I0.098 J-0.175
G3 X-310 Y-82.69 I0.175 J0.098
G1 Z-12
G1 X-308.009
G2 X-307.69 Y-83.009 I0 J-0.319
G1 Y-108.991
G2 X-308.009 Y-109.31 I-0.319 J0
G1 X-311.991
G2 X-312.31 Y-108.991 I0 J0.319
G1 Y-83.009
G2 X-311.991 Y-82.69 I0.319 J0
G1 X-310
G3 X-306.886 Y-80.903 I0 J3.606
G2 X-304.173 Y-78.551 I4.811 J-2.81
G3 X-303 Y-77.725 I-1.195 J2.941
G2 X-302.725 Y-77.71 I0.145 J-0.13
G2 X-302.66 Y-77.855 I-0.13 J-0.145
G2 X-302.725 Y-78 I-0.195 J0
G3 X-303.785 Y-80.368 I2.115 J-2.368
G1 Y-111.632
G3 X-302.725 Y-114 I3.175 J0
G2 X-302.71 Y-114.275 I-0.13 J-0.145
G2 X-302.855 Y-114.34 I-0.145 J0.13
G2 X-303 Y-114.275 I0 J0.195
G3 X-305.368 Y-113.215 I-2.368 J-2.115
G1 X-314.632
G3 X-317 Y-114.275 I0 J-3.175
G2 X-317.275 Y-114.29 I-0.145 J0.13
G2 X-317.34 Y-114.145 I0.13 J0.145
G2 X-317.275 Y-114 I0.195 J0
G3 X-316.215 Y-111.632 I-2.115 J2.368
G1 Y-80.368
G3 X-317.275 Y-78 I-3.175 J0
G2 X-317.29 Y-77.725 I0.13 J0.145
G2 X-317.145 Y-77.66 I0.145 J-0.13
G2 X-317 Y-77.725 I0 J-0.195
G3 X-314.632 Y-78.785 I2.368 J2.115
G1 X-305.368
G3 X-304.173 Y-78.551 I0 J3.175
G2 X-303.912 Y-78.661 I0.075 J-0.185
G2 X-304 Y-78.911 I-0.185 J-0.075
G1 X-310.098 Y-82.315
G3 X-310.175 Y-82.588 I0.098 J-0.175
G3 X-310 Y-82.69 I0.175 J0.098
G1 Z-15.25
G1 X-308.009
G2 X-307.69 Y-83.009 I0 J-0.319
G1 Y-108.991
G2 X-308.009 Y-109.31 I-0.319 J0
G1 X-311.991
G2 X-312.31 Y-108.991 I0 J0.319
G1 Y-83.009
G2 X-311.991 Y-82.69 I0.319 J0
G1 X-310
G3 X-306.886 Y-80.903 I0 J3.606
G2 X-304.173 Y-78.551 I4.811 J-2.81
G3 X-303 Y-77.725 I-1.195 J2.941
G2 X-302.725 Y-77.71 I0.145 J-0.13
G2 X-302.66 Y-77.855 I-0.13 J-0.145
G2 X-302.725 Y-78 I-0.195 J0
G3 X-303.785 Y-80.368 I2.115 J-2.368
G1 Y-111.632
G3 X-302.725 Y-114 I3.175 J0
G2 X-302.71 Y-114.275 I-0.13 J-0.145
G2 X-302.855 Y-114.34 I-0.145 J0.13
G2 X-303 Y-114.275 I0 J0.195
G3 X-305.368 Y-113.215 I-2.368 J-2.115
G1 X-314.632
G3 X-317 Y-114.275 I0 J-3.175
G2 X-317.275 Y-114.29 I-0.145 J0.13
G2 X-317.34 Y-114.145 I0.13 J0.145
G2 X-317.275 Y-114 I0.195 J0
G3 X-316.215 Y-111.632 I-2.115 J2.368
G1 Y-80.368
G3 X-317.275 Y-78 I-3.175 J0
G2 X-317.29 Y-77.725 I0.13 J0.145
G2 X-317.145 Y-77.66 I0.145 J-0.13
G2 X-317 Y-77.725 I0 J-0.195
G3 X-314.632 Y-78.785 I2.368 J2.115
G1 X-305.368
G3 X-304.173 Y-78.551 I0 J3.175
G2 X-303.912 Y-78.661 I0.075 J-0.185
G2 X-304 Y-78.911 I-0.185 J-0.075
G1 X-310.098 Y-82.315
G3 X-310.175 Y-82.588 I0.098 J-0.175
G3 X-310 Y-82.69 I0.175 J0.098
G1 Z-18.5
G1 X-308.009
G2 X-307.69 Y-83.009 I0 J-0.319
G1 Y-108.991
G2 X-308.009 Y-109.31 I-0.319 J0
G1 X-311.991
G2 X-312.31 Y-108.991 I0 J0.319
G1 Y-83.009
G2 X-311.991 Y-82.69 I0.319 J0
G1 X-310
G3 X-306.886 Y-80.903 I0 J3.606
G2 X-304.173 Y-78.551 I4.811 J-2.81
G3 X-303 Y-77.725 I-1.195 J2.941
G2 X-302.725 Y-77.71 I0.145 J-0.13
G2 X-302.66 Y-77.855 I-0.13 J-0.145
G2 X-302.725 Y-78 I-0.195 J0
G3 X-303.785 Y-80.368 I2.115 J-2.368
G1 Y-111.632
G3 X-302.725 Y-114 I3.175 J0
G2 X-302.71 Y-114.275 I-0.13 J-0.145
G2 X-302.855 Y-114.34 I-0.145 J0.13
G2 X-303 Y-114.275 I0 J0.195
G3 X-305.368 Y-113.215 I-2.368 J-2.115
G1 X-314.632
G3 X-317 Y-114.275 I0 J-3.175
G2 X-317.275 Y-114.29 I-0.145 J0.13
G2 X-317.34 Y-114.145 I0.13 J0.145
G2 X-317.275 Y-114 I0.195 J0
G3 X-316.215 Y-111.632 I-2.115 J2.368
G1 Y-80.368
G3 X-317.275 Y-78 I-3.175 J0
G2 X-317.29 Y-77.725 I0.13 J0.145
G2 X-317.145 Y-77.66 I0.145 J-0.13
G2 X-317 Y-77.725 I0 J-0.195
G3 X-314.632 Y-78.785 I2.368 J2.115
G1 X-305.368
G3 X-304.173 Y-78.551 I0 J3.175
G0 Z7
G0 X-310 Y18.19
G1 Z-6 F500.
G1 X-311.991
G2 X-312.31 Y18.509 I0 J0.319
G1 Y44.491
G2 X-311.991 Y44.81 I0.319 J0
G1 X-308.009
G2 X-307.69 Y44.491 I0 J-0.319
G1 Y18.509
G2 X-308.009 Y18.19 I-0.319 J0
G1 X-310
G3 X-313.114 Y16.403 I0 J-3.606
G2 X-315.827 Y14.051 I-4.811 J2.81
G3 X-317 Y13.225 I1.195 J-2.941
G2 X-317.275 Y13.21 I-0.145 J0.13
G2 X-317.34 Y13.355 I0.13 J0.145
G2 X-317.275 Y13.5 I0.195 J0
G3 X-316.215 Y15.868 I-2.115 J2.368
G1 Y47.132
G3 X-317.275 Y49.5 I-3.175 J0
G2 X-317.29 Y49.775 I0.13 J0.145
G2 X-317.145 Y49.84 I0.145 J-0.13
G2 X-317 Y49.775 I0 J-0.195
G3 X-314.632 Y48.715 I2.368 J2.115
G1 X-305.368
G3 X-303 Y49.775 I0 J3.175
G2 X-302.725 Y49.79 I0.145 J-0.13
G2 X-302.66 Y49.645 I-0.13 J-0.145
G2 X-302.725 Y49.5 I-0.195 J0
G3 X-303.785 Y47.132 I2.115 J-2.368
G1 Y15.868
G3 X-302.725 Y13.5 I3.175 J0
G2 X-302.71 Y13.225 I-0.13 J-0.145
G2 X-302.855 Y13.16 I-0.145 J0.13
G2 X-303 Y13.225 I0 J0.195
G3 X-305.368 Y14.285 I-2.368 J-2.115
G1 X-314.632
G3 X-315.827 Y14.051 I0 J-3.175
G2 X-316.088 Y14.161 I-0.075 J0.185
G2 X-316 Y14.411 I0.185 J0.075
G1 X-309.902 Y17.815
G3 X-309.825 Y18.088 I-0.098 J0.175
G3 X-310 Y18.19 I-0.175 J-0.098
G1 Z-12
G1 X-311.991
G2 X-312.31 Y18.509 I0 J0.319
G1 Y44.491
G2 X-311.991 Y44.81 I0.319 J0
G1 X-308.009
G2 X-307.69 Y44.491 I0 J-0.319
G1 Y18.509
G2 X-308.009 Y18.19 I-0.319 J0
G1 X-310
G3 X-313.114 Y16.403 I0 J-3.606
G2 X-315.827 Y14.051 I-4.811 J2.81
G3 X-317 Y13.225 I1.195 J-2.941
G2 X-317.275 Y13.21 I-0.145 J0.13
G2 X-317.34 Y13.355 I0.13 J0.145
G2 X-317.275 Y13.5 I0.195 J0
G3 X-316.215 Y15.868 I-2.115 J2.368
G1 Y47.132
G3 X-317.275 Y49.5 I-3.175 J0
G2 X-317.29 Y49.775 I0.13 J0.145
G2 X-317.145 Y49.84 I0.145 J-0.13
G2 X-317 Y49.775 I0 J-0.195
G3 X-314.632 Y48.715 I2.368 J2.115
G1 X-305.368
G3 X-303 Y49.775 I0 J3.175
G2 X-302.725 Y49.79 I0.145 J-0.13
G2 X-302.66 Y49.645 I-0.13 J-0.145
G2 X-302.725 Y49.5 I-0.195 J0
G3 X-303.785 Y47.132 I2.115 J-2.368
G1 Y15.868
G3 X-302.725 Y13.5 I3.175 J0
G2 X-302.71 Y13.225 I-0.13 J-0.145
G2 X-302.855 Y13.16 I-0.145 J0.13
G2 X-303 Y13.225 I0 J0.195
G3 X-305.368 Y14.285 I-2.368 J-2.115
G1 X-314.632
G3 X-315.827 Y14.051 I0 J-3.175
G2 X-316.088 Y14.161 I-0.075 J0.185
G2 X-316 Y14.411 I0.185 J0.075
G1 X-309.902 Y17.815
G3 X-309.825 Y18.088 I-0.098 J0.175
G3 X-310 Y18.19 I-0.175 J-0.098
G1 Z-15.25
G1 X-311.991
G2 X-312.31 Y18.509 I0 J0.319
G1 Y44.491
G2 X-311.991 Y44.81 I0.319 J0
G1 X-308.009
G2 X-307.69 Y44.491 I0 J-0.319
G1 Y18.509
G2 X-308.009 Y18.19 I-0.319 J0
G1 X-310
G3 X-313.114 Y16.403 I0 J-3.606
G2 X-315.827 Y14.051 I-4.811 J2.81
G3 X-317 Y13.225 I1.195 J-2.941
G2 X-317.275 Y13.21 I-0.145 J0.13
G2 X-317.34 Y13.355 I0.13 J0.145
G2 X-317.275 Y13.5 I0.195 J0
G3 X-316.215 Y15.868 I-2.115 J2.368
G1 Y47.132
G3 X-317.275 Y49.5 I-3.175 J0
G2 X-317.29 Y49.775 I0.13 J0.145
G2 X-317.145 Y49.84 I0.145 J-0.13
G2 X-317 Y49.775 I0 J-0.195
G3 X-314.632 Y48.715 I2.368 J2.115
G1 X-305.368
G3 X-303 Y49.775 I0 J3.175
G2 X-302.725 Y49.79 I0.145 J-0.13
G2 X-302.66 Y49.645 I-0.13 J-0.145
G2 X-302.725 Y49.5 I-0.195 J0
G3 X-303.785 Y47.132 I2.115 J-2.368
G1 Y15.868
G3 X-302.725 Y13.5 I3.175 J0
G2 X-302.71 Y13.225 I-0.13 J-0.145
G2 X-302.855 Y13.16 I-0.145 J0.13
G2 X-303 Y13.225 I0 J0.195
G3 X-305.368 Y14.285 I-2.368 J-2.115
G1 X-314.632
G3 X-315.827 Y14.051 I0 J-3.175
G2 X-316.088 Y14.161 I-0.075 J0.185
G2 X-316 Y14.411 I0.185 J0.075
G1 X-309.902 Y17.815
G3 X-309.825 Y18.088 I-0.098 J0.175
G3 X-310 Y18.19 I-0.175 J-0.098
G1 Z-18.5
G1 X-311.991
G2 X-312.31 Y18.509 I0 J0.319
G1 Y44.491
G2 X-311.991 Y44.81 I0.319 J0
G1 X-308.009
G2 X-307.69 Y44.491 I0 J-0.319
G1 Y18.509
G2 X-308.009 Y18.19 I-0.319 J0
G1 X-310
G3 X-313.114 Y16.403 I0 J-3.606
G2 X-315.827 Y14.051 I-4.811 J2.81
G3 X-317 Y13.225 I1.195 J-2.941
G2 X-317.275 Y13.21 I-0.145 J0.13
G2 X-317.34 Y13.355 I0.13 J0.145
G2 X-317.275 Y13.5 I0.195 J0
G3 X-316.215 Y15.868 I-2.115 J2.368
G1 Y47.132
G3 X-317.275 Y49.5 I-3.175 J0
G2 X-317.29 Y49.775 I0.13 J0.145
G2 X-317.145 Y49.84 I0.145 J-0.13
G2 X-317 Y49.775 I0 J-0.195
G3 X-314.632 Y48.715 I2.368 J2.115
G1 X-305.368
G3 X-303 Y49.775 I0 J3.175
G2 X-302.725 Y49.79 I0.145 J-0.13
G2 X-302.66 Y49.645 I-0.13 J-0.145
G2 X-302.725 Y49.5 I-0.195 J0
G3 X-303.785 Y47.132 I2.115 J-2.368
G1 Y15.868
G3 X-302.725 Y13.5 I3.175 J0
G2 X-302.71 Y13.225 I-0.13 J-0.145
G2 X-302.855 Y13.16 I-0.145 J0.13
G2 X-303 Y13.225 I0 J0.195
G3 X-305.368 Y14.285 I-2.368 J-2.115
G1 X-314.632
G3 X-315.827 Y14.051 I0 J-3.175
G0 Z7
G0 X-470 Y44.81
G1 Z-6 F500.
G1 X-468.009
G2 X-467.69 Y44.491 I0 J-0.319
G1 Y18.509
G2 X-468.009 Y18.19 I-0.319 J0
G1 X-471.991
G2 X-472.31 Y18.509 I0 J0.319
G1 Y44.491
G2 X-471.991 Y44.81 I0.319 J0
G1 X-470
G3 X-466.886 Y46.597 I0 J3.606
G2 X-464.173 Y48.949 I4.811 J-2.81
G3 X-463 Y49.775 I-1.195 J2.941
G2 X-462.725 Y49.79 I0.145 J-0.13
G2 X-462.66 Y49.645 I-0.13 J-0.145
G2 X-462.725 Y49.5 I-0.195 J0
G3 X-463.785 Y47.132 I2.115 J-2.368
G1 Y15.868
G3 X-462.725 Y13.5 I3.175 J0
G2 X-462.71 Y13.225 I-0.13 J-0.145
G2 X-462.855 Y13.16 I-0.145 J0.13
G2 X-463 Y13.225 I0 J0.195
G3 X-465.368 Y14.285 I-2.368 J-2.115
G1 X-474.632
G3 X-477 Y13.225 I0 J-3.175
G2 X-477.275 Y13.21 I-0.145 J0.13
G2 X-477.34 Y13.355 I0.13 J0.145
G2 X-477.275 Y13.5 I0.195 J0
G3 X-476.215 Y15.868 I-2.115 J2.368
G1 Y47.132
G3 X-477.275 Y49.5 I-3.175 J0
G2 X-477.29 Y49.775 I0.13 J0.145
G2 X-477.145 Y49.84 I0.145 J-0.13
G2 X-477 Y49.775 I0 J-0.195
G3 X-474.632 Y48.715 I2.368 J2.115
G1 X-465.368
G3 X-464.173 Y48.949 I0 J3.175
G2 X-463.912 Y48.839 I0.075 J-0.185
G2 X-464 Y48.589 I-0.185 J-0.075
G1 X-470.098 Y45.185
G3 X-470.175 Y44.912 I0.098 J-0.175
G3 X-470 Y44.81 I0.175 J0.098
G1 Z-12
G1 X-468.009
G2 X-467.69 Y44.491 I0 J-0.319
G1 Y18.509
G2 X-468.009 Y18.19 I-0.319 J0
G1 X-471.991
G2 X-472.31 Y18.509 I0 J0.319
G1 Y44.491
G2 X-471.991 Y44.81 I0.319 J0
G1 X-470
G3 X-466.886 Y46.597 I0 J3.606
G2 X-464.173 Y48.949 I4.811 J-2.81
G3 X-463 Y49.775 I-1.195 J2.941
G2 X-462.725 Y49.79 I0.145 J-0.13
G2 X-462.66 Y49.645 I-0.13 J-0.145
G2 X-462.725 Y49.5 I-0.195 J0
G3 X-463.785 Y47.132 I2.115 J-2.368
G1 Y15.868
G3 X-462.725 Y13.5 I3.175 J0
G2 X-462.71 Y13.225 I-0.13 J-0.145
G2 X-462.855 Y13.16 I-0.145 J0.13
G2 X-463 Y13.225 I0 J0.195
G3 X-465.368 Y14.285 I-2.368 J-2.115
G1 X-474.632
G3 X-477 Y13.225 I0 J-3.175
G2 X-477.275 Y13.21 I-0.145 J0.13
G2 X-477.34 Y13.355 I0.13 J0.145
G2 X-477.275 Y13.5 I0.195 J0
G3 X-476.215 Y15.868 I-2.115 J2.368
G1 Y47.132
G3 X-477.275 Y49.5 I-3.175 J0
G2 X-477.29 Y49.775 I0.13 J0.145
G2 X-477.145 Y49.84 I0.145 J-0.13
G2 X-477 Y49.775 I0 J-0.195
G3 X-474.632 Y48.715 I2.368 J2.115
G1 X-465.368
G3 X-464.173 Y48.949 I0 J3.175
G2 X-463.912 Y48.839 I0.075 J-0.185
G2 X-464 Y48.589 I-0.185 J-0.075
G1 X-470.098 Y45.185
G3 X-470.175 Y44.912 I0.098 J-0.175
G3 X-470 Y44.81 I0.175 J0.098
G1 Z-15.25
G1 X-468.009
G2 X-467.69 Y44.491 I0 J-0.319
G1 Y18.509
G2 X-468.009 Y18.19 I-0.319 J0
G1 X-471.991
G2 X-472.31 Y18.509 I0 J0.319
G1 Y44.491
G2 X-471.991 Y44.81 I0.319 J0
G1 X-470
G3 X-466.886 Y46.597 I0 J3.606
G2 X-464.173 Y48.949 I4.811 J-2.81
G3 X-463 Y49.775 I-1.195 J2.941
G2 X-462.725 Y49.79 I0.145 J-0.13
G2 X-462.66 Y49.645 I-0.13 J-0.145
G2 X-462.725 Y49.5 I-0.195 J0
G3 X-463.785 Y47.132 I2.115 J-2.368
G1 Y15.868
G3 X-462.725 Y13.5 I3.175 J0
G2 X-462.71 Y13.225 I-0.13 J-0.145
G2 X-462.855 Y13.16 I-0.145 J0.13
G2 X-463 Y13.225 I0 J0.195
G3 X-465.368 Y14.285 I-2.368 J-2.115
G1 X-474.632
G3 X-477 Y13.225 I0 J-3.175
G2 X-477.275 Y13.21 I-0.145 J0.13
G2 X-477.34 Y13.355 I0.13 J0.145
G2 X-477.275 Y13.5 I0.195 J0
G3 X-476.215 Y15.868 I-2.115 J2.368
G1 Y47.132
G3 X-477.275 Y49.5 I-3.175 J0
G2 X-477.29 Y49.775 I0.13 J0.145
G2 X-477.145 Y49.84 I0.145 J-0.13
G2 X-477 Y49.775 I0 J-0.195
G3 X-474.632 Y48.715 I2.368 J2.115
G1 X-465.368
G3 X-464.173 Y48.949 I0 J3.175
G2 X-463.912 Y48.839 I0.075 J-0.185
G2 X-464 Y48.589 I-0.185 J-0.075
G1 X-470.098 Y45.185
G3 X-470.175 Y44.912 I0.098 J-0.175
G3 X-470 Y44.81 I0.175 J0.098
G1 Z-18.5
G1 X-468.009
G2 X-467.69 Y44.491 I0 J-0.319
G1 Y18.509
G2 X-468.009 Y18.19 I-0.319 J0
G1 X-471.991
G2 X-472.31 Y18.509 I0 J0.319
G1 Y44.491
G2 X-471.991 Y44.81 I0.319 J0
G1 X-470
G3 X-466.886 Y46.597 I0 J3.606
G2 X-464.173 Y48.949 I4.811 J-2.81
G3 X-463 Y49.775 I-1.195 J2.941
G2 X-462.725 Y49.79 I0.145 J-0.13
G2 X-462.66 Y49.645 I-0.13 J-0.145
G2 X-462.725 Y49.5 I-0.195 J0
G3 X-463.785 Y47.132 I2.115 J-2.368
G1 Y15.868
G3 X-462.725 Y13.5 I3.175 J0
G2 X-462.71 Y13.225 I-0.13 J-0.145
G2 X-462.855 Y13.16 I-0.145 J0.13
G2 X-463 Y13.225 I0 J0.195
G3 X-465.368 Y14.285 I-2.368 J-2.115
G1 X-474.632
G3 X-477 Y13.225 I0 J-3.175
G2 X-477.275 Y13.21 I-0.145 J0.13
G2 X-477.34 Y13.355 I0.13 J0.145
G2 X-477.275 Y13.5 I0.195 J0
G3 X-476.215 Y15.868 I-2.115 J2.368
G1 Y47.132
G3 X-477.275 Y49.5 I-3.175 J0
G2 X-477.29 Y49.775 I0.13 J0.145
G2 X-477.145 Y49.84 I0.145 J-0.13
G2 X-477 Y49.775 I0 J-0.195
G3 X-474.632 Y48.715 I2.368 J2.115
G1 X-465.368
G3 X-464.173 Y48.949 I0 J3.175
G0 Z7
G0 X-470 Y-109.31
G1 Z-6 F500.
G1 X-471.991
G2 X-472.31 Y-108.991 I0 J0.319
G1 Y-83.009
G2 X-471.991 Y-82.69 I0.319 J0
G1 X-468.009
G2 X-467.69 Y-83.009 I0 J-0.319
G1 Y-108.991
G2 X-468.009 Y-109.31 I-0.319 J0
G1 X-470
G3 X-473.114 Y-111.097 I0 J-3.606
G2 X-475.827 Y-113.449 I-4.811 J2.81
G3 X-477 Y-114.275 I1.195 J-2.941
G2 X-477.275 Y-114.29 I-0.145 J0.13
G2 X-477.34 Y-114.145 I0.13 J0.145
G2 X-477.275 Y-114 I0.195 J0
G3 X-476.215 Y-111.632 I-2.115 J2.368
G1 Y-80.368
G3 X-477.275 Y-78 I-3.175 J0
G2 X-477.29 Y-77.725 I0.13 J0.145
G2 X-477.145 Y-77.66 I0.145 J-0.13
G2 X-477 Y-77.725 I0 J-0.195
G3 X-474.632 Y-78.785 I2.368 J2.115
G1 X-465.368
G3 X-463 Y-77.725 I0 J3.175
G2 X-462.725 Y-77.71 I0.145 J-0.13
G2 X-462.66 Y-77.855 I-0.13 J-0.145
G2 X-462.725 Y-78 I-0.195 J0
G3 X-463.785 Y-80.368 I2.115 J-2.368
G1 Y-111.632
G3 X-462.725 Y-114 I3.175 J0
G2 X-462.71 Y-114.275 I-0.13 J-0.145
G2 X-462.855 Y-114.34 I-0.145 J0.13
G2 X-463 Y-114.275 I0 J0.195
G3 X-465.368 Y-113.215 I-2.368 J-2.115
G1 X-474.632
G3 X-475.827 Y-113.449 I0 J-3.175
G1 X-475.856 Y-113.453
G1 X-475.883 Y-113.446
G1 X-475.905 Y-113.428
G1 X-475.918 Y-113.402
G1 Y-113.373
G1 X-475.907 Y-113.347
G1 X-475.749 Y-113.133
G1 X-470.748 Y-108.96
G1 X-470.708 Y-108.931
G1 X-470.665 Y-108.909
G1 X-470.125 Y-108.685
G2 X-469.7 Y-108.861 I0.125 J-0.3
G2 X-469.875 Y-109.285 I-0.3 J-0.125
G2 X-470 Y-109.31 I-0.125 J0.3
G1 Z-12
G1 X-471.991
G2 X-472.31 Y-108.991 I0 J0.319
G1 Y-83.009
G2 X-471.991 Y-82.69 I0.319 J0
G1 X-468.009
G2 X-467.69 Y-83.009 I0 J-0.319
G1 Y-108.991
G2 X-468.009 Y-109.31 I-0.319 J0
G1 X-470
G3 X-473.114 Y-111.097 I0 J-3.606
G2 X-475.827 Y-113.449 I-4.811 J2.81
G3 X-477 Y-114.275 I1.195 J-2.941
G2 X-477.275 Y-114.29 I-0.145 J0.13
G2 X-477.34 Y-114.145 I0.13 J0.145
G2 X-477.275 Y-114 I0.195 J0
G3 X-476.215 Y-111.632 I-2.115 J2.368
G1 Y-80.368
G3 X-477.275 Y-78 I-3.175 J0
G2 X-477.29 Y-77.725 I0.13 J0.145
G2 X-477.145 Y-77.66 I0.145 J-0.13
G2 X-477 Y-77.725 I0 J-0.195
G3 X-474.632 Y-78.785 I2.368 J2.115
G1 X-465.368
G3 X-463 Y-77.725 I0 J3.175
G2 X-462.725 Y-77.71 I0.145 J-0.13
G2 X-462.66 Y-77.855 I-0.13 J-0.145
G2 X-462.725 Y-78 I-0.195 J0
G3 X-463.785 Y-80.368 I2.115 J-2.368
G1 Y-111.632
G3 X-462.725 Y-114 I3.175 J0
G2 X-462.71 Y-114.275 I-0.13 J-0.145
G2 X-462.855 Y-114.34 I-0.145 J0.13
G2 X-463 Y-114.275 I0 J0.195
G3 X-465.368 Y-113.215 I-2.368 J-2.115
G1 X-474.632
G3 X-475.827 Y-113.449 I0 J-3.175
G1 X-475.856 Y-113.453
G1 X-475.883 Y-113.446
G1 X-475.905 Y-113.428
G1 X-475.918 Y-113.402
G1 Y-113.373
G1 X-475.907 Y-113.347
G1 X-475.749 Y-113.133
G1 X-470.748 Y-108.96
G1 X-470.708 Y-108.931
G1 X-470.665 Y-108.909
G1 X-470.125 Y-108.685
G2 X-469.7 Y-108.861 I0.125 J-0.3
G2 X-469.875 Y-109.285 I-0.3 J-0.125
G2 X-470 Y-109.31 I-0.125 J0.3
G1 Z-15.25
G1 X-471.991
G2 X-472.31 Y-108.991 I0 J0.319
G1 Y-83.009
G2 X-471.991 Y-82.69 I0.319 J0
G1 X-468.009
G2 X-467.69 Y-83.009 I0 J-0.319
G1 Y-108.991
G2 X-468.009 Y-109.31 I-0.319 J0
G1 X-470
G3 X-473.114 Y-111.097 I0 J-3.606
G2 X-475.827 Y-113.449 I-4.811 J2.81
G3 X-477 Y-114.275 I1.195 J-2.941
G2 X-477.275 Y-114.29 I-0.145 J0.13
G2 X-477.34 Y-114.145 I0.13 J0.145
G2 X-477.275 Y-114 I0.195 J0
G3 X-476.215 Y-111.632 I-2.115 J2.368
G1 Y-80.368
G3 X-477.275 Y-78 I-3.175 J0
G2 X-477.29 Y-77.725 I0.13 J0.145
G2 X-477.145 Y-77.66 I0.145 J-0.13
G2 X-477 Y-77.725 I0 J-0.195
G3 X-474.632 Y-78.785 I2.368 J2.115
G1 X-465.368
G3 X-463 Y-77.725 I0 J3.175
G2 X-462.725 Y-77.71 I0.145 J-0.13
G2 X-462.66 Y-77.855 I-0.13 J-0.145
G2 X-462.725 Y-78 I-0.195 J0
G3 X-463.785 Y-80.368 I2.115 J-2.368
G1 Y-111.632
G3 X-462.725 Y-114 I3.175 J0
G2 X-462.71 Y-114.275 I-0.13 J-0.145
G2 X-462.855 Y-114.34 I-0.145 J0.13
G2 X-463 Y-114.275 I0 J0.195
G3 X-465.368 Y-113.215 I-2.368 J-2.115
G1 X-474.632
G3 X-475.827 Y-113.449 I0 J-3.175
G1 X-475.856 Y-113.453
G1 X-475.883 Y-113.446
G1 X-475.905 Y-113.428
G1 X-475.918 Y-113.402
G1 Y-113.373
G1 X-475.907 Y-113.347
G1 X-475.749 Y-113.133
G1 X-470.748 Y-108.96
G1 X-470.708 Y-108.931
G1 X-470.665 Y-108.909
G1 X-470.125 Y-108.685
G2 X-469.7 Y-108.861 I0.125 J-0.3
G2 X-469.875 Y-109.285 I-0.3 J-0.125
G2 X-470 Y-109.31 I-0.125 J0.3
G1 Z-18.5
G1 X-471.991
G2 X-472.31 Y-108.991 I0 J0.319
G1 Y-83.009
G2 X-471.991 Y-82.69 I0.319 J0
G1 X-468.009
G2 X-467.69 Y-83.009 I0 J-0.319
G1 Y-108.991
G2 X-468.009 Y-109.31 I-0.319 J0
G1 X-470
G3 X-473.114 Y-111.097 I0 J-3.606
G2 X-475.827 Y-113.449 I-4.811 J2.81
G3 X-477 Y-114.275 I1.195 J-2.941
G2 X-477.275 Y-114.29 I-0.145 J0.13
G2 X-477.34 Y-114.145 I0.13 J0.145
G2 X-477.275 Y-114 I0.195 J0
G3 X-476.215 Y-111.632 I-2.115 J2.368
G1 Y-80.368
G3 X-477.275 Y-78 I-3.175 J0
G2 X-477.29 Y-77.725 I0.13 J0.145
G2 X-477.145 Y-77.66 I0.145 J-0.13
G2 X-477 Y-77.725 I0 J-0.195
G3 X-474.632 Y-78.785 I2.368 J2.115
G1 X-465.368
G3 X-463 Y-77.725 I0 J3.175
G2 X-462.725 Y-77.71 I0.145 J-0.13
G2 X-462.66 Y-77.855 I-0.13 J-0.145
G2 X-462.725 Y-78 I-0.195 J0
G3 X-463.785 Y-80.368 I2.115 J-2.368
G1 Y-111.632
G3 X-462.725 Y-114 I3.175 J0
G2 X-462.71 Y-114.275 I-0.13 J-0.145
G2 X-462.855 Y-114.34 I-0.145 J0.13
G2 X-463 Y-114.275 I0 J0.195
G3 X-465.368 Y-113.215 I-2.368 J-2.115
G1 X-474.632
G3 X-475.827 Y-113.449 I0 J-3.175
G0 Z7
G0 X-472.31 Y-234.5
G1 Z-6 F500.
G1 Y-210.509
G2 X-471.991 Y-210.19 I0.319 J0
G1 X-468.009
