(METICULOUSSLED_PLYWOODDUSTCHUTE_0750PLY_0188DRILL)
(34 PLYWOOD PART FOR THE METICULOUS Z-AXIS PLYWOOD DUST CHUTE. T1 = 14 1 FLUTE FLAT END MILL, T5 = 316 DRILL. PROGRAMMED 2242019 BY BRYAN MAYNARD.)
(T5  D=4.762 CR=0 TAPER=118DEG - ZMIN=-21 - DRILL)
G0 G40 G90 G17
G21

(DRILL1)
T5 M6
M3 S10000
G0 X0 Y82.35
G0 Z8
G0 Z6
G1 Z-21 F1000.
G0 Z6
G0 X-71.317 Y41.175
G1 Z-21 F1000.
G0 Z6
G0 Y-41.175
G1 Z-21 F1000.
G0 Z6
G0 X0 Y-82.35
G1 Z-21 F1000.
G0 Z6
G0 Z8

G0 Z8
M5
M30
