(METICULOUSSLED_DUSTWINDOW_0250-1FL)
(COUNTOUR PROGRAM FOR THE METICULOUS SLED DUST CHUTE WINDOW. SEE TOOL LIST BELOW FOR NEEDED TOOLING.)
(T1  D=6.35 CR=0 - ZMIN=-4.175 - FLAT END MILL)
G0 G40 G90 G17
G21

(2D CONTOUR3)
T1 M6
M3 S12000
G0 X-77.356 Y19.825
G0 Z8
G0 Z7
G1 Z-1 F500.
G1 X-77.349 Y19.823 Z-1.217
G1 X-77.328 Y19.818 Z-1.432
G1 X-77.292 Y19.809 Z-1.646
G1 X-77.242 Y19.797 Z-1.857
G1 X-77.178 Y19.781 Z-2.063
G1 X-77.101 Y19.763 Z-2.265
G1 X-77.01 Y19.741 Z-2.461
G1 X-76.907 Y19.716 Z-2.65
G1 X-76.792 Y19.688 Z-2.831
G1 X-76.664 Y19.657 Z-3.004
G1 X-76.526 Y19.623 Z-3.167
G1 X-76.377 Y19.587 Z-3.32
G1 X-76.218 Y19.548 Z-3.463
G1 X-76.05 Y19.507 Z-3.594
G1 X-75.874 Y19.465 Z-3.713
G1 X-75.69 Y19.42 Z-3.819
G1 X-75.5 Y19.374 Z-3.912
G1 X-75.304 Y19.326 Z-3.992
G1 X-75.103 Y19.277 Z-4.057
G1 X-74.899 Y19.228 Z-4.109
G1 X-74.691 Y19.177 Z-4.145
G1 X-74.482 Y19.126 Z-4.168
G1 X-74.271 Y19.075 Z-4.175
G1 X-72.813 Y18.721
G2 X-72.078 Y17.513 I-0.236 J-0.972
G3 X-57.564 Y-46.78 I72.078 J-17.513
G1 Z-1.675
G3 X-45.917 Y-58.255 I57.564 J46.78
G1 Z-4.175
G3 X-36.121 Y-64.786 I45.917 J58.255
G3 X-32.383 Y-64.31 I1.546 J2.773
G1 X-31.507 Y-63.474
G1 X-30.652 Y-62.747
G1 X-29.757 Y-62.069
G1 X-28.823 Y-61.442
G1 X-27.853 Y-60.868
G1 X-26.852 Y-60.349
G1 X-25.822 Y-59.887
G1 X-24.767 Y-59.483
G1 X-23.69 Y-59.139
G1 X-22.594 Y-58.857
G1 X-21.484 Y-58.636
G1 X-20.362 Y-58.477
G1 X-19.233 Y-58.382
G1 X-18.055 Y-58.349
G1 X18.055
G1 X19.233 Y-58.382
G1 X20.362 Y-58.477
G1 X21.484 Y-58.636
G1 X22.594 Y-58.857
G1 X23.69 Y-59.139
G1 X24.767 Y-59.483
G1 X25.822 Y-59.887
G1 X26.852 Y-60.349
G1 X27.853 Y-60.868
G1 X28.823 Y-61.442
G1 X29.757 Y-62.069
G1 X30.652 Y-62.747
G1 X31.507 Y-63.474
G1 X32.383 Y-64.31
G3 X36.121 Y-64.786 I2.192 J2.297
G3 X40.719 Y-61.999 I-36.121 J64.786
G1 Z-1.675
G3 X53.313 Y-51.572 I-40.719 J61.999
G1 Z-4.175
G3 X54.351 Y50.477 I-53.313 J51.572
G1 Z-1.675
G3 X41.972 Y61.158 I-54.351 J-50.477
G1 Z-4.175
G3 X-40.157 Y62.365 I-41.972 J-61.158
G1 Z-1.675
G3 X-52.844 Y52.052 I40.157 J-62.365
G1 Z-4.175
G3 X-73.958 Y5.675 I52.844 J-52.052
G2 X-75.031 Y4.754 I-0.997 J0.077
G1 X-76.527 Y4.869
G1 X-76.743 Y4.885 Z-4.168
G1 X-76.958 Y4.902 Z-4.145
G1 X-77.171 Y4.918 Z-4.109
G1 X-77.381 Y4.934 Z-4.057
G1 X-77.587 Y4.95 Z-3.992
G1 X-77.788 Y4.965 Z-3.912
G1 X-77.983 Y4.98 Z-3.819
G1 X-78.172 Y4.995 Z-3.713
G1 X-78.352 Y5.009 Z-3.594
G1 X-78.525 Y5.022 Z-3.463
G1 X-78.688 Y5.034 Z-3.32
G1 X-78.84 Y5.046 Z-3.167
G1 X-78.982 Y5.057 Z-3.004
G1 X-79.113 Y5.067 Z-2.831
G1 X-79.232 Y5.076 Z-2.65
G1 X-79.338 Y5.084 Z-2.461
G1 X-79.43 Y5.091 Z-2.265
G1 X-79.51 Y5.098 Z-2.063
G1 X-79.575 Y5.103 Z-1.857
G1 X-79.626 Y5.107 Z-1.646
G1 X-79.663 Y5.109 Z-1.432
G1 X-79.685 Y5.111 Z-1.217
G1 X-79.692 Y5.112 Z-1
G0 Z7
G0 X-1.121 Y9.637
G1 Z-1 F500.
G1 Y9.644 Z-1.217
G1 Y9.666 Z-1.432
G1 X-1.122 Y9.703 Z-1.646
G1 X-1.123 Y9.754 Z-1.857
G1 Y9.82 Z-2.063
G1 X-1.124 Y9.9 Z-2.265
G1 X-1.126 Y9.993 Z-2.461
G1 X-1.127 Y10.099 Z-2.65
G1 X-1.128 Y10.218 Z-2.831
G1 X-1.13 Y10.349 Z-3.004
G1 X-1.132 Y10.491 Z-3.167
G1 X-1.134 Y10.645 Z-3.32
G1 X-1.136 Y10.808 Z-3.463
G1 X-1.138 Y10.981 Z-3.594
G1 X-1.14 Y11.162 Z-3.713
G1 X-1.143 Y11.351 Z-3.819
G1 X-1.145 Y11.547 Z-3.912
G1 X-1.148 Y11.748 Z-3.992
G1 X-1.15 Y11.955 Z-4.057
G1 X-1.153 Y12.166 Z-4.109
G1 X-1.155 Y12.379 Z-4.145
G1 X-1.158 Y12.595 Z-4.168
G1 X-1.161 Y12.811 Z-4.175
G1 X-1.18 Y14.311
G2 X-0.192 Y15.324 I1 J0.013
G2 X15.324 Y0.192 I0.192 J-15.324
G2 X8.038 Y-13.048 I-15.324 J-0.192
G1 Z-1.675
G2 X-8.311 Y-12.876 I-8.038 J13.048
G1 Z-4.175
G2 X-12.876 Y8.311 I8.311 J12.876
G2 X8.311 Y12.876 I12.876 J-8.311
G2 X10.674 Y10.997 I-8.311 J-12.876
G2 X10.695 Y9.583 I-0.696 J-0.718
G1 X9.65 Y8.506
G1 X9.499 Y8.351 Z-4.168
G1 X9.349 Y8.196 Z-4.145
G1 X9.2 Y8.043 Z-4.109
G1 X9.053 Y7.892 Z-4.057
G1 X8.909 Y7.743 Z-3.992
G1 X8.769 Y7.599 Z-3.912
G1 X8.633 Y7.458 Z-3.819
G1 X8.501 Y7.323 Z-3.713
G1 X8.375 Y7.193 Z-3.594
G1 X8.254 Y7.069 Z-3.463
G1 X8.141 Y6.951 Z-3.32
G1 X8.034 Y6.841 Z-3.167
G1 X7.935 Y6.739 Z-3.004
G1 X7.843 Y6.645 Z-2.831
G1 X7.761 Y6.56 Z-2.65
G1 X7.687 Y6.484 Z-2.461
G1 X7.622 Y6.417 Z-2.265
G1 X7.566 Y6.36 Z-2.063
G1 X7.521 Y6.313 Z-1.857
G1 X7.485 Y6.276 Z-1.646
G1 X7.459 Y6.249 Z-1.432
G1 X7.444 Y6.233 Z-1.217
G1 X7.439 Y6.228 Z-1
G0 Z8

G0 Z8
M5
M30
