(METICULOUSSLED_PLYWOODDUSTCHUTE_0125INACRYLIC_0188INDRILL)
(18 ACRYLIC PART FOR THE METICULOUS Z-AXIS PLYWOOD DUST CHUTE. T1 = 14 1 FLUTE FLAT END MILL, T5 = 316 DRILL. PROGRAMMED 2242019 BY BRYAN MAYNARD.)
(T5  D=4.762 CR=0 TAPER=118DEG - ZMIN=-4 - DRILL)
G0 G40 G90 G17
G21

(DRILL2)
T5 M6
M3 S10000
G0 X0 Y-65
G0 Z8
G0 Z6
G1 Z-4 F1000.
G0 Z6
G0 X-65 Y0
G1 Z-4 F1000.
G0 Z6
G0 X0 Y65
G1 Z-4 F1000.
G0 Z6
G0 Z8

G0 Z8
M5
M30
