(METICULOUSSLED_PREDRILL)
(ALL THE PREDRILL HOLES FOR THE METICULOUS SLED.)
(T4  D=3.175 CR=0 TAPER=118DEG - ZMIN=-11 - DRILL)
G0 G40 G90 G17
G21

(DRILL1)
T4 M6
M3 S10000
G0 X-346.5 Y293.2
G0 Z6
G0 Z5
G1 Z-3 F100.
G0 Z5
G0 Y225.2
G1 Z-3 F100.
G0 Z5
G0 X-433.5
G1 Z-3 F100.
G0 Z5
G0 Y293.2
G1 Z-3 F100.
G0 Z5
G0 X-470 Y-159.75
G1 Z-3 F100.
G0 Z5
G0 Y-32.25
G1 Z-3 F100.
G0 Z5
G0 Y64
G1 Z-3 F100.
G0 Z5
G0 X-310
G1 Z-3 F100.
G0 Z5
G0 Y-32.25
G1 Z-3 F100.
G0 Z5
G0 Y-159.75
G1 Z-3 F100.
G0 Z5
G0 X-80 Y-219
G1 Z-3 F100.
G0 Z5
G0 X-87.5 Y-127.5
G1 Z-3 F100.
G0 Z5
G0 X-80 Y-146
G1 Z-3 F100.
G0 Z5
G0 X-47.5 Y-127.5
G1 Z-3 F100.
G0 Z5
G0 X47.5
G1 Z-3 F100.
G0 Z5
G0 X80 Y-146
G1 Z-3 F100.
G0 Z5
G0 X87.5 Y-127.5
G1 Z-3 F100.
G0 Z5
G0 X80 Y-219
G1 Z-3 F100.
G0 Z5
G0 Z6

(DRILL2)
G0 X80.822 Y-80.822
G0 Z6
G0 Z5
G1 Z-11 F100.
G0 Z5
G0 X-80.822
G1 Z-11 F100.
G0 Z5
G0 Y80.822
G1 Z-11 F100.
G0 Z5
G0 X0 Y76.2
G1 Z-11 F100.
G0 Z5
G0 X80.822 Y80.822
G1 Z-11 F100.
G0 Z5
G0 X0 Y228.6
G1 Z-11 F100.
G0 Z5
G0 Z6

(DRILL3)
G0 X-132.587 Y-71.353
G0 Z6
G0 Z5
G1 Z-4 F100.
G0 Z5
G0 X-148.087
G1 Z-4 F100.
G0 Z5
G0 X-155.837 Y-57.929
G1 Z-4 F100.
G0 Z5
G0 X-148.087 Y-44.506
G1 Z-4 F100.
G0 Z5
G0 X-132.587
G1 Z-4 F100.
G0 Z5
G0 X-124.837 Y-57.929
G1 Z-4 F100.
G0 Z5
G0 X132.587 Y-71.353
G1 Z-4 F100.
G0 Z5
G0 X148.087
G1 Z-4 F100.
G0 Z5
G0 X155.837 Y-57.929
G1 Z-4 F100.
G0 Z5
G0 X148.087 Y-44.506
G1 Z-4 F100.
G0 Z5
G0 X132.587
G1 Z-4 F100.
G0 Z5
G0 X124.837 Y-57.929
G1 Z-4 F100.
G0 Z5
G0 X7.75 Y137.077
G1 Z-4 F100.
G0 Z5
G0 X-7.75
G1 Z-4 F100.
G0 Z5
G0 X-15.5 Y150.5
G1 Z-4 F100.
G0 Z5
G0 X-7.75 Y163.923
G1 Z-4 F100.
G0 Z5
G0 X7.75
G1 Z-4 F100.
G0 Z5
G0 X15.5 Y150.5
G1 Z-4 F100.
G0 Z5
G0 Z6

G0 Z6
M5
M30
