(METICULOUSSLED_FULLYMASLOWD_3.175MM HDPE)
(T1  D=6.35 CR=0 - ZMIN=-4.175 - FLAT END MILL)
(T4  D=3.175 CR=0 TAPER=118DEG - ZMIN=-4.175 - DRILL)
G0 G40 G90 G17
G21

(DRILL2)
T4 M6
M3 S10000
G0 X490 Y267.3
G0 Z15
G0 Z5
G1 Z-4.175 F100.
G0 Z5
G0 X424.099 Y426.399
G1 Z-4.175 F100.
G0 Z5
G0 X296.314 Y490.11
G1 Z-4.175 F100.
G0 Z5
G0 X233.686
G1 Z-4.175 F100.
G0 Z5
G0 X105.901 Y426.399
G1 Z-4.175 F100.
G0 Z5
G0 X211.118 Y321.182
G1 Z-4.175 F100.
G0 Z5
G0 X265 Y381.6
G1 Z-4.175 F100.
G0 Z5
G0 X318.882 Y321.182
G1 Z-4.175 F100.
G0 Z5
G0 Y213.418
G1 Z-4.175 F100.
G0 Z5
G0 X211.118
G1 Z-4.175 F100.
G0 Z5
G0 X105.901 Y108.201
G1 Z-4.175 F100.
G0 Z5
G0 X265 Y42.3
G1 Z-4.175 F100.
G0 Z5
G0 X424.099 Y108.201
G1 Z-4.175 F100.
G0 Z5
G0 X40 Y267.3
G1 Z-4.175 F100.
G0 Z5
G0 Z15
G0 Z15

(2D CONTOUR12)
M5
T1 M6
M3 S12000
G0 X261.275 Y314.56
G0 Z8
G0 Z7.35
G1 Z-1 F500.
G1 Y314.567 Z-1.217
G1 Y314.59 Z-1.432
G1 X261.274 Y314.626 Z-1.646
G1 Y314.678 Z-1.857
G1 X261.273 Y314.743 Z-2.063
G1 X261.272 Y314.823 Z-2.265
G1 X261.271 Y314.916 Z-2.461
G1 X261.27 Y315.022 Z-2.65
G1 X261.268 Y315.141 Z-2.831
G1 X261.267 Y315.272 Z-3.004
G1 X261.265 Y315.414 Z-3.167
G1 X261.263 Y315.568 Z-3.32
G1 X261.261 Y315.731 Z-3.463
G1 X261.259 Y315.904 Z-3.594
G1 X261.257 Y316.085 Z-3.713
G1 X261.255 Y316.274 Z-3.819
G1 X261.253 Y316.47 Z-3.912
G1 X261.25 Y316.672 Z-3.992
G1 X261.248 Y316.878 Z-4.057
G1 X261.246 Y317.089 Z-4.109
G1 X261.243 Y317.302 Z-4.145
G1 X261.241 Y317.518 Z-4.168
G1 X261.238 Y317.735 Z-4.175
G1 X261.201 Y320.91 F600.
G2 X264.339 Y324.121 I3.175 J0.037
G2 X300.946 Y311.311 I0.661 J-56.821
G1 Z-2.175
G2 X311.989 Y299.255 I-35.946 J-44.011
G1 Z-4.175 F500.
G2 X321.622 Y262.504 I-46.989 J-31.955 F600.
G2 X307.636 Y230.114 I-55.355 J4.689
G3 X306.825 Y227.999 I2.364 J-2.119
G1 X306.786 Y195.043
G1 Y195.039
G1 Y151.131
G1 X272.95
G1 Z-2.175
G1 X256.6
G1 Z-4.175 F500.
G1 X223.214 F600.
G1 Y195.039
G1 Y195.043
G1 X223.175 Y227.999
G3 X222.364 Y230.114 I-3.175 J-0.004
G2 X208.378 Y262.504 I41.369 J37.079
G2 X218.956 Y300.602 I56.622 J4.796
G1 Z-2.175
G2 X230.344 Y312.334 I46.044 J-33.302
G1 Z-4.175 F500.
G2 X276.264 Y322.998 I34.656 J-45.034 F600.
G2 X278.746 Y319.256 I-0.629 J-3.112
G1 X278.117 Y316.144
G1 X278.074 Y315.932 Z-4.168
G1 X278.031 Y315.72 Z-4.145
G1 X277.989 Y315.511 Z-4.109
G1 X277.947 Y315.305 Z-4.057
G1 X277.906 Y315.102 Z-3.992
G1 X277.866 Y314.904 Z-3.912
G1 X277.828 Y314.712 Z-3.819
G1 X277.79 Y314.527 Z-3.713
G1 X277.754 Y314.35 Z-3.594
G1 X277.72 Y314.18 Z-3.463
G1 X277.688 Y314.02 Z-3.32
G1 X277.657 Y313.87 Z-3.167
G1 X277.629 Y313.73 Z-3.004
G1 X277.603 Y313.602 Z-2.831
G1 X277.579 Y313.485 Z-2.65
G1 X277.558 Y313.381 Z-2.461
G1 X277.54 Y313.29 Z-2.265
G1 X277.524 Y313.212 Z-2.063
G1 X277.511 Y313.148 Z-1.857
G1 X277.501 Y313.097 Z-1.646
G1 X277.494 Y313.061 Z-1.432
G1 X277.489 Y313.039 Z-1.217
G1 X277.488 Y313.032 Z-1
G0 Z8

(2D CONTOUR13)
G0 X269.85 Y529.974
G0 Z8
G0 Z7.35
G1 Z-1 F500.
G1 Y529.967 Z-1.217
G1 Y529.945 Z-1.432
G1 X269.849 Y529.908 Z-1.646
G1 Y529.857 Z-1.857
G1 Y529.791 Z-2.063
G1 X269.848 Y529.712 Z-2.265
G1 Y529.618 Z-2.461
G1 X269.847 Y529.512 Z-2.65
G1 X269.846 Y529.393 Z-2.831
G1 X269.845 Y529.262 Z-3.004
G1 X269.844 Y529.12 Z-3.167
G1 X269.843 Y528.967 Z-3.32
G1 X269.842 Y528.803 Z-3.463
G1 X269.841 Y528.63 Z-3.594
G1 X269.84 Y528.449 Z-3.713
G1 X269.839 Y528.26 Z-3.819
G1 X269.838 Y528.064 Z-3.912
G1 X269.836 Y527.863 Z-3.992
G1 X269.835 Y527.656 Z-4.057
G1 X269.834 Y527.445 Z-4.109
G1 X269.832 Y527.232 Z-4.145
G1 X269.831 Y527.016 Z-4.168
G1 X269.83 Y526.799 Z-4.175
G1 X269.809 Y523.625 F600.
G2 X268.865 Y521.385 I-3.175 J0.02
G2 X266.614 Y520.47 I-2.231 J2.259
G3 X95.589 Y455.442 I-1.614 J-253.17
G1 Z-2.175
G3 X83.798 Y444.115 I169.411 J-188.142
G1 Z-4.175 F500.
G3 X84.234 Y90.04 I181.202 J-176.815 F600.
G1 Z-2.175
G3 X96.052 Y78.742 I180.766 J177.26
G1 Z-4.175 F500.
G3 X431.616 Y76.678 I168.948 J188.558 F600.
G1 Z-2.175
G3 X443.573 Y87.83 I-166.616 J190.621
G1 Z-4.175 F500.
G3 X449.614 Y440.549 I-178.573 J179.47 F600.
G1 Z-2.175
G3 X438.047 Y452.103 I-184.614 J-173.249
G1 Z-4.175 F500.
G3 X254.617 Y520.262 I-173.047 J-184.803 F600.
G2 X252.336 Y521.099 I-0.13 J3.172
G2 X251.315 Y523.304 I2.151 J2.335
G1 X251.184 Y526.476
G1 X251.176 Y526.693 Z-4.168
G1 X251.167 Y526.908 Z-4.145
G1 X251.158 Y527.122 Z-4.109
G1 X251.149 Y527.332 Z-4.057
G1 X251.141 Y527.539 Z-3.992
G1 X251.133 Y527.74 Z-3.912
G1 X251.125 Y527.936 Z-3.819
G1 X251.117 Y528.125 Z-3.713
G1 X251.109 Y528.306 Z-3.594
G1 X251.102 Y528.478 Z-3.463
G1 X251.096 Y528.642 Z-3.32
G1 X251.089 Y528.795 Z-3.167
G1 X251.083 Y528.937 Z-3.004
G1 X251.078 Y529.068 Z-2.831
G1 X251.073 Y529.187 Z-2.65
G1 X251.069 Y529.293 Z-2.461
G1 X251.065 Y529.386 Z-2.265
G1 X251.062 Y529.466 Z-2.063
G1 X251.059 Y529.531 Z-1.857
G1 X251.057 Y529.582 Z-1.646
G1 X251.055 Y529.619 Z-1.432
G1 Y529.641 Z-1.217
G1 X251.054 Y529.649 Z-1
G0 Z8

G0 Z15
M5
M30
