(METICULOUSSLED_18MMPLY)
(T1  D=6.35 CR=0 - ZMIN=-19 - FLAT END MILL)
(T3  D=0.04 CR=0.1 TAPER=15DEG - ZMIN=-3.044 - TAPERED MILL)
(T4  D=3.175 CR=0 TAPER=118DEG - ZMIN=-3 - DRILL)
G0 G40 G90 G17
G21

(GUSSET ENGRAVE)
T3 M6
M3 S10000
G0 X164.577 Y447.145
G0 Z10
G0 Z-3
G1 Z-3.044 F500.
G1 X164.444 Y446.984
G1 X164.286 Y446.857
G1 X164.109 Y446.764
G1 X163.919 Y446.708
G1 X163.722 Y446.689
G1 X163.524 Y446.708
G1 X163.33 Y446.766
G1 X163.145 Y446.865
G1 X162.985 Y446.998
G1 X162.857 Y447.156
G1 X162.765 Y447.333
G1 X162.709 Y447.522
G1 X162.689 Y447.719
G1 X162.708 Y447.918
G1 X162.766 Y448.112
G1 X162.865 Y448.296
G1 X176.65 Y468.795
G1 X176.766 Y468.938
G1 X176.902 Y469.056
G1 X177.054 Y469.147
G1 X177.218 Y469.21
G1 X177.391 Y469.245
G1 X177.568 Y469.25
G1 X177.746 Y469.223
G1 X177.921 Y469.165
G1 X178.082 Y469.076
G1 X178.222 Y468.964
G1 X178.339 Y468.83
G1 X178.43 Y468.68
G1 X178.495 Y468.516
G1 X178.531 Y468.342
G1 X178.537 Y468.163
G1 X178.51 Y467.981
G1 X174.583 Y451.486
G1 X185.581 Y467.109
G1 X185.121 Y467.482
G1 X184.647 Y467.833
G1 X184.159 Y468.162
G1 X183.66 Y468.468
G1 X183.148 Y468.752
G1 X182.625 Y469.012
G1 X182.092 Y469.249
G1 X181.549 Y469.462
G1 X180.997 Y469.651
G1 X180.436 Y469.816
G1 X179.868 Y469.956
G1 X179.292 Y470.071
G1 X178.711 Y470.161
G1 X178.123 Y470.226
G1 X177.53 Y470.265
G1 X176.933 Y470.278
G1 X176.245 Y470.261
G1 X175.565 Y470.209
G1 X174.896 Y470.124
G1 X174.237 Y470.006
G1 X173.589 Y469.856
G1 X172.954 Y469.675
G1 X172.332 Y469.464
G1 X171.723 Y469.224
G1 X171.13 Y468.955
G1 X170.553 Y468.659
G1 X169.992 Y468.336
G1 X169.448 Y467.987
G1 X168.923 Y467.613
G1 X168.416 Y467.215
G1 X167.93 Y466.794
G1 X167.465 Y466.35
G1 X167.021 Y465.884
G1 X166.599 Y465.398
G1 X166.201 Y464.892
G1 X165.827 Y464.366
G1 X165.479 Y463.823
G1 X165.156 Y463.262
G1 X164.859 Y462.684
G1 X164.591 Y462.091
G1 X164.351 Y461.483
G1 X164.14 Y460.861
G1 X163.959 Y460.225
G1 X163.809 Y459.578
G1 X163.691 Y458.919
G1 X163.606 Y458.249
G1 X163.554 Y457.57
G1 X163.536 Y456.881
G1 X163.547 Y456.334
G1 X163.58 Y455.79
G1 X163.635 Y455.249
G1 X163.711 Y454.712
G1 X163.809 Y454.179
G1 X163.928 Y453.651
G1 X164.069 Y453.128
G1 X164.231 Y452.61
G1 X164.278 Y452.406
G1 X164.282 Y452.204
G1 X164.248 Y452.007
G1 X164.177 Y451.822
G1 X164.073 Y451.654
G1 X163.937 Y451.508
G1 X163.772 Y451.39
G1 X163.582 Y451.304
G1 X163.418 Y451.263
G1 X163.253 Y451.25
G1 X163.093 Y451.262
G1 X162.939 Y451.299
G1 X162.793 Y451.358
G1 X162.657 Y451.439
G1 X162.535 Y451.541
G1 X162.428 Y451.661
G1 X162.341 Y451.799
G1 X162.275 Y451.953
G1 X162.088 Y452.55
G1 X161.925 Y453.154
G1 X161.787 Y453.764
G1 X161.674 Y454.379
G1 X161.586 Y454.999
G1 X161.523 Y455.623
G1 X161.485 Y456.251
G1 X161.473 Y456.881
G1 X161.493 Y457.676
G1 X161.553 Y458.46
G1 X161.651 Y459.233
G1 X161.787 Y459.993
G1 X161.96 Y460.741
G1 X162.169 Y461.474
G1 X162.412 Y462.192
G1 X162.689 Y462.894
G1 X163 Y463.578
G1 X163.341 Y464.245
G1 X163.714 Y464.892
G1 X164.117 Y465.52
G1 X164.548 Y466.126
G1 X165.007 Y466.71
G1 X165.494 Y467.271
G1 X166.006 Y467.809
G1 X166.543 Y468.321
G1 X167.105 Y468.807
G1 X167.689 Y469.267
G1 X168.295 Y469.698
G1 X168.922 Y470.101
G1 X169.57 Y470.473
G1 X170.236 Y470.815
G1 X170.921 Y471.125
G1 X171.623 Y471.402
G1 X172.341 Y471.646
G1 X173.074 Y471.854
G1 X173.821 Y472.027
G1 X174.582 Y472.164
G1 X175.355 Y472.262
G1 X176.139 Y472.322
G1 X176.933 Y472.342
G1 X177.611 Y472.327
G1 X178.283 Y472.284
G1 X178.95 Y472.211
G1 X179.611 Y472.111
G1 X180.265 Y471.982
G1 X180.91 Y471.825
G1 X181.547 Y471.641
G1 X182.175 Y471.43
G1 X182.793 Y471.192
G1 X183.4 Y470.928
G1 X183.995 Y470.637
G1 X184.578 Y470.321
G1 X185.148 Y469.979
G1 X185.705 Y469.611
G1 X186.246 Y469.219
G1 X186.773 Y468.802
G1 X187.076 Y469.232
G1 X187.208 Y469.386
G1 X187.362 Y469.508
G1 X187.535 Y469.596
G1 X187.719 Y469.651
G1 X187.91 Y469.671
G1 X188.103 Y469.654
G1 X188.292 Y469.601
G1 X188.473 Y469.509
G1 X188.632 Y469.385
G1 X188.761 Y469.236
G1 X188.858 Y469.068
G1 X188.921 Y468.886
G1 X188.95 Y468.696
G1 X188.943 Y468.503
G1 X188.898 Y468.311
G1 X188.815 Y468.127
G1 X188.524 Y467.61
G1 X188.229 Y467.07
G1 X187.63 Y465.928
G1 X187.029 Y464.717
G1 X186.436 Y463.452
G1 X185.862 Y462.15
G1 X185.318 Y460.826
G1 X184.815 Y459.497
G1 X184.362 Y458.178
G1 X183.97 Y456.885
G1 X183.801 Y456.254
G1 X183.651 Y455.635
G1 X183.522 Y455.031
G1 X183.414 Y454.443
G1 X183.33 Y453.874
G1 X183.271 Y453.325
G1 X183.238 Y452.799
G1 X183.232 Y452.297
G1 X183.254 Y451.822
G1 X183.306 Y451.376
G1 X183.39 Y450.96
G1 X183.506 Y450.576
G1 X183.657 Y450.227
G1 X183.842 Y449.914
G1 X183.97 Y449.747
G1 X184.114 Y449.593
G1 X184.272 Y449.453
G1 X184.445 Y449.327
G1 X184.634 Y449.214
G1 X184.837 Y449.115
G1 X185.055 Y449.03
G1 X185.288 Y448.958
G1 X185.536 Y448.9
G1 X185.798 Y448.856
G1 X186.075 Y448.825
G1 X186.367 Y448.809
G1 X186.673 Y448.806
G1 X186.994 Y448.816
G1 X187.679 Y448.879
G1 X187.995 Y449.32
G1 X188.291 Y449.77
G1 X188.568 Y450.23
G1 X188.825 Y450.699
G1 X189.063 Y451.176
G1 X189.281 Y451.662
G1 X189.478 Y452.155
G1 X189.655 Y452.656
G1 X189.812 Y453.164
G1 X189.949 Y453.678
G1 X190.065 Y454.199
G1 X190.16 Y454.726
G1 X190.234 Y455.257
G1 X190.287 Y455.794
G1 X190.319 Y456.336
G1 X190.33 Y456.882
G1 X190.296 Y457.844
G1 X190.194 Y458.796
G1 X190.025 Y459.735
G1 X189.79 Y460.657
G1 X189.49 Y461.56
G1 X189.126 Y462.44
G1 X188.699 Y463.293
G1 X188.209 Y464.118
G1 X188.114 Y464.304
G1 X188.06 Y464.5
G1 X188.045 Y464.699
G1 X188.069 Y464.895
G1 X188.129 Y465.084
G1 X188.225 Y465.259
G1 X188.356 Y465.414
G1 X188.519 Y465.544
G1 X188.705 Y465.639
G1 X188.901 Y465.693
G1 X189.1 Y465.708
G1 X189.296 Y465.684
G1 X189.485 Y465.624
G1 X189.66 Y465.528
G1 X189.815 Y465.398
G1 X189.945 Y465.234
G1 X190.51 Y464.282
G1 X191.004 Y463.296
G1 X191.424 Y462.281
G1 X191.77 Y461.239
G1 X192.041 Y460.174
G1 X192.237 Y459.091
G1 X192.354 Y457.992
G1 X192.394 Y456.882
G1 X192.38 Y456.223
G1 X192.34 Y455.569
G1 X192.273 Y454.922
G1 X192.179 Y454.281
G1 X192.059 Y453.646
G1 X191.913 Y453.02
G1 X191.74 Y452.401
G1 X191.542 Y451.79
G1 X191.318 Y451.189
G1 X191.069 Y450.597
G1 X190.794 Y450.016
G1 X190.495 Y449.445
G1 X190.17 Y448.885
G1 X189.821 Y448.336
G1 X189.447 Y447.8
G1 X189.049 Y447.277
G1 X188.916 Y447.138
G1 X188.762 Y447.028
G1 X188.591 Y446.947
G1 X188.405 Y446.899
G1 X187.858 Y446.822
G1 X187.33 Y446.771
G1 X186.824 Y446.745
G1 X186.338
G1 X185.872 Y446.77
G1 X185.428 Y446.821
G1 X185.004 Y446.898
G1 X184.602 Y447.001
G1 X184.22 Y447.129
G1 X183.859 Y447.282
G1 X183.52 Y447.462
G1 X183.202 Y447.666
G1 X182.906 Y447.896
G1 X182.631 Y448.152
G1 X182.377 Y448.433
G1 X182.145 Y448.739
G1 X181.864 Y449.202
G1 X181.635 Y449.703
G1 X181.456 Y450.239
G1 X181.322 Y450.806
G1 X181.233 Y451.403
G1 X181.186 Y452.027
G1 X181.178 Y452.674
G1 X181.206 Y453.342
G1 X181.27 Y454.028
G1 X181.365 Y454.73
G1 X181.489 Y455.444
G1 X181.641 Y456.168
G1 X181.818 Y456.899
G1 X182.016 Y457.634
G1 X182.47 Y459.106
G1 X173.178 Y445.907
G1 X173.009 Y445.719
G1 X172.804 Y445.582
G1 X172.576 Y445.497
G1 X172.334 Y445.468
G1 X172.12 Y445.491
G1 X171.91 Y445.56
G1 X171.751 Y445.649
G1 X171.613 Y445.762
G1 X171.499 Y445.896
G1 X171.408 Y446.045
G1 X171.345 Y446.208
G1 X171.309 Y446.381
G1 X171.304 Y446.559
G1 X171.331 Y446.739
G1 X175.182 Y462.915
G1 X165.961 Y449.202
G1 X166.45 Y448.546
G1 X166.973 Y447.926
G1 X167.529 Y447.341
G1 X168.116 Y446.794
G1 X168.732 Y446.285
G1 X169.375 Y445.815
G1 X170.045 Y445.386
G1 X170.738 Y444.997
G1 X171.453 Y444.65
G1 X172.189 Y444.347
G1 X172.943 Y444.087
G1 X173.714 Y443.873
G1 X174.5 Y443.704
G1 X175.3 Y443.583
G1 X176.112 Y443.509
G1 X176.933 Y443.484
G1 X177.966 Y443.523
G1 X178.986 Y443.64
G1 X179.988 Y443.833
G1 X180.97 Y444.102
G1 X181.928 Y444.445
G1 X182.858 Y444.861
G1 X183.757 Y445.35
G1 X184.623 Y445.91
G1 X184.805 Y446.012
G1 X184.998 Y446.074
G1 X185.196 Y446.097
G1 X185.393 Y446.081
G1 X185.584 Y446.029
G1 X185.763 Y445.94
G1 X185.923 Y445.816
G1 X186.06 Y445.658
G1 X186.162 Y445.476
G1 X186.224 Y445.282
G1 X186.247 Y445.084
G1 X186.232 Y444.887
G1 X186.179 Y444.696
G1 X186.091 Y444.518
G1 X185.967 Y444.357
G1 X185.809 Y444.221
G1 X185.314 Y443.887
G1 X184.81 Y443.574
G1 X184.295 Y443.282
G1 X183.771 Y443.01
G1 X183.238 Y442.759
G1 X182.697 Y442.53
G1 X182.148 Y442.321
G1 X181.592 Y442.134
G1 X181.029 Y441.968
G1 X180.459 Y441.824
G1 X179.883 Y441.701
G1 X179.302 Y441.601
G1 X178.716 Y441.522
G1 X178.126 Y441.466
G1 X177.531 Y441.432
G1 X176.933 Y441.421
G1 X176.034 Y441.446
G1 X175.146 Y441.523
G1 X174.269 Y441.649
G1 X173.406 Y441.825
G1 X172.559 Y442.048
G1 X171.728 Y442.318
G1 X170.916 Y442.634
G1 X170.125 Y442.995
G1 X169.356 Y443.4
G1 X168.611 Y443.848
G1 X167.891 Y444.338
G1 X167.199 Y444.869
G1 X166.536 Y445.441
G1 X165.904 Y446.051
G1 X165.305 Y446.7
G1 X164.739 Y447.386
G1 X164.577 Y447.145
G1 Z-3
G0 Z6
G0 X158.825 Y442.609
G0 Z-3
G1 Z-3.044 F500.
G1 X159.095 Y442.266
G1 X159.821 Y441.427
G1 X160.587 Y440.624
G1 X161.389 Y439.859
G1 X162.228 Y439.132
G1 X163.102 Y438.446
G1 X164.008 Y437.801
G1 X164.946 Y437.2
G1 X165.914 Y436.643
G1 X166.911 Y436.133
G1 X167.935 Y435.67
G1 X168.984 Y435.256
G1 X170.059 Y434.892
G1 X171.156 Y434.581
G1 X172.274 Y434.323
G1 X173.412 Y434.119
G1 X174.569 Y433.972
G1 X175.743 Y433.883
G1 X176.933 Y433.853
G1 X178.123 Y433.883
G1 X179.297 Y433.972
G1 X180.454 Y434.119
G1 X181.592 Y434.323
G1 X182.71 Y434.581
G1 X183.807 Y434.892
G1 X184.882 Y435.256
G1 X185.931 Y435.67
G1 X186.955 Y436.133
G1 X187.952 Y436.643
G1 X188.92 Y437.2
G1 X189.858 Y437.801
G1 X190.764 Y438.446
G1 X191.638 Y439.132
G1 X192.477 Y439.859
G1 X193.279 Y440.624
G1 X194.045 Y441.427
G1 X194.771 Y442.266
G1 X195.458 Y443.139
G1 X196.102 Y444.045
G1 X196.703 Y444.983
G1 X197.26 Y445.951
G1 X197.771 Y446.948
G1 X198.233 Y447.972
G1 X198.647 Y449.022
G1 X199.011 Y450.096
G1 X199.322 Y451.193
G1 X199.58 Y452.312
G1 X199.784 Y453.45
G1 X199.931 Y454.607
G1 X200.02 Y455.781
G1 X200.05 Y456.971
G1 X200.02 Y458.16
G1 X199.931 Y459.334
G1 X199.784 Y460.491
G1 X199.58 Y461.63
G1 X199.322 Y462.748
G1 X199.011 Y463.845
G1 X198.647 Y464.919
G1 X198.233 Y465.969
G1 X197.771 Y466.993
G1 X197.26 Y467.99
G1 X196.703 Y468.958
G1 X196.102 Y469.896
G1 X195.458 Y470.802
G1 X194.771 Y471.676
G1 X194.045 Y472.514
G1 X193.279 Y473.317
G1 X192.477 Y474.083
G1 X191.638 Y474.809
G1 X190.764 Y475.496
G1 X189.858 Y476.14
G1 X188.92 Y476.741
G1 X187.952 Y477.298
G1 X186.955 Y477.808
G1 X185.931 Y478.271
G1 X184.882 Y478.685
G1 X183.807 Y479.049
G1 X182.71 Y479.36
G1 X181.592 Y479.618
G1 X180.454 Y479.822
G1 X179.297 Y479.969
G1 X178.123 Y480.058
G1 X176.933 Y480.088
G1 X175.743 Y480.058
G1 X174.569 Y479.969
G1 X173.412 Y479.822
G1 X172.274 Y479.618
G1 X171.156 Y479.36
G1 X170.059 Y479.049
G1 X168.984 Y478.685
G1 X167.935 Y478.271
G1 X166.911 Y477.808
G1 X165.914 Y477.298
G1 X164.946 Y476.741
G1 X164.008 Y476.14
G1 X163.102 Y475.496
G1 X162.228 Y474.809
G1 X161.389 Y474.083
G1 X160.587 Y473.317
G1 X159.821 Y472.514
G1 X159.095 Y471.676
G1 X158.408 Y470.802
G1 X157.764 Y469.896
G1 X157.162 Y468.958
G1 X156.606 Y467.99
G1 X156.095 Y466.993
G1 X155.632 Y465.969
G1 X155.218 Y464.919
G1 X154.855 Y463.845
G1 X154.544 Y462.748
G1 X154.285 Y461.63
G1 X154.082 Y460.491
G1 X153.935 Y459.334
G1 X153.846 Y458.16
G1 X153.816 Y456.971
G1 X153.846 Y455.781
G1 X153.935 Y454.607
G1 X154.082 Y453.45
G1 X154.285 Y452.312
G1 X154.544 Y451.193
G1 X154.855 Y450.096
G1 X155.218 Y449.022
G1 X155.632 Y447.972
G1 X156.095 Y446.948
G1 X156.606 Y445.951
G1 X157.162 Y444.983
G1 X157.764 Y444.045
G1 X158.408 Y443.139
G1 X158.825 Y442.609
G1 Z-3
G0 Z6
G0 X207.698 Y456.964
G0 Z-3
G1 Z-3.044 F500.
G1 Y444.609
G1 X212.869 Y444.612
G1 Y460.426
G1 X218.824 Y444.612
G1 X218.851
G1 Y444.607
G1 X223.123
G1 X229.078 Y460.421
G1 Y444.607
G1 X234.25 Y444.609
G1 Y469.059
G1 X229.078 Y469.057
G1 X227.408
G1 X221.011 Y452.008
G1 X220.937
G1 X214.538 Y469.062
G1 X212.869
G1 X207.698 Y469.059
G1 Y456.964
G1 Z-3
G0 Z6
G0 X236.467 Y457.935
G0 Z-3
G1 Z-3.044 F500.
G1 X236.461 Y457.876
G1 X236.459 Y457.221
G1 X241.353 Y456.832
G1 X241.39 Y457.064
G1 X241.451 Y457.275
G1 X241.534 Y457.467
G1 X241.636 Y457.641
G1 X241.754 Y457.796
G1 X241.886 Y457.935
G1 X242.18 Y458.168
G1 X242.498 Y458.345
G1 X242.818 Y458.476
G1 X243.119 Y458.568
G1 X243.381 Y458.628
G1 X243.687 Y458.668
G1 X244.033 Y458.682
G1 X244.38 Y458.67
G1 X244.702 Y458.64
G1 X245 Y458.593
G1 X245.276 Y458.529
G1 X245.528 Y458.449
G1 X245.758 Y458.354
G1 X245.966 Y458.243
G1 X246.153 Y458.117
G1 X246.319 Y457.978
G1 X246.465 Y457.824
G1 X246.591 Y457.657
G1 X246.698 Y457.478
G1 X246.785 Y457.286
G1 X246.855 Y457.082
G1 X246.906 Y456.867
G1 X246.94 Y456.642
G1 X246.974 Y456.294
G1 X246.994 Y455.919
G1 X247.005 Y455.517
G1 X247.008 Y455.087
G1 X246.321 Y455.15
G1 X245.657 Y455.199
G1 X245.014 Y455.232
G1 X244.393 Y455.25
G1 X243.794 Y455.253
G1 X243.216 Y455.241
G1 X242.661 Y455.214
G1 X242.127 Y455.173
G1 X241.615 Y455.116
G1 X241.124 Y455.044
G1 X240.656 Y454.957
G1 X240.209 Y454.855
G1 X239.784 Y454.739
G1 X239.381 Y454.607
G1 X239 Y454.46
G1 X238.64 Y454.298
G1 X238.302 Y454.121
G1 X237.987 Y453.93
G1 X237.692 Y453.723
G1 X237.42 Y453.501
G1 X237.169 Y453.264
G1 X236.941 Y453.013
G1 X236.734 Y452.746
G1 X236.548 Y452.464
G1 X236.385 Y452.167
G1 X236.243 Y451.855
G1 X236.123 Y451.529
G1 X236.025 Y451.187
G1 X235.949 Y450.83
G1 X235.895 Y450.458
G1 X235.862 Y450.071
G1 X235.833 Y449.014
G1 X235.87 Y448.401
G1 X235.961 Y447.83
G1 X236.108 Y447.301
G1 X236.308 Y446.815
G1 X236.564 Y446.371
G1 X236.874 Y445.969
G1 X237.239 Y445.609
G1 X237.659 Y445.292
G1 X238.133 Y445.017
G1 X238.662 Y444.784
G1 X239.246 Y444.594
G1 X239.885 Y444.446
G1 X240.578 Y444.34
G1 X241.326 Y444.277
G1 X242.128 Y444.256
G1 X242.543 Y444.263
G1 X242.945 Y444.29
G1 X243.336 Y444.336
G1 X243.714 Y444.401
G1 X244.081 Y444.487
G1 X244.435 Y444.591
G1 X244.778 Y444.715
G1 X245.109 Y444.859
G1 X245.428 Y445.022
G1 X245.734 Y445.204
G1 X246.029 Y445.406
G1 X246.312 Y445.627
G1 X246.583 Y445.868
G1 X246.842 Y446.128
G1 X247.089 Y446.408
G1 X247.325 Y446.707
G1 X247.414 Y446.373
G1 X247.508 Y446.06
G1 X247.609 Y445.767
G1 X247.714 Y445.494
G1 X247.826 Y445.242
G1 X247.943 Y445.011
G1 X248.065 Y444.8
G1 X248.193 Y444.609
G1 X253.356
G1 X253.233 Y444.776
G1 X253.117 Y444.966
G1 X253.007 Y445.177
G1 X252.905 Y445.411
G1 X252.811 Y445.666
G1 X252.723 Y445.944
G1 X252.642 Y446.243
G1 X252.569 Y446.565
G1 X252.502 Y446.909
G1 X252.443 Y447.275
G1 X252.391 Y447.663
G1 X252.346 Y448.074
G1 X252.308 Y448.506
G1 X252.277 Y448.96
G1 X252.253 Y449.437
G1 X252.237 Y449.935
G1 X252.235 Y457.145
G1 X252.25 Y457.483
G1 X252.247 Y457.81
G1 X252.227 Y458.126
G1 X252.189 Y458.431
G1 X252.133 Y458.726
G1 X252.06 Y459.01
G1 X251.969 Y459.284
G1 X251.86 Y459.546
G1 X251.734 Y459.798
G1 X251.59 Y460.04
G1 X251.428 Y460.27
G1 X251.249 Y460.49
G1 X251.052 Y460.699
G1 X250.837 Y460.897
G1 X250.605 Y461.085
G1 X250.355 Y461.262
G1 X250.087 Y461.428
G1 X249.802 Y461.583
G1 X249.498 Y461.728
G1 X249.178 Y461.862
G1 X248.839 Y461.986
G1 X248.483 Y462.098
G1 X248.11 Y462.2
G1 X247.718 Y462.291
G1 X247.309 Y462.371
G1 X246.883 Y462.441
G1 X246.438 Y462.5
G1 X245.976 Y462.548
G1 X245.497 Y462.586
G1 X244.999 Y462.613
G1 X244.484 Y462.629
G1 X243.951 Y462.634
G1 X243.017 Y462.613
G1 X242.145 Y462.55
G1 X241.335 Y462.444
G1 X240.587 Y462.296
G1 X239.902 Y462.106
G1 X239.278 Y461.873
G1 X238.717 Y461.598
G1 X238.217 Y461.281
G1 X237.78 Y460.921
G1 X237.405 Y460.52
G1 X237.092 Y460.075
G1 X236.841 Y459.589
G1 X236.652 Y459.06
G1 X236.526 Y458.49
G1 X236.467 Y457.935
G1 Z-3
G0 Z6
G0 X246.197 Y448.753
G0 Z-3
G1 Z-3.044 F500.
G1 X246.146 Y448.725
G1 X245.74 Y448.556
G1 X245.295 Y448.417
G1 X244.823 Y448.311
G1 X244.337 Y448.243
G1 X243.85 Y448.216
G1 X243.373 Y448.233
G1 X242.92 Y448.298
G1 X242.502 Y448.415
G1 X242.133 Y448.587
G1 X241.97 Y448.694
G1 X241.824 Y448.817
G1 X241.696 Y448.955
G1 X241.588 Y449.11
G1 X241.501 Y449.28
G1 X241.437 Y449.468
G1 X241.397 Y449.673
G1 X241.384 Y449.896
G1 X241.396 Y450.194
G1 X241.434 Y450.472
G1 X241.497 Y450.728
G1 X241.585 Y450.964
G1 X241.698 Y451.178
G1 X241.836 Y451.371
G1 X241.999 Y451.543
G1 X242.187 Y451.694
G1 X242.401 Y451.824
G1 X242.639 Y451.933
G1 X242.903 Y452.02
G1 X243.191 Y452.087
G1 X243.505 Y452.132
G1 X243.844 Y452.157
G1 X244.208 Y452.16
G1 X244.597 Y452.142
G1 X247.008
G1 Y449.377
G1 X246.911 Y449.256
G1 X246.793 Y449.139
G1 X246.501 Y448.92
G1 X246.197 Y448.753
G1 Z-3
G0 Z6
G0 X253.704 Y449.899
G0 Z-3
G1 Z-3.044 F500.
G1 X253.712 Y449.547
G1 X253.737 Y449.206
G1 X253.779 Y448.876
G1 X253.838 Y448.557
G1 X253.914 Y448.25
G1 X254.007 Y447.953
G1 X254.116 Y447.668
G1 X254.243 Y447.394
G1 X254.386 Y447.132
G1 X254.547 Y446.88
G1 X254.724 Y446.64
G1 X254.919 Y446.41
G1 X255.13 Y446.192
G1 X255.358 Y445.985
G1 X255.603 Y445.79
G1 X255.865 Y445.605
G1 X256.144 Y445.432
G1 X256.44 Y445.27
G1 X256.753 Y445.119
G1 X257.083 Y444.979
G1 X257.43 Y444.85
G1 X257.793 Y444.733
G1 X258.174 Y444.627
G1 X258.572 Y444.532
G1 X258.986 Y444.448
G1 X259.418 Y444.375
G1 X259.866 Y444.314
G1 X260.331 Y444.263
G1 X260.814 Y444.224
G1 X261.313 Y444.196
G1 X261.829 Y444.179
G1 X262.362 Y444.174
G1 X262.904 Y444.179
G1 X263.429 Y444.196
G1 X263.936 Y444.223
G1 X264.427 Y444.262
G1 X264.901 Y444.312
G1 X265.357 Y444.372
G1 X265.796 Y444.444
G1 X266.219 Y444.527
G1 X266.624 Y444.621
G1 X267.012 Y444.726
G1 X267.383 Y444.841
G1 X267.736 Y444.968
G1 X268.073 Y445.106
G1 X268.393 Y445.255
G1 X268.695 Y445.415
G1 X268.981 Y445.586
G1 X269.249 Y445.768
G1 X269.5 Y445.962
G1 X269.734 Y446.166
G1 X269.951 Y446.381
G1 X270.151 Y446.607
G1 X270.334 Y446.845
G1 X270.499 Y447.093
G1 X270.648 Y447.352
G1 X270.78 Y447.623
G1 X270.894 Y447.904
G1 X270.991 Y448.196
G1 X271.071 Y448.5
G1 X271.134 Y448.814
G1 X271.18 Y449.14
G1 X271.209 Y449.477
G1 X271.221 Y449.824
G1 X271.186 Y450.384
G1 X271.084 Y450.907
G1 X270.921 Y451.395
G1 X270.703 Y451.849
G1 X270.436 Y452.27
G1 X270.125 Y452.66
G1 X269.776 Y453.019
G1 X269.394 Y453.349
G1 X268.986 Y453.651
G1 X268.556 Y453.926
G1 X268.111 Y454.175
G1 X267.657 Y454.4
G1 X267.198 Y454.6
G1 X266.741 Y454.779
G1 X266.292 Y454.936
G1 X265.856 Y455.073
G1 X265.87 Y455.086
G1 X265.768 Y455.099
G1 X265.298 Y455.228
G1 X264.864 Y455.335
G1 X264.472 Y455.421
G1 X264.132 Y455.487
G1 X264.125 Y455.488
G1 X263.928 Y455.523
G1 X263.75 Y455.552
G1 X263.593 Y455.575
G1 X263.455 Y455.593
G1 X263.454 Y455.591
G1 X263.017 Y455.673
G1 X262.611 Y455.761
G1 X262.236 Y455.855
G1 X261.891 Y455.956
G1 X261.577 Y456.062
G1 X261.293 Y456.175
G1 X261.039 Y456.293
G1 X260.816 Y456.418
G1 X260.623 Y456.549
G1 X260.461 Y456.686
G1 X260.329 Y456.829
G1 X260.228 Y456.978
G1 X260.157 Y457.133
G1 X260.117 Y457.294
G1 X260.107 Y457.462
G1 X260.128 Y457.635
G1 X260.105 Y457.828
G1 X260.107 Y458.008
G1 X260.133 Y458.176
G1 X260.183 Y458.332
G1 X260.258 Y458.474
G1 X260.357 Y458.605
G1 X260.481 Y458.723
G1 X260.629 Y458.828
G1 X260.802 Y458.922
G1 X260.999 Y459.002
G1 X261.22 Y459.07
G1 X261.466 Y459.126
G1 X261.736 Y459.169
G1 X262.031 Y459.2
G1 X262.35 Y459.218
G1 X262.693 Y459.224
G1 X263.049 Y459.214
G1 X263.384 Y459.186
G1 X263.697 Y459.14
G1 X263.988 Y459.075
G1 X264.258 Y458.992
G1 X264.507 Y458.891
G1 X264.733 Y458.771
G1 X264.939 Y458.633
G1 X265.123 Y458.477
G1 X265.285 Y458.302
G1 X265.426 Y458.109
G1 X265.545 Y457.898
G1 X265.643 Y457.668
G1 X265.719 Y457.42
G1 X265.773 Y457.153
G1 X265.807 Y456.868
G1 X271.197 Y457.263
G1 X271.164 Y457.914
G1 X271.065 Y458.522
G1 X270.9 Y459.089
G1 X270.67 Y459.613
G1 X270.374 Y460.096
G1 X270.012 Y460.536
G1 X269.585 Y460.935
G1 X269.092 Y461.292
G1 X268.533 Y461.606
G1 X267.908 Y461.879
G1 X267.218 Y462.11
G1 X266.462 Y462.299
G1 X265.64 Y462.446
G1 X264.753 Y462.55
G1 X263.8 Y462.613
G1 X262.781 Y462.634
G1 X261.745 Y462.614
G1 X260.776 Y462.552
G1 X259.873 Y462.448
G1 X259.037 Y462.303
G1 X258.267 Y462.117
G1 X257.564 Y461.89
G1 X256.927 Y461.621
G1 X256.357 Y461.31
G1 X255.853 Y460.959
G1 X255.416 Y460.566
G1 X255.045 Y460.131
G1 X254.741 Y459.655
G1 X254.503 Y459.138
G1 X254.332 Y458.579
G1 X254.227 Y457.979
G1 X254.189 Y457.338
G1 X254.204 Y456.969
G1 X254.25 Y456.615
G1 X254.323 Y456.278
G1 X254.424 Y455.955
G1 X254.549 Y455.648
G1 X254.698 Y455.355
G1 X254.868 Y455.076
G1 X255.059 Y454.812
G1 X255.268 Y454.561
G1 X255.495 Y454.323
G1 X255.991 Y453.886
G1 X256.536 Y453.498
G1 X257.116 Y453.156
G1 X257.719 Y452.858
G1 X258.33 Y452.6
G1 X258.938 Y452.381
G1 X259.53 Y452.197
G1 X260.091 Y452.045
G1 X260.61 Y451.924
G1 X261.074 Y451.829
G1 X261.469 Y451.759
G1 X261.479 Y451.758
G1 X261.962 Y451.665
G1 X262.412 Y451.567
G1 X262.828 Y451.464
G1 X263.21 Y451.355
G1 X263.56 Y451.242
G1 X263.875 Y451.124
G1 X264.158 Y451
G1 X264.406 Y450.871
G1 X264.622 Y450.737
G1 X264.804 Y450.598
G1 X264.952 Y450.454
G1 X265.067 Y450.305
G1 X265.149 Y450.15
G1 X265.197 Y449.991
G1 X265.211 Y449.826
G1 X265.192 Y449.656
G1 X265.205 Y449.448
G1 X265.193 Y449.254
G1 X265.157 Y449.073
G1 X265.097 Y448.905
G1 X265.012 Y448.751
G1 X264.902 Y448.61
G1 X264.768 Y448.483
G1 X264.61 Y448.369
G1 X264.427 Y448.268
G1 X264.22 Y448.181
G1 X263.988 Y448.107
G1 X263.732 Y448.047
G1 X263.451 Y448
G1 X263.146 Y447.966
G1 X262.816 Y447.946
G1 X262.462 Y447.939
G1 X262.106 Y447.948
G1 X261.771 Y447.974
G1 X261.457 Y448.018
G1 X261.163 Y448.079
G1 X260.89 Y448.157
G1 X260.638 Y448.253
G1 X260.406 Y448.366
G1 X260.195 Y448.497
G1 X260.005 Y448.645
G1 X259.836 Y448.81
G1 X259.687 Y448.993
G1 X259.559 Y449.193
G1 X259.452 Y449.411
G1 X259.365 Y449.646
G1 X259.299 Y449.899
G1 X259.254 Y450.168
G1 X253.704 Y449.899
G1 Z-3
G0 Z6
G0 X272.914 Y449.89
G0 Z-3
G1 Z-3.044 F500.
G1 Y469.063
G1 X278.388
G1 Y444.612
G1 X272.914
G1 Y449.89
G1 Z-3
G0 Z6
G0 X282.487 Y460.066
G0 Z-3
G1 Z-3.044 F500.
G1 X282.343 Y459.913
G1 X282.073 Y459.592
G1 X281.821 Y459.257
G1 X281.587 Y458.909
G1 X281.372 Y458.548
G1 X281.174 Y458.175
G1 X280.994 Y457.79
G1 X280.832 Y457.395
G1 X280.687 Y456.989
G1 X280.45 Y456.148
G1 X280.281 Y455.274
G1 X280.181 Y454.371
G1 X280.148 Y453.445
G1 X280.181 Y452.518
G1 X280.281 Y451.615
G1 X280.45 Y450.741
G1 X280.687 Y449.901
G1 X280.832 Y449.495
G1 X280.994 Y449.099
G1 X281.174 Y448.715
G1 X281.371 Y448.342
G1 X281.587 Y447.981
G1 X281.821 Y447.632
G1 X282.072 Y447.298
G1 X282.342 Y446.977
G1 X282.63 Y446.671
G1 X282.937 Y446.38
G1 X283.262 Y446.105
G1 X283.606 Y445.846
G1 X283.969 Y445.605
G1 X284.35 Y445.381
G1 X284.75 Y445.176
G1 X285.17 Y444.989
G1 X285.609 Y444.823
G1 X286.067 Y444.676
G1 X286.544 Y444.55
G1 X287.041 Y444.446
G1 X287.558 Y444.364
G1 X288.094 Y444.305
G1 X288.651 Y444.268
G1 X289.227 Y444.256
G1 X289.803 Y444.268
G1 X290.36 Y444.304
G1 X290.897 Y444.363
G1 X291.414 Y444.444
G1 X291.912 Y444.548
G1 X292.39 Y444.672
G1 X292.849 Y444.817
G1 X293.288 Y444.983
G1 X293.709 Y445.168
G1 X294.111 Y445.372
G1 X294.493 Y445.594
G1 X294.857 Y445.834
G1 X295.202 Y446.091
G1 X295.529 Y446.365
G1 X295.837 Y446.654
G1 X296.126 Y446.959
G1 X296.398 Y447.279
G1 X296.651 Y447.613
G1 X296.886 Y447.961
G1 X297.102 Y448.321
G1 X297.301 Y448.694
G1 X297.482 Y449.079
G1 X297.646 Y449.475
G1 X297.792 Y449.881
G1 X298.031 Y450.724
G1 X298.201 Y451.602
G1 X298.302 Y452.51
G1 X298.335 Y453.445
G1 X298.302 Y454.379
G1 X298.201 Y455.288
G1 X298.031 Y456.166
G1 X297.792 Y457.009
G1 X297.646 Y457.415
G1 X297.482 Y457.811
G1 X297.301 Y458.196
G1 X297.102 Y458.569
G1 X296.885 Y458.929
G1 X296.651 Y459.277
G1 X296.397 Y459.611
G1 X296.126 Y459.931
G1 X295.837 Y460.236
G1 X295.529 Y460.526
G1 X295.202 Y460.799
G1 X294.857 Y461.056
G1 X294.493 Y461.296
G1 X294.111 Y461.519
G1 X293.709 Y461.722
G1 X293.288 Y461.907
G1 X292.849 Y462.073
G1 X292.39 Y462.218
G1 X291.911 Y462.343
G1 X291.414 Y462.446
G1 X290.897 Y462.527
G1 X290.36 Y462.586
G1 X289.803 Y462.622
G1 X289.227 Y462.634
G1 X288.651 Y462.622
G1 X288.095 Y462.586
G1 X287.558 Y462.526
G1 X287.042 Y462.444
G1 X286.545 Y462.34
G1 X286.067 Y462.214
G1 X285.609 Y462.067
G1 X285.17 Y461.901
G1 X284.751 Y461.714
G1 X284.35 Y461.509
G1 X283.969 Y461.285
G1 X283.606 Y461.044
G1 X283.263 Y460.785
G1 X282.937 Y460.51
G1 X282.631 Y460.219
G1 X282.487 Y460.066
G1 Z-3
G0 Z6
G0 X300.326 Y453.93
G0 Z-3
G1 Z-3.044 F500.
G1 X302.571 Y444.627
G1 X309.355
G1 X311.499 Y454.959
G1 X311.502
G1 X313.646 Y444.627
G1 X320.431
G1 X324.686 Y462.262
G1 X319.03
G1 X316.329 Y450.915
G1 X313.747 Y462.262
G1 X309.326
G1 X306.625 Y450.915
G1 X304.043 Y462.262
G1 X298.315
G1 X300.326 Y453.93
G1 Z-3
G0 Z6
G0 X292.092 Y450.892
G0 Z-3
G1 Z-3.044 F500.
G1 X292.003 Y450.603
G1 X291.906 Y450.335
G1 X291.801 Y450.088
G1 X291.689 Y449.861
G1 X291.572 Y449.653
G1 X291.322 Y449.293
G1 X291.059 Y448.999
G1 X290.788 Y448.765
G1 X290.516 Y448.585
G1 X290.251 Y448.452
G1 X289.997 Y448.359
G1 X289.763 Y448.298
G1 X289.554 Y448.265
G1 X289.377 Y448.25
G1 X289.239 Y448.249
G1 X289.101 Y448.25
G1 X288.924 Y448.264
G1 X288.715 Y448.298
G1 X288.481 Y448.358
G1 X288.228 Y448.452
G1 X287.962 Y448.585
G1 X287.69 Y448.765
G1 X287.42 Y448.999
G1 X287.156 Y449.292
G1 X286.907 Y449.653
G1 X286.789 Y449.861
G1 X286.678 Y450.088
G1 X286.573 Y450.335
G1 X286.475 Y450.603
G1 X286.387 Y450.892
G1 X286.307 Y451.205
G1 X286.237 Y451.541
G1 X286.178 Y451.901
G1 X286.131 Y452.287
G1 X286.096 Y452.698
G1 X286.075 Y453.136
G1 X286.068 Y453.603
G1 X286.075 Y454.069
G1 X286.096 Y454.507
G1 X286.131 Y454.919
G1 X286.178 Y455.304
G1 X286.237 Y455.665
G1 X286.307 Y456.001
G1 X286.387 Y456.313
G1 X286.475 Y456.603
G1 X286.573 Y456.871
G1 X286.678 Y457.118
G1 X286.789 Y457.345
G1 X286.907 Y457.552
G1 X287.156 Y457.913
G1 X287.42 Y458.207
G1 X287.69 Y458.44
G1 X287.962 Y458.621
G1 X288.228 Y458.754
G1 X288.481 Y458.847
G1 X288.715 Y458.908
G1 X288.924 Y458.941
G1 X289.101 Y458.955
G1 X289.239 Y458.957
G1 X289.377 Y458.955
G1 X289.554 Y458.941
G1 X289.763 Y458.908
G1 X289.997 Y458.847
G1 X290.251 Y458.754
G1 X290.516 Y458.621
G1 X290.788 Y458.44
G1 X291.059 Y458.207
G1 X291.322 Y457.913
G1 X291.572 Y457.552
G1 X291.689 Y457.345
G1 X291.801 Y457.118
G1 X291.906 Y456.871
G1 X292.003 Y456.603
G1 X292.092 Y456.313
G1 X292.172 Y456.001
G1 X292.242 Y455.665
G1 X292.3 Y455.304
G1 X292.348 Y454.919
G1 X292.382 Y454.507
G1 X292.404 Y454.069
G1 X292.411 Y453.603
G1 X292.404 Y453.136
G1 X292.382 Y452.698
G1 X292.348 Y452.287
G1 X292.3 Y451.901
G1 X292.242 Y451.541
G1 X292.172 Y451.205
G1 X292.092 Y450.892
G1 Z-3
G0 Z10

(GUSSET ENGRAVE)
G0 X940.518 Y227.591
G0 Z10
G0 Z-3
G1 Z-3.044 F500.
G1 X940.704 Y227.686
G1 X940.9 Y227.74
G1 X941.099 Y227.755
G1 X941.295 Y227.731
G1 X941.484 Y227.671
G1 X941.659 Y227.575
G1 X941.814 Y227.444
G1 X941.944 Y227.281
G1 X942.039 Y227.095
G1 X942.093 Y226.899
G1 X942.108 Y226.7
G1 X942.084 Y226.504
G1 X942.024 Y226.315
G1 X941.928 Y226.14
G1 X941.798 Y225.985
G1 X941.634 Y225.855
G1 X940.682 Y225.29
G1 X939.696 Y224.796
G1 X938.681 Y224.376
G1 X937.639 Y224.03
G1 X936.574 Y223.759
G1 X935.491 Y223.563
G1 X934.392 Y223.446
G1 X933.282 Y223.406
G1 X932.623 Y223.42
G1 X931.969 Y223.46
G1 X931.322 Y223.527
G1 X930.681 Y223.621
G1 X930.046 Y223.741
G1 X929.42 Y223.887
G1 X928.801 Y224.06
G1 X928.19 Y224.258
G1 X927.589 Y224.482
G1 X926.997 Y224.731
G1 X926.416 Y225.006
G1 X925.845 Y225.305
G1 X925.285 Y225.63
G1 X924.736 Y225.979
G1 X924.2 Y226.353
G1 X923.677 Y226.751
G1 X923.538 Y226.884
G1 X923.428 Y227.038
G1 X923.347 Y227.209
G1 X923.299 Y227.395
G1 X923.222 Y227.942
G1 X923.171 Y228.47
G1 X923.145 Y228.976
G1 Y229.462
G1 X923.17 Y229.928
G1 X923.221 Y230.372
G1 X923.298 Y230.796
G1 X923.401 Y231.198
G1 X923.529 Y231.58
G1 X923.682 Y231.941
G1 X923.862 Y232.28
G1 X924.066 Y232.598
G1 X924.296 Y232.894
G1 X924.552 Y233.169
G1 X924.833 Y233.423
G1 X925.139 Y233.655
G1 X925.602 Y233.936
G1 X926.103 Y234.165
G1 X926.639 Y234.344
G1 X927.206 Y234.478
G1 X927.803 Y234.567
G1 X928.427 Y234.614
G1 X929.074 Y234.622
G1 X929.742 Y234.594
G1 X930.428 Y234.53
G1 X931.13 Y234.435
G1 X931.844 Y234.311
G1 X932.568 Y234.159
G1 X933.299 Y233.982
G1 X934.034 Y233.784
G1 X935.506 Y233.33
G1 X922.307 Y242.622
G1 X922.119 Y242.791
G1 X921.982 Y242.996
G1 X921.897 Y243.224
G1 X921.868 Y243.466
G1 X921.891 Y243.68
G1 X921.96 Y243.89
G1 X922.049 Y244.049
G1 X922.162 Y244.187
G1 X922.296 Y244.301
G1 X922.445 Y244.392
G1 X922.608 Y244.455
G1 X922.781 Y244.491
G1 X922.959 Y244.496
G1 X923.139 Y244.469
G1 X939.315 Y240.618
G1 X925.602 Y249.839
G1 X924.946 Y249.35
G1 X924.326 Y248.827
G1 X923.741 Y248.271
G1 X923.194 Y247.684
G1 X922.685 Y247.068
G1 X922.215 Y246.425
G1 X921.786 Y245.755
G1 X921.397 Y245.062
G1 X921.05 Y244.347
G1 X920.747 Y243.611
G1 X920.487 Y242.857
G1 X920.273 Y242.086
G1 X920.104 Y241.3
G1 X919.983 Y240.5
G1 X919.909 Y239.688
G1 X919.884 Y238.867
G1 X919.923 Y237.834
G1 X920.04 Y236.814
G1 X920.233 Y235.812
G1 X920.502 Y234.83
G1 X920.845 Y233.872
G1 X921.261 Y232.942
G1 X921.75 Y232.043
G1 X922.31 Y231.177
G1 X922.412 Y230.995
G1 X922.474 Y230.802
G1 X922.497 Y230.604
G1 X922.481 Y230.407
G1 X922.429 Y230.216
G1 X922.34 Y230.037
G1 X922.216 Y229.877
G1 X922.058 Y229.74
G1 X921.876 Y229.638
G1 X921.682 Y229.576
G1 X921.484 Y229.553
G1 X921.287 Y229.568
G1 X921.096 Y229.621
G1 X920.918 Y229.709
G1 X920.757 Y229.833
G1 X920.621 Y229.991
G1 X920.287 Y230.486
G1 X919.974 Y230.99
G1 X919.682 Y231.505
G1 X919.41 Y232.029
G1 X919.159 Y232.562
G1 X918.93 Y233.103
G1 X918.721 Y233.652
G1 X918.534 Y234.208
G1 X918.368 Y234.771
G1 X918.224 Y235.341
G1 X918.101 Y235.917
G1 X918.001 Y236.498
G1 X917.922 Y237.084
G1 X917.866 Y237.674
G1 X917.832 Y238.269
G1 X917.821 Y238.867
G1 X917.846 Y239.766
G1 X917.923 Y240.654
G1 X918.049 Y241.531
G1 X918.225 Y242.394
G1 X918.448 Y243.241
G1 X918.718 Y244.072
G1 X919.034 Y244.884
G1 X919.395 Y245.675
G1 X919.8 Y246.444
G1 X920.248 Y247.189
G1 X920.738 Y247.909
G1 X921.269 Y248.601
G1 X921.841 Y249.264
G1 X922.451 Y249.896
G1 X923.1 Y250.495
G1 X923.786 Y251.061
G1 X923.545 Y251.223
G1 X923.384 Y251.356
G1 X923.257 Y251.514
G1 X923.164 Y251.691
G1 X923.108 Y251.881
G1 X923.089 Y252.078
G1 X923.108 Y252.276
G1 X923.166 Y252.47
G1 X923.265 Y252.655
G1 X923.398 Y252.815
G1 X923.556 Y252.943
G1 X923.733 Y253.035
G1 X923.922 Y253.091
G1 X924.119 Y253.111
G1 X924.318 Y253.092
G1 X924.512 Y253.034
G1 X924.696 Y252.935
G1 X945.195 Y239.15
G1 X945.338 Y239.034
G1 X945.456 Y238.898
G1 X945.547 Y238.746
G1 X945.61 Y238.582
G1 X945.645 Y238.409
G1 X945.65 Y238.232
G1 X945.623 Y238.054
G1 X945.565 Y237.879
G1 X945.476 Y237.718
G1 X945.364 Y237.578
G1 X945.23 Y237.461
G1 X945.08 Y237.37
G1 X944.916 Y237.305
G1 X944.742 Y237.269
G1 X944.563 Y237.263
G1 X944.381 Y237.29
G1 X927.886 Y241.217
G1 X943.509 Y230.219
G1 X943.882 Y230.679
G1 X944.233 Y231.153
G1 X944.562 Y231.641
G1 X944.868 Y232.14
G1 X945.152 Y232.652
G1 X945.412 Y233.175
G1 X945.649 Y233.708
G1 X945.862 Y234.251
G1 X946.051 Y234.803
G1 X946.216 Y235.364
G1 X946.356 Y235.932
G1 X946.471 Y236.508
G1 X946.561 Y237.089
G1 X946.626 Y237.677
G1 X946.665 Y238.27
G1 X946.678 Y238.867
G1 X946.661 Y239.555
G1 X946.609 Y240.235
G1 X946.524 Y240.904
G1 X946.406 Y241.563
G1 X946.256 Y242.211
G1 X946.075 Y242.846
G1 X945.864 Y243.468
G1 X945.624 Y244.077
G1 X945.355 Y244.67
G1 X945.059 Y245.247
G1 X944.736 Y245.808
G1 X944.387 Y246.352
G1 X944.013 Y246.877
G1 X943.615 Y247.384
G1 X943.194 Y247.87
G1 X942.75 Y248.335
G1 X942.284 Y248.779
G1 X941.798 Y249.201
G1 X941.292 Y249.599
G1 X940.766 Y249.973
G1 X940.223 Y250.321
G1 X939.662 Y250.644
G1 X939.084 Y250.941
G1 X938.491 Y251.209
G1 X937.883 Y251.449
G1 X937.261 Y251.66
G1 X936.625 Y251.841
G1 X935.978 Y251.991
G1 X935.319 Y252.109
G1 X934.649 Y252.194
G1 X933.97 Y252.246
G1 X933.281 Y252.264
G1 X932.734 Y252.253
G1 X932.19 Y252.22
G1 X931.649 Y252.165
G1 X931.112 Y252.089
G1 X930.579 Y251.991
G1 X930.051 Y251.872
G1 X929.528 Y251.731
G1 X929.01 Y251.569
G1 X928.806 Y251.522
G1 X928.604 Y251.518
G1 X928.407 Y251.552
G1 X928.222 Y251.623
G1 X928.054 Y251.727
G1 X927.908 Y251.863
G1 X927.79 Y252.028
G1 X927.704 Y252.218
G1 X927.663 Y252.382
G1 X927.65 Y252.547
G1 X927.662 Y252.707
G1 X927.699 Y252.861
G1 X927.758 Y253.007
G1 X927.839 Y253.143
G1 X927.941 Y253.265
G1 X928.061 Y253.372
G1 X928.199 Y253.459
G1 X928.353 Y253.525
G1 X928.95 Y253.712
G1 X929.554 Y253.875
G1 X930.164 Y254.013
G1 X930.779 Y254.126
G1 X931.399 Y254.214
G1 X932.023 Y254.277
G1 X932.651 Y254.315
G1 X933.281 Y254.327
G1 X934.076 Y254.307
G1 X934.86 Y254.247
G1 X935.633 Y254.149
G1 X936.393 Y254.013
G1 X937.141 Y253.84
G1 X937.874 Y253.631
G1 X938.592 Y253.388
G1 X939.294 Y253.111
G1 X939.978 Y252.8
G1 X940.645 Y252.459
G1 X941.292 Y252.086
G1 X941.92 Y251.683
G1 X942.526 Y251.252
G1 X943.11 Y250.793
G1 X943.671 Y250.306
G1 X944.209 Y249.794
G1 X944.721 Y249.257
G1 X945.207 Y248.695
G1 X945.667 Y248.111
G1 X946.098 Y247.505
G1 X946.501 Y246.878
G1 X946.873 Y246.23
G1 X947.215 Y245.564
G1 X947.525 Y244.879
G1 X947.802 Y244.177
G1 X948.046 Y243.459
G1 X948.254 Y242.726
G1 X948.427 Y241.979
G1 X948.564 Y241.218
G1 X948.662 Y240.445
G1 X948.722 Y239.661
G1 X948.742 Y238.867
G1 X948.727 Y238.189
G1 X948.684 Y237.517
G1 X948.611 Y236.85
G1 X948.511 Y236.189
G1 X948.382 Y235.535
G1 X948.225 Y234.89
G1 X948.041 Y234.253
G1 X947.83 Y233.625
G1 X947.592 Y233.007
G1 X947.328 Y232.4
G1 X947.037 Y231.805
G1 X946.721 Y231.222
G1 X946.379 Y230.652
G1 X946.011 Y230.095
G1 X945.619 Y229.554
G1 X945.202 Y229.027
G1 X945.632 Y228.724
G1 X945.786 Y228.592
G1 X945.908 Y228.438
G1 X945.996 Y228.265
G1 X946.051 Y228.081
G1 X946.071 Y227.89
G1 X946.054 Y227.697
G1 X946.001 Y227.508
G1 X945.909 Y227.327
G1 X945.785 Y227.168
G1 X945.636 Y227.039
G1 X945.468 Y226.942
G1 X945.286 Y226.879
G1 X945.096 Y226.85
G1 X944.903 Y226.857
G1 X944.711 Y226.902
G1 X944.527 Y226.985
G1 X944.01 Y227.276
G1 X943.47 Y227.571
G1 X942.328 Y228.17
G1 X941.117 Y228.771
G1 X939.852 Y229.364
G1 X938.55 Y229.938
G1 X937.226 Y230.482
G1 X935.897 Y230.985
G1 X934.578 Y231.438
G1 X933.285 Y231.83
G1 X932.654 Y231.999
G1 X932.035 Y232.149
G1 X931.431 Y232.278
G1 X930.843 Y232.386
G1 X930.274 Y232.47
G1 X929.725 Y232.529
G1 X929.199 Y232.562
G1 X928.697 Y232.568
G1 X928.222 Y232.546
G1 X927.776 Y232.494
G1 X927.36 Y232.41
G1 X926.976 Y232.294
G1 X926.627 Y232.143
G1 X926.314 Y231.958
G1 X926.147 Y231.83
G1 X925.993 Y231.686
G1 X925.853 Y231.528
G1 X925.727 Y231.355
G1 X925.614 Y231.166
G1 X925.515 Y230.963
G1 X925.43 Y230.745
G1 X925.358 Y230.512
G1 X925.3 Y230.264
G1 X925.256 Y230.002
G1 X925.225 Y229.725
G1 X925.209 Y229.433
G1 X925.206 Y229.127
G1 X925.216 Y228.806
G1 X925.279 Y228.121
G1 X925.72 Y227.805
G1 X926.17 Y227.509
G1 X926.63 Y227.232
G1 X927.099 Y226.975
G1 X927.576 Y226.737
G1 X928.062 Y226.519
G1 X928.555 Y226.322
G1 X929.056 Y226.145
G1 X929.564 Y225.988
G1 X930.078 Y225.851
G1 X930.599 Y225.735
G1 X931.126 Y225.64
G1 X931.657 Y225.566
G1 X932.194 Y225.513
G1 X932.736 Y225.481
G1 X933.282 Y225.47
G1 X934.244 Y225.504
G1 X935.196 Y225.606
G1 X936.135 Y225.775
G1 X937.057 Y226.01
G1 X937.96 Y226.31
G1 X938.84 Y226.674
G1 X939.693 Y227.101
G1 X940.518 Y227.591
G1 Z-3
G0 Z6
G0 X945.777 Y219.365
G0 Z-3
G1 Z-3.044 F500.
G1 X946.296 Y219.698
G1 X947.202 Y220.342
G1 X948.076 Y221.029
G1 X948.914 Y221.755
G1 X949.717 Y222.521
G1 X950.483 Y223.323
G1 X951.209 Y224.162
G1 X951.896 Y225.036
G1 X952.54 Y225.942
G1 X953.141 Y226.88
G1 X953.698 Y227.848
G1 X954.208 Y228.845
G1 X954.671 Y229.869
G1 X955.085 Y230.918
G1 X955.449 Y231.993
G1 X955.76 Y233.09
G1 X956.018 Y234.208
G1 X956.222 Y235.346
G1 X956.369 Y236.503
G1 X956.458 Y237.677
G1 X956.488 Y238.867
G1 X956.458 Y240.057
G1 X956.369 Y241.231
G1 X956.222 Y242.388
G1 X956.018 Y243.526
G1 X955.76 Y244.644
G1 X955.449 Y245.741
G1 X955.085 Y246.816
G1 X954.671 Y247.865
G1 X954.208 Y248.889
G1 X953.698 Y249.886
G1 X953.141 Y250.854
G1 X952.54 Y251.792
G1 X951.896 Y252.698
G1 X951.209 Y253.572
G1 X950.483 Y254.411
G1 X949.717 Y255.213
G1 X948.914 Y255.979
G1 X948.076 Y256.705
G1 X947.202 Y257.392
G1 X946.296 Y258.036
G1 X945.358 Y258.638
G1 X944.39 Y259.194
G1 X943.393 Y259.705
G1 X942.369 Y260.168
G1 X941.319 Y260.582
G1 X940.245 Y260.945
G1 X939.148 Y261.256
G1 X938.03 Y261.515
G1 X936.891 Y261.718
G1 X935.734 Y261.865
G1 X934.56 Y261.954
G1 X933.371 Y261.984
G1 X932.181 Y261.954
G1 X931.007 Y261.865
G1 X929.85 Y261.718
G1 X928.712 Y261.515
G1 X927.593 Y261.256
G1 X926.496 Y260.945
G1 X925.422 Y260.582
G1 X924.372 Y260.168
G1 X923.348 Y259.705
G1 X922.351 Y259.194
G1 X921.383 Y258.638
G1 X920.445 Y258.036
G1 X919.539 Y257.392
G1 X918.666 Y256.705
G1 X917.827 Y255.979
G1 X917.024 Y255.213
G1 X916.259 Y254.411
G1 X915.532 Y253.572
G1 X914.846 Y252.698
G1 X914.201 Y251.792
G1 X913.6 Y250.854
G1 X913.043 Y249.886
G1 X912.533 Y248.889
G1 X912.07 Y247.865
G1 X911.656 Y246.816
G1 X911.292 Y245.741
G1 X910.981 Y244.644
G1 X910.723 Y243.526
G1 X910.519 Y242.388
G1 X910.372 Y241.231
G1 X910.283 Y240.057
G1 X910.253 Y238.867
G1 X910.283 Y237.677
G1 X910.372 Y236.503
G1 X910.519 Y235.346
G1 X910.723 Y234.208
G1 X910.981 Y233.09
G1 X911.292 Y231.993
G1 X911.656 Y230.918
G1 X912.07 Y229.869
G1 X912.533 Y228.845
G1 X913.043 Y227.848
G1 X913.6 Y226.88
G1 X914.201 Y225.942
G1 X914.846 Y225.036
G1 X915.532 Y224.162
G1 X916.259 Y223.323
G1 X917.024 Y222.521
G1 X917.827 Y221.755
G1 X918.666 Y221.029
G1 X919.539 Y220.342
G1 X920.445 Y219.698
G1 X921.383 Y219.097
G1 X922.351 Y218.54
G1 X923.348 Y218.029
G1 X924.372 Y217.567
G1 X925.422 Y217.153
G1 X926.496 Y216.789
G1 X927.593 Y216.478
G1 X928.712 Y216.22
G1 X929.85 Y216.016
G1 X931.007 Y215.869
G1 X932.181 Y215.78
G1 X933.371 Y215.75
G1 X934.56 Y215.78
G1 X935.734 Y215.869
G1 X936.891 Y216.016
G1 X938.03 Y216.22
G1 X939.148 Y216.478
G1 X940.245 Y216.789
G1 X941.319 Y217.153
G1 X942.369 Y217.567
G1 X943.393 Y218.029
G1 X944.39 Y218.54
G1 X945.358 Y219.097
G1 X945.777 Y219.365
G1 Z-3
G0 Z6
G0 X945.459 Y208.102
G0 Z-3
G1 Z-3.044 F500.
G1 X921.009
G1 X921.012 Y202.931
G1 X936.826
G1 X921.012 Y196.976
G1 Y196.949
G1 X921.007
G1 Y192.677
G1 X936.821 Y186.722
G1 X921.007
G1 X921.009 Y181.55
G1 X945.459
G1 X945.457 Y186.722
G1 Y188.392
G1 X928.408 Y194.789
G1 Y194.863
G1 X945.462 Y201.262
G1 Y202.931
G1 X945.459 Y208.102
G1 Z-3
G0 Z6
G0 X924.683 Y179.911
G0 Z-3
G1 Z-3.044 F500.
G1 X924.23 Y179.839
G1 X923.701 Y179.692
G1 X923.215 Y179.492
G1 X922.771 Y179.236
G1 X922.369 Y178.926
G1 X922.009 Y178.561
G1 X921.692 Y178.141
G1 X921.417 Y177.667
G1 X921.184 Y177.138
G1 X920.994 Y176.554
G1 X920.846 Y175.915
G1 X920.74 Y175.222
G1 X920.677 Y174.474
G1 X920.656 Y173.672
G1 X920.663 Y173.257
G1 X920.69 Y172.855
G1 X920.736 Y172.464
G1 X920.801 Y172.086
G1 X920.887 Y171.719
G1 X920.991 Y171.365
G1 X921.115 Y171.022
G1 X921.259 Y170.691
G1 X921.422 Y170.372
G1 X921.604 Y170.066
G1 X921.806 Y169.771
G1 X922.027 Y169.488
G1 X922.268 Y169.217
G1 X922.528 Y168.958
G1 X922.808 Y168.711
G1 X923.107 Y168.475
G1 X922.773 Y168.386
G1 X922.46 Y168.292
G1 X922.167 Y168.191
G1 X921.894 Y168.086
G1 X921.642 Y167.974
G1 X921.411 Y167.857
G1 X921.2 Y167.735
G1 X921.009 Y167.607
G1 Y162.444
G1 X921.176 Y162.567
G1 X921.366 Y162.683
G1 X921.577 Y162.793
G1 X921.811 Y162.895
G1 X922.066 Y162.989
G1 X922.344 Y163.077
G1 X922.643 Y163.158
G1 X922.965 Y163.231
G1 X923.309 Y163.298
G1 X923.675 Y163.357
G1 X924.063 Y163.409
G1 X924.474 Y163.454
G1 X924.906 Y163.492
G1 X925.36 Y163.523
G1 X925.837 Y163.547
G1 X926.335 Y163.563
G1 X933.545 Y163.565
G1 X933.883 Y163.55
G1 X934.21 Y163.553
G1 X934.526 Y163.573
G1 X934.831 Y163.611
G1 X935.126 Y163.667
G1 X935.41 Y163.74
G1 X935.684 Y163.831
G1 X935.946 Y163.94
G1 X936.198 Y164.066
G1 X936.44 Y164.21
G1 X936.67 Y164.372
G1 X936.89 Y164.551
G1 X937.099 Y164.748
G1 X937.297 Y164.963
G1 X937.485 Y165.195
G1 X937.662 Y165.445
G1 X937.828 Y165.713
G1 X937.983 Y165.998
G1 X938.128 Y166.302
G1 X938.262 Y166.622
G1 X938.386 Y166.961
G1 X938.498 Y167.317
G1 X938.6 Y167.69
G1 X938.691 Y168.082
G1 X938.771 Y168.491
G1 X938.841 Y168.917
G1 X938.9 Y169.362
G1 X938.948 Y169.824
G1 X938.986 Y170.303
G1 X939.013 Y170.801
G1 X939.029 Y171.316
G1 X939.034 Y171.849
G1 X939.013 Y172.783
G1 X938.95 Y173.655
G1 X938.844 Y174.465
G1 X938.696 Y175.213
G1 X938.506 Y175.898
G1 X938.273 Y176.522
G1 X937.998 Y177.083
G1 X937.681 Y177.583
G1 X937.321 Y178.02
G1 X936.92 Y178.395
G1 X936.475 Y178.708
G1 X935.989 Y178.959
G1 X935.46 Y179.148
G1 X934.89 Y179.274
G1 X934.276 Y179.339
G1 X933.621 Y179.341
G1 X933.232 Y174.447
G1 X933.464 Y174.41
G1 X933.675 Y174.349
G1 X933.867 Y174.266
G1 X934.041 Y174.164
G1 X934.196 Y174.046
G1 X934.335 Y173.914
G1 X934.568 Y173.62
G1 X934.745 Y173.302
G1 X934.876 Y172.982
G1 X934.968 Y172.681
G1 X935.028 Y172.419
G1 X935.068 Y172.113
G1 X935.082 Y171.767
G1 X935.07 Y171.42
G1 X935.04 Y171.098
G1 X934.993 Y170.8
G1 X934.929 Y170.524
G1 X934.849 Y170.272
G1 X934.754 Y170.042
G1 X934.643 Y169.834
G1 X934.517 Y169.647
G1 X934.378 Y169.481
G1 X934.224 Y169.335
G1 X934.057 Y169.209
G1 X933.878 Y169.102
G1 X933.686 Y169.015
G1 X933.482 Y168.945
G1 X933.267 Y168.894
G1 X933.042 Y168.86
G1 X932.694 Y168.826
G1 X932.319 Y168.806
G1 X931.917 Y168.795
G1 X931.487 Y168.792
G1 X931.55 Y169.479
G1 X931.599 Y170.143
G1 X931.632 Y170.786
G1 X931.65 Y171.407
G1 X931.653 Y172.006
G1 X931.641 Y172.584
G1 X931.614 Y173.139
G1 X931.573 Y173.673
G1 X931.516 Y174.185
G1 X931.444 Y174.676
G1 X931.357 Y175.144
G1 X931.255 Y175.591
G1 X931.139 Y176.016
G1 X931.007 Y176.419
G1 X930.86 Y176.8
G1 X930.698 Y177.16
G1 X930.521 Y177.498
G1 X930.33 Y177.813
G1 X930.123 Y178.108
G1 X929.901 Y178.38
G1 X929.664 Y178.631
G1 X929.413 Y178.859
G1 X929.146 Y179.066
G1 X928.864 Y179.252
G1 X928.567 Y179.415
G1 X928.255 Y179.557
G1 X927.929 Y179.677
G1 X927.587 Y179.775
G1 X927.23 Y179.851
G1 X926.858 Y179.905
G1 X926.471 Y179.938
G1 X925.414 Y179.967
G1 X924.801 Y179.93
G1 X924.683 Y179.911
G1 Z-3
G0 Z6
G0 X924.698 Y172.88
G0 Z-3
G1 Z-3.044 F500.
G1 X924.815 Y173.298
G1 X924.987 Y173.667
G1 X925.094 Y173.83
G1 X925.217 Y173.976
G1 X925.355 Y174.104
G1 X925.51 Y174.212
G1 X925.68 Y174.299
G1 X925.868 Y174.363
G1 X926.073 Y174.403
G1 X926.296 Y174.416
G1 X926.594 Y174.404
G1 X926.872 Y174.366
G1 X927.128 Y174.303
G1 X927.364 Y174.215
G1 X927.578 Y174.102
G1 X927.771 Y173.964
G1 X927.943 Y173.801
G1 X928.094 Y173.613
G1 X928.224 Y173.399
G1 X928.333 Y173.161
G1 X928.42 Y172.897
G1 X928.487 Y172.609
G1 X928.532 Y172.295
G1 X928.557 Y171.956
G1 X928.56 Y171.592
G1 X928.542 Y171.203
G1 Y168.792
G1 X925.777
G1 X925.656 Y168.889
G1 X925.539 Y169.007
G1 X925.32 Y169.299
G1 X925.125 Y169.654
G1 X924.956 Y170.06
G1 X924.817 Y170.505
G1 X924.711 Y170.977
G1 X924.643 Y171.463
G1 X924.616 Y171.95
G1 X924.633 Y172.427
G1 X924.698 Y172.88
G1 Z-3
G0 Z6
G0 X926.299 Y162.096
G0 Z-3
G1 Z-3.044 F500.
G1 X925.947 Y162.088
G1 X925.606 Y162.063
G1 X925.276 Y162.021
G1 X924.957 Y161.962
G1 X924.65 Y161.886
G1 X924.353 Y161.793
G1 X924.068 Y161.684
G1 X923.794 Y161.557
G1 X923.532 Y161.414
G1 X923.28 Y161.253
G1 X923.04 Y161.076
G1 X922.81 Y160.881
G1 X922.592 Y160.67
G1 X922.385 Y160.442
G1 X922.19 Y160.197
G1 X922.005 Y159.935
G1 X921.832 Y159.656
G1 X921.67 Y159.36
G1 X921.519 Y159.047
G1 X921.379 Y158.717
G1 X921.25 Y158.37
G1 X921.133 Y158.007
G1 X921.027 Y157.626
G1 X920.932 Y157.228
G1 X920.848 Y156.814
G1 X920.775 Y156.382
G1 X920.714 Y155.934
G1 X920.663 Y155.469
G1 X920.624 Y154.986
G1 X920.596 Y154.487
G1 X920.579 Y153.971
G1 X920.574 Y153.438
G1 X920.579 Y152.896
G1 X920.596 Y152.371
G1 X920.623 Y151.864
G1 X920.662 Y151.373
G1 X920.712 Y150.899
G1 X920.772 Y150.443
G1 X920.844 Y150.004
G1 X920.927 Y149.581
G1 X921.021 Y149.176
G1 X921.126 Y148.788
G1 X921.241 Y148.417
G1 X921.368 Y148.064
G1 X921.506 Y147.727
G1 X921.655 Y147.407
G1 X921.815 Y147.105
G1 X921.986 Y146.819
G1 X922.168 Y146.551
G1 X922.362 Y146.3
G1 X922.566 Y146.066
G1 X922.781 Y145.849
G1 X923.007 Y145.649
G1 X923.245 Y145.466
G1 X923.493 Y145.301
G1 X923.752 Y145.152
G1 X924.023 Y145.02
G1 X924.304 Y144.906
G1 X924.596 Y144.809
G1 X924.9 Y144.729
G1 X925.214 Y144.666
G1 X925.54 Y144.62
G1 X925.877 Y144.591
G1 X926.224 Y144.579
G1 X926.784 Y144.614
G1 X927.307 Y144.716
G1 X927.795 Y144.879
G1 X928.249 Y145.097
G1 X928.67 Y145.364
G1 X929.06 Y145.675
G1 X929.419 Y146.024
G1 X929.749 Y146.406
G1 X930.051 Y146.814
G1 X930.326 Y147.244
G1 X930.575 Y147.689
G1 X930.8 Y148.143
G1 X931 Y148.602
G1 X931.179 Y149.059
G1 X931.336 Y149.508
G1 X931.473 Y149.944
G1 X931.486 Y149.93
G1 X931.499 Y150.032
G1 X931.628 Y150.502
G1 X931.735 Y150.936
G1 X931.821 Y151.328
G1 X931.887 Y151.668
G1 X931.888 Y151.675
G1 X931.923 Y151.872
G1 X931.952 Y152.05
G1 X931.975 Y152.207
G1 X931.993 Y152.345
G1 X931.991 Y152.346
G1 X932.073 Y152.783
G1 X932.161 Y153.189
G1 X932.255 Y153.564
G1 X932.356 Y153.909
G1 X932.462 Y154.223
G1 X932.575 Y154.507
G1 X932.693 Y154.761
G1 X932.818 Y154.984
G1 X932.949 Y155.177
G1 X933.086 Y155.339
G1 X933.229 Y155.471
G1 X933.378 Y155.572
G1 X933.533 Y155.643
G1 X933.694 Y155.683
G1 X933.862 Y155.693
G1 X934.035 Y155.672
G1 X934.228 Y155.695
G1 X934.408 Y155.693
G1 X934.576 Y155.667
G1 X934.732 Y155.617
G1 X934.874 Y155.542
G1 X935.005 Y155.443
G1 X935.123 Y155.319
G1 X935.228 Y155.171
G1 X935.322 Y154.998
G1 X935.402 Y154.801
G1 X935.47 Y154.58
G1 X935.526 Y154.334
G1 X935.569 Y154.064
G1 X935.6 Y153.769
G1 X935.618 Y153.45
G1 X935.624 Y153.107
G1 X935.614 Y152.751
G1 X935.586 Y152.416
G1 X935.54 Y152.103
G1 X935.475 Y151.812
G1 X935.392 Y151.542
G1 X935.291 Y151.293
G1 X935.171 Y151.067
G1 X935.033 Y150.861
G1 X934.877 Y150.677
G1 X934.702 Y150.515
G1 X934.509 Y150.374
G1 X934.298 Y150.255
G1 X934.068 Y150.157
G1 X933.82 Y150.081
G1 X933.553 Y150.027
G1 X933.268 Y149.993
G1 X933.663 Y144.603
G1 X934.314 Y144.636
G1 X934.922 Y144.735
G1 X935.489 Y144.9
G1 X936.013 Y145.13
G1 X936.496 Y145.426
G1 X936.936 Y145.788
G1 X937.335 Y146.215
G1 X937.692 Y146.708
G1 X938.006 Y147.267
G1 X938.279 Y147.892
G1 X938.51 Y148.582
G1 X938.699 Y149.338
G1 X938.846 Y150.16
G1 X938.95 Y151.047
G1 X939.013 Y152
G1 X939.034 Y153.019
G1 X939.014 Y154.055
G1 X938.952 Y155.024
G1 X938.848 Y155.927
G1 X938.703 Y156.763
G1 X938.517 Y157.533
G1 X938.29 Y158.236
G1 X938.021 Y158.873
G1 X937.71 Y159.443
G1 X937.359 Y159.947
G1 X936.966 Y160.384
G1 X936.531 Y160.755
G1 X936.055 Y161.059
G1 X935.538 Y161.297
G1 X934.979 Y161.468
G1 X934.379 Y161.573
G1 X933.738 Y161.611
G1 X933.369 Y161.596
G1 X933.015 Y161.55
G1 X932.678 Y161.477
G1 X932.355 Y161.376
G1 X932.048 Y161.251
G1 X931.755 Y161.102
G1 X931.476 Y160.932
G1 X931.212 Y160.741
G1 X930.961 Y160.532
G1 X930.723 Y160.305
G1 X930.286 Y159.809
G1 X929.898 Y159.264
G1 X929.556 Y158.684
G1 X929.258 Y158.081
G1 X929 Y157.47
G1 X928.781 Y156.862
G1 X928.597 Y156.27
G1 X928.445 Y155.709
G1 X928.324 Y155.19
G1 X928.229 Y154.726
G1 X928.159 Y154.331
G1 X928.158 Y154.321
G1 X928.065 Y153.838
G1 X927.967 Y153.388
G1 X927.864 Y152.972
G1 X927.755 Y152.59
G1 X927.642 Y152.24
G1 X927.524 Y151.925
G1 X927.4 Y151.642
G1 X927.271 Y151.394
G1 X927.137 Y151.178
G1 X926.998 Y150.996
G1 X926.854 Y150.848
G1 X926.705 Y150.733
G1 X926.55 Y150.651
G1 X926.391 Y150.603
G1 X926.226 Y150.589
G1 X926.056 Y150.608
G1 X925.848 Y150.595
G1 X925.654 Y150.607
G1 X925.473 Y150.643
G1 X925.305 Y150.703
G1 X925.151 Y150.788
G1 X925.01 Y150.898
G1 X924.883 Y151.032
G1 X924.769 Y151.19
G1 X924.668 Y151.373
G1 X924.581 Y151.58
G1 X924.507 Y151.812
G1 X924.447 Y152.068
G1 X924.4 Y152.349
G1 X924.366 Y152.654
G1 X924.346 Y152.984
G1 X924.339 Y153.338
G1 X924.348 Y153.694
G1 X924.374 Y154.029
G1 X924.418 Y154.343
G1 X924.479 Y154.637
G1 X924.557 Y154.91
G1 X924.653 Y155.162
G1 X924.766 Y155.394
G1 X924.897 Y155.605
G1 X925.045 Y155.795
G1 X925.21 Y155.964
G1 X925.393 Y156.113
G1 X925.593 Y156.241
G1 X925.811 Y156.348
G1 X926.046 Y156.435
G1 X926.299 Y156.501
G1 X926.568 Y156.546
G1 X926.299 Y162.096
G1 Z-3
G0 Z6
G0 X924.331 Y142.886
G0 Z-3
G1 Z-3.044 F500.
G1 X945.463
G1 Y137.413
G1 X921.012
G1 Y142.886
G1 X924.331
G1 Z-3
G0 Z6
G0 X925.115 Y134.626
G0 Z-3
G1 Z-3.044 F500.
G1 X924.742 Y134.429
G1 X924.381 Y134.213
G1 X924.032 Y133.979
G1 X923.698 Y133.728
G1 X923.377 Y133.458
G1 X923.071 Y133.17
G1 X922.78 Y132.863
G1 X922.505 Y132.538
G1 X922.246 Y132.194
G1 X922.005 Y131.831
G1 X921.781 Y131.45
G1 X921.576 Y131.05
G1 X921.389 Y130.63
G1 X921.223 Y130.191
G1 X921.076 Y129.733
G1 X920.95 Y129.256
G1 X920.846 Y128.759
G1 X920.764 Y128.242
G1 X920.705 Y127.706
G1 X920.668 Y127.149
G1 X920.656 Y126.573
G1 X920.668 Y125.997
G1 X920.704 Y125.44
G1 X920.763 Y124.903
G1 X920.844 Y124.386
G1 X920.948 Y123.888
G1 X921.072 Y123.41
G1 X921.217 Y122.951
G1 X921.383 Y122.512
G1 X921.568 Y122.091
G1 X921.772 Y121.689
G1 X921.994 Y121.307
G1 X922.234 Y120.943
G1 X922.491 Y120.598
G1 X922.765 Y120.271
G1 X923.054 Y119.963
G1 X923.359 Y119.674
G1 X923.679 Y119.402
G1 X924.013 Y119.149
G1 X924.361 Y118.914
G1 X924.721 Y118.698
G1 X925.094 Y118.499
G1 X925.479 Y118.318
G1 X925.875 Y118.154
G1 X926.281 Y118.008
G1 X927.124 Y117.769
G1 X928.002 Y117.599
G1 X928.91 Y117.498
G1 X929.845 Y117.465
G1 X930.779 Y117.498
G1 X931.688 Y117.599
G1 X932.566 Y117.769
G1 X933.409 Y118.008
G1 X933.815 Y118.154
G1 X934.211 Y118.318
G1 X934.596 Y118.499
G1 X934.969 Y118.698
G1 X935.329 Y118.915
G1 X935.677 Y119.149
G1 X936.011 Y119.403
G1 X936.331 Y119.674
G1 X936.636 Y119.963
G1 X936.926 Y120.271
G1 X937.199 Y120.598
G1 X937.456 Y120.943
G1 X937.696 Y121.307
G1 X937.919 Y121.689
G1 X938.122 Y122.091
G1 X938.307 Y122.512
G1 X938.473 Y122.951
G1 X938.618 Y123.41
G1 X938.743 Y123.889
G1 X938.846 Y124.386
G1 X938.927 Y124.903
G1 X938.986 Y125.44
G1 X939.022 Y125.997
G1 X939.034 Y126.573
G1 X939.022 Y127.149
G1 X938.986 Y127.705
G1 X938.926 Y128.242
G1 X938.844 Y128.758
G1 X938.74 Y129.255
G1 X938.614 Y129.733
G1 X938.467 Y130.191
G1 X938.301 Y130.63
G1 X938.114 Y131.049
G1 X937.909 Y131.45
G1 X937.685 Y131.831
G1 X937.444 Y132.194
G1 X937.185 Y132.537
G1 X936.91 Y132.863
G1 X936.619 Y133.169
G1 X936.313 Y133.457
G1 X935.992 Y133.727
G1 X935.657 Y133.979
G1 X935.309 Y134.213
G1 X934.948 Y134.428
G1 X934.575 Y134.626
G1 X934.19 Y134.806
G1 X933.795 Y134.968
G1 X933.389 Y135.113
G1 X932.548 Y135.35
G1 X931.674 Y135.519
G1 X930.771 Y135.619
G1 X929.845 Y135.652
G1 X928.918 Y135.619
G1 X928.015 Y135.519
G1 X927.141 Y135.35
G1 X926.301 Y135.113
G1 X925.895 Y134.968
G1 X925.499 Y134.806
G1 X925.115 Y134.626
G1 Z-3
G0 Z6
G0 X935.357 Y126.561
G0 Z-3
G1 Z-3.044 F500.
G1 X935.355 Y126.423
G1 X935.341 Y126.246
G1 X935.308 Y126.037
G1 X935.247 Y125.803
G1 X935.154 Y125.549
G1 X935.021 Y125.284
G1 X934.84 Y125.012
G1 X934.607 Y124.741
G1 X934.313 Y124.478
G1 X933.952 Y124.228
G1 X933.745 Y124.111
G1 X933.518 Y123.999
G1 X933.271 Y123.894
G1 X933.003 Y123.797
G1 X932.713 Y123.708
G1 X932.401 Y123.628
G1 X932.065 Y123.558
G1 X931.704 Y123.5
G1 X931.319 Y123.452
G1 X930.907 Y123.418
G1 X930.469 Y123.396
G1 X930.003 Y123.389
G1 X929.536 Y123.396
G1 X929.098 Y123.418
G1 X928.687 Y123.452
G1 X928.301 Y123.5
G1 X927.941 Y123.558
G1 X927.605 Y123.628
G1 X927.292 Y123.708
G1 X927.003 Y123.797
G1 X926.735 Y123.894
G1 X926.488 Y123.999
G1 X926.261 Y124.111
G1 X926.053 Y124.228
G1 X925.693 Y124.478
G1 X925.399 Y124.741
G1 X925.165 Y125.012
G1 X924.985 Y125.284
G1 X924.852 Y125.549
G1 X924.759 Y125.803
G1 X924.698 Y126.037
G1 X924.665 Y126.246
G1 X924.65 Y126.423
G1 X924.649 Y126.561
G1 X924.65 Y126.699
G1 X924.664 Y126.876
G1 X924.698 Y127.085
G1 X924.758 Y127.319
G1 X924.852 Y127.572
G1 X924.985 Y127.838
G1 X925.165 Y128.11
G1 X925.399 Y128.38
G1 X925.692 Y128.644
G1 X926.053 Y128.893
G1 X926.261 Y129.011
G1 X926.488 Y129.122
G1 X926.735 Y129.227
G1 X927.003 Y129.325
G1 X927.292 Y129.413
G1 X927.605 Y129.493
G1 X927.941 Y129.563
G1 X928.301 Y129.622
G1 X928.687 Y129.669
G1 X929.098 Y129.704
G1 X929.536 Y129.725
G1 X930.003 Y129.732
G1 X930.469 Y129.725
G1 X930.907 Y129.704
G1 X931.319 Y129.669
G1 X931.704 Y129.622
G1 X932.065 Y129.563
G1 X932.401 Y129.493
G1 X932.713 Y129.413
G1 X933.003 Y129.325
G1 X933.271 Y129.227
G1 X933.518 Y129.122
G1 X933.745 Y129.011
G1 X933.952 Y128.893
G1 X934.313 Y128.644
G1 X934.607 Y128.38
G1 X934.84 Y128.11
G1 X935.021 Y127.838
G1 X935.154 Y127.572
G1 X935.247 Y127.319
G1 X935.308 Y127.085
G1 X935.341 Y126.876
G1 X935.355 Y126.699
G1 X935.357 Y126.561
G1 Z-3
G0 Z6
G0 X933.282 Y116.187
G0 Z-3
G1 Z-3.044 F500.
G1 X921.027 Y113.229
G1 Y106.445
G1 X931.359 Y104.301
G1 Y104.298
G1 X921.027 Y102.154
G1 Y95.369
G1 X938.662 Y91.114
G1 Y96.77
G1 X927.315 Y99.471
G1 X938.662 Y102.053
G1 Y106.474
G1 X927.315 Y109.175
G1 X938.662 Y111.757
G1 Y117.485
G1 X933.282 Y116.187
G1 Z-3
G0 Z10
G0 Z10

(SPINE PREDRILL)
M5
T4 M6
M3 S10000
G0 X134.1 Y141.45
G0 Z5
G1 Z-3 F100.
G0 Z5
G0 Y268.95
G1 Z-3 F100.
G0 Z5
G0 Y365.2
G1 Z-3 F100.
G0 Z5
G0 X294.1
G1 Z-3 F100.
G0 Z5
G0 Y268.95
G1 Z-3 F100.
G0 Z5
G0 Y141.45
G1 Z-3 F100.
G0 Z5

(SLED PREDRILL)
G0 X709.1 Y481.7
G0 Z5
G1 Z-3 F100.
G0 Z5
G0 X716.6 Y390.2
G1 Z-3 F100.
G0 Z5
G0 X709.1 Y408.7
G1 Z-3 F100.
G0 Z5
G0 X676.6 Y390.2
G1 Z-3 F100.
G0 Z5
G0 X581.6
G1 Z-3 F100.
G0 Z5
G0 X549.1 Y408.7
G1 Z-3 F100.
G0 Z5
G0 X541.6 Y390.2
G1 Z-3 F100.
G0 Z5
G0 X549.1 Y481.7
G1 Z-3 F100.
G0 Z5

(RING PREDRILL)
G0 X784.937 Y320.629
G0 Z5
G1 Z-3 F100.
G0 Z5
G0 X777.187 Y334.053
G1 Z-3 F100.
G0 Z5
G0 X761.687
G1 Z-3 F100.
G0 Z5
G0 X753.937 Y320.629
G1 Z-3 F100.
G0 Z5
G0 X761.687 Y307.206
G1 Z-3 F100.
G0 Z5
G0 X777.187
G1 Z-3 F100.
G0 Z5
G0 X636.85 Y125.623
G1 Z-3 F100.
G0 Z5
G0 X621.35
G1 Z-3 F100.
G0 Z5
G0 X613.6 Y112.2
G1 Z-3 F100.
G0 Z5
G0 X621.35 Y98.777
G1 Z-3 F100.
G0 Z5
G0 X636.85
G1 Z-3 F100.
G0 Z5
G0 X644.6 Y112.2
G1 Z-3 F100.
G0 Z5
G0 X481.013 Y307.206
G1 Z-3 F100.
G0 Z5
G0 X496.513
G1 Z-3 F100.
G0 Z5
G0 X504.263 Y320.629
G1 Z-3 F100.
G0 Z5
G0 X496.513 Y334.053
G1 Z-3 F100.
G0 Z5
G0 X481.013
G1 Z-3 F100.
G0 Z5
G0 X473.263 Y320.629
G1 Z-3 F100.
G0 Z5

(CARRIAGE PREDRILL)
G0 X1027.1 Y20.7
G0 Z5
G1 Z-3 F100.
G0 Z5
G0 Y38.7
G1 Z-3 F100.
G0 Z5
G0 X1003.1
G1 Z-3 F100.
G0 Z5
G0 Y20.7
G1 Z-3 F100.
G0 Z5
G0 Y123.7
G1 Z-3 F100.
G0 Z5
G0 Y141.7
G1 Z-3 F100.
G0 Z5
G0 X1027.1
G1 Z-3 F100.
G0 Z5
G0 Y123.7
G1 Z-3 F100.
G0 Z5
G0 X1051.6 Y140.7
G1 Z-3 F100.
G0 Z5
G0 Y208.7
G1 Z-3 F100.
G0 Z5
G0 X1138.6
G1 Z-3 F100.
G0 Z5
G0 Y140.7
G1 Z-3 F100.
G0 Z5
G0 X1163.1 Y123.7
G1 Z-3 F100.
G0 Z5
G0 Y141.7
G1 Z-3 F100.
G0 Z5
G0 X1187.1
G1 Z-3 F100.
G0 Z5
G0 Y123.7
G1 Z-3 F100.
G0 Z5
G0 Y38.7
G1 Z-3 F100.
G0 Z5
G0 Y20.7
G1 Z-3 F100.
G0 Z5
G0 X1163.1
G1 Z-3 F100.
G0 Z5
G0 Y38.7
G1 Z-3 F100.
G0 Z5
G0 Z10

(SPINE THREADED INSERT POCKETS)
M5
T1 M6
M3 S12000
G0 X193.084 Y220.808
G0 Z10
G0 Z7.35
G1 Z-5.306 F300.
G2 X192.687 Y221.205 I0 J0.397 F600.
G2 X193.084 Y221.602 I0.397 J0
G2 X193.481 Y221.205 I0 J-0.397
G2 X193.084 Y220.808 I-0.397 J0
G1 Z-10.613 F300.
G2 X192.687 Y221.205 I0 J0.397 F600.
G2 X193.084 Y221.602 I0.397 J0
G2 X193.481 Y221.205 I0 J-0.397
G2 X193.084 Y220.808 I-0.397 J0
G1 Z-15.919 F300.
G2 X192.687 Y221.205 I0 J0.397 F600.
G2 X193.084 Y221.602 I0.397 J0
G2 X193.481 Y221.205 I0 J-0.397
G2 X193.084 Y220.808 I-0.397 J0
G0 Z7.35
G0 X235.116
G1 Z-5.306 F300.
G2 X234.719 Y221.205 I0 J0.397 F600.
G2 X235.116 Y221.602 I0.397 J0
G2 X235.513 Y221.205 I0 J-0.397
G2 X235.116 Y220.808 I-0.397 J0
G1 Z-10.613 F300.
G2 X234.719 Y221.205 I0 J0.397 F600.
G2 X235.116 Y221.602 I0.397 J0
G2 X235.513 Y221.205 I0 J-0.397
G2 X235.116 Y220.808 I-0.397 J0
G1 Z-15.919 F300.
G2 X234.719 Y221.205 I0 J0.397 F600.
G2 X235.116 Y221.602 I0.397 J0
G2 X235.513 Y221.205 I0 J-0.397
G2 X235.116 Y220.808 I-0.397 J0
G0 Z7.35
G0 X278.1 Y146.097
G1 Z-5.306 F300.
G2 X278.497 Y145.7 I0 J-0.397 F600.
G2 X278.1 Y145.303 I-0.397 J0
G2 X277.703 Y145.7 I0 J0.397
G2 X278.1 Y146.097 I0.397 J0
G1 Z-10.613 F300.
G2 X278.497 Y145.7 I0 J-0.397 F600.
G2 X278.1 Y145.303 I-0.397 J0
G2 X277.703 Y145.7 I0 J0.397
G2 X278.1 Y146.097 I0.397 J0
G1 Z-15.919 F300.
G2 X278.497 Y145.7 I0 J-0.397 F600.
G2 X278.1 Y145.303 I-0.397 J0
G2 X277.703 Y145.7 I0 J0.397
G2 X278.1 Y146.097 I0.397 J0
G0 Z7.35
G0 X310.1
G1 Z-5.306 F300.
G2 X310.497 Y145.7 I0 J-0.397 F600.
G2 X310.1 Y145.303 I-0.397 J0
G2 X309.703 Y145.7 I0 J0.397
G2 X310.1 Y146.097 I0.397 J0
G1 Z-10.613 F300.
G2 X310.497 Y145.7 I0 J-0.397 F600.
G2 X310.1 Y145.303 I-0.397 J0
G2 X309.703 Y145.7 I0 J0.397
G2 X310.1 Y146.097 I0.397 J0
G1 Z-15.919 F300.
G2 X310.497 Y145.7 I0 J-0.397 F600.
G2 X310.1 Y145.303 I-0.397 J0
G2 X309.703 Y145.7 I0 J0.397
G2 X310.1 Y146.097 I0.397 J0
G0 Z7.35
G0 X149.703 Y145.7
G1 Z-5.306 F300.
G2 X150.1 Y146.097 I0.397 J0 F600.
G2 X150.497 Y145.7 I0 J-0.397
G2 X150.1 Y145.303 I-0.397 J0
G2 X149.703 Y145.7 I0 J0.397
G1 Z-10.613 F300.
G2 X150.1 Y146.097 I0.397 J0 F600.
G2 X150.497 Y145.7 I0 J-0.397
G2 X150.1 Y145.303 I-0.397 J0
G2 X149.703 Y145.7 I0 J0.397
G1 Z-15.919 F300.
G2 X150.1 Y146.097 I0.397 J0 F600.
G2 X150.497 Y145.7 I0 J-0.397
G2 X150.1 Y145.303 I-0.397 J0
G2 X149.703 Y145.7 I0 J0.397
G0 Z7.35
G0 X118.1 Y146.097
G1 Z-5.306 F300.
G2 X118.497 Y145.7 I0 J-0.397 F600.
G2 X118.1 Y145.303 I-0.397 J0
G2 X117.703 Y145.7 I0 J0.397
G2 X118.1 Y146.097 I0.397 J0
G1 Z-10.613 F300.
G2 X118.497 Y145.7 I0 J-0.397 F600.
G2 X118.1 Y145.303 I-0.397 J0
G2 X117.703 Y145.7 I0 J0.397
G2 X118.1 Y146.097 I0.397 J0
G1 Z-15.919 F300.
G2 X118.497 Y145.7 I0 J-0.397 F600.
G2 X118.1 Y145.303 I-0.397 J0
G2 X117.703 Y145.7 I0 J0.397
G2 X118.1 Y146.097 I0.397 J0
G0 Z7.35
G0 Y379.097
G1 Z-5.306 F300.
G2 X118.497 Y378.7 I0 J-0.397 F600.
G2 X118.1 Y378.303 I-0.397 J0
G2 X117.703 Y378.7 I0 J0.397
G2 X118.1 Y379.097 I0.397 J0
G1 Z-10.613 F300.
G2 X118.497 Y378.7 I0 J-0.397 F600.
G2 X118.1 Y378.303 I-0.397 J0
G2 X117.703 Y378.7 I0 J0.397
G2 X118.1 Y379.097 I0.397 J0
G1 Z-15.919 F300.
G2 X118.497 Y378.7 I0 J-0.397 F600.
G2 X118.1 Y378.303 I-0.397 J0
G2 X117.703 Y378.7 I0 J0.397
G2 X118.1 Y379.097 I0.397 J0
G0 Z7.35
G0 X149.703 Y378.7
G1 Z-5.306 F300.
G2 X150.1 Y379.097 I0.397 J0 F600.
G2 X150.497 Y378.7 I0 J-0.397
G2 X150.1 Y378.303 I-0.397 J0
G2 X149.703 Y378.7 I0 J0.397
G1 Z-10.613 F300.
G2 X150.1 Y379.097 I0.397 J0 F600.
G2 X150.497 Y378.7 I0 J-0.397
G2 X150.1 Y378.303 I-0.397 J0
G2 X149.703 Y378.7 I0 J0.397
G1 Z-15.919 F300.
G2 X150.1 Y379.097 I0.397 J0 F600.
G2 X150.497 Y378.7 I0 J-0.397
G2 X150.1 Y378.303 I-0.397 J0
G2 X149.703 Y378.7 I0 J0.397
G0 Z7.35
G0 X192.687 Y379.195
G1 Z-5.306 F300.
G2 X193.084 Y379.592 I0.397 J0 F600.
G2 X193.481 Y379.195 I0 J-0.397
G2 X193.084 Y378.798 I-0.397 J0
G2 X192.687 Y379.195 I0 J0.397
G1 Z-10.613 F300.
G2 X193.084 Y379.592 I0.397 J0 F600.
G2 X193.481 Y379.195 I0 J-0.397
G2 X193.084 Y378.798 I-0.397 J0
G2 X192.687 Y379.195 I0 J0.397
G1 Z-15.919 F300.
G2 X193.084 Y379.592 I0.397 J0 F600.
G2 X193.481 Y379.195 I0 J-0.397
G2 X193.084 Y378.798 I-0.397 J0
G2 X192.687 Y379.195 I0 J0.397
G0 Z7.35
G0 X234.719
G1 Z-5.306 F300.
G2 X235.116 Y379.592 I0.397 J0 F600.
G2 X235.513 Y379.195 I0 J-0.397
G2 X235.116 Y378.798 I-0.397 J0
G2 X234.719 Y379.195 I0 J0.397
G1 Z-10.613 F300.
G2 X235.116 Y379.592 I0.397 J0 F600.
G2 X235.513 Y379.195 I0 J-0.397
G2 X235.116 Y378.798 I-0.397 J0
G2 X234.719 Y379.195 I0 J0.397
G1 Z-15.919 F300.
G2 X235.116 Y379.592 I0.397 J0 F600.
G2 X235.513 Y379.195 I0 J-0.397
G2 X235.116 Y378.798 I-0.397 J0
G2 X234.719 Y379.195 I0 J0.397
G0 Z7.35
G0 X277.703 Y378.7
G1 Z-5.306 F300.
G2 X278.1 Y379.097 I0.397 J0 F600.
G2 X278.497 Y378.7 I0 J-0.397
G2 X278.1 Y378.303 I-0.397 J0
G2 X277.703 Y378.7 I0 J0.397
G1 Z-10.613 F300.
G2 X278.1 Y379.097 I0.397 J0 F600.
G2 X278.497 Y378.7 I0 J-0.397
G2 X278.1 Y378.303 I-0.397 J0
G2 X277.703 Y378.7 I0 J0.397
G1 Z-15.919 F300.
G2 X278.1 Y379.097 I0.397 J0 F600.
G2 X278.497 Y378.7 I0 J-0.397
G2 X278.1 Y378.303 I-0.397 J0
G2 X277.703 Y378.7 I0 J0.397
G0 Z7.35
G0 X310.1 Y378.303
G1 Z-5.306 F300.
G2 X309.703 Y378.7 I0 J0.397 F600.
G2 X310.1 Y379.097 I0.397 J0
G2 X310.497 Y378.7 I0 J-0.397
G2 X310.1 Y378.303 I-0.397 J0
G1 Z-10.613 F300.
G2 X309.703 Y378.7 I0 J0.397 F600.
G2 X310.1 Y379.097 I0.397 J0
G2 X310.497 Y378.7 I0 J-0.397
G2 X310.1 Y378.303 I-0.397 J0
G1 Z-15.919 F300.
G2 X309.703 Y378.7 I0 J0.397 F600.
G2 X310.1 Y379.097 I0.397 J0
G2 X310.497 Y378.7 I0 J-0.397
G2 X310.1 Y378.303 I-0.397 J0
G0 Z10

(SPINE SLOT POCKETS)
G0 X135.914 Y194.2
G0 Z8
G0 Z7.35
G1 Z2.5 F600.
G1 X138.448 Z1.821 F500.
G1 X129.752 Z-0.509
G1 X138.448 Z-2.839
G1 X129.752 Z-5.168
G1 X134.1 Z-6.333
G1 X134.187 Y194.192
G1 X134.27 Y194.169
G1 X135.368 Y193.752
G3 X135.987 Y194.03 I0.17 J0.448
G3 X135.709 Y194.648 I-0.448 J0.17
G3 X135.09 Y194.37 I-0.17 J-0.448
G3 X135.059 Y194.2 I0.448 J-0.17
G1 Y193.56 F600.
G2 X134.74 Y193.241 I-0.319 J0
G1 X133.46
G2 X133.141 Y193.56 I0 J0.319
G1 Y216.84
G2 X133.46 Y217.159 I0.319 J0
G1 X134.74
G2 X135.059 Y216.84 I0 J-0.319
G1 Y194.2
G3 X136.728 Y191.456 I3.089 J0
G2 X137.436 Y189.229 I-0.76 J-1.468
G2 X135.968 Y188.336 I-1.468 J0.76
G1 X129.579
G3 X127.32 Y187.392 I0 J-3.175
G1 X127.306 Y187.386
G1 X127.292 Y187.392
G1 X127.286 Y187.406
G1 X127.292 Y187.42
G3 X128.236 Y189.679 I-2.231 J2.259
G1 Y220.721
G3 X127.292 Y222.98 I-3.175 J0
G1 X127.286 Y222.994
G1 X127.292 Y223.008
G1 X127.306 Y223.014
G1 X127.32 Y223.008
G3 X129.579 Y222.064 I2.259 J2.231
G1 X138.621
G3 X140.88 Y223.008 I0 J3.175
G1 X140.894 Y223.014
G1 X140.908 Y223.008
G1 X140.914 Y222.994
G1 X140.908 Y222.98
G3 X139.964 Y220.721 I2.231 J-2.259
G1 Y189.679
G3 X140.908 Y187.42 I3.175 J0
G1 X140.914 Y187.406
G1 X140.908 Y187.392
G1 X140.894 Y187.386
G1 X140.88 Y187.392
G3 X138.621 Y188.336 I-2.259 J-2.231
G1 X135.968
G1 X135.921 Y188.342
G1 X135.876 Y188.359
G1 X135.837 Y188.386
G1 X135.805 Y188.421
G1 X131.815 Y194.115
G1 X131.783 Y194.15
G1 X131.743 Y194.177
G1 X131.698 Y194.194
G1 X131.651 Y194.2
G1 X129.752 Z-6.842 F500.
G1 X138.448 Z-9.172
G1 X129.752 Z-11.502
G1 X134.1 Z-12.667
G1 X134.187 Y194.192
G1 X134.27 Y194.169
G1 X135.368 Y193.752
G3 X135.987 Y194.03 I0.17 J0.448
G3 X135.709 Y194.648 I-0.448 J0.17
G3 X135.09 Y194.37 I-0.17 J-0.448
G3 X135.059 Y194.2 I0.448 J-0.17
G1 Y193.56 F600.
G2 X134.74 Y193.241 I-0.319 J0
G1 X133.46
G2 X133.141 Y193.56 I0 J0.319
G1 Y216.84
G2 X133.46 Y217.159 I0.319 J0
G1 X134.74
G2 X135.059 Y216.84 I0 J-0.319
G1 Y194.2
G3 X136.728 Y191.456 I3.089 J0
G2 X137.436 Y189.229 I-0.76 J-1.468
G2 X135.968 Y188.336 I-1.468 J0.76
G1 X129.579
G3 X127.32 Y187.392 I0 J-3.175
G1 X127.306 Y187.386
G1 X127.292 Y187.392
G1 X127.286 Y187.406
G1 X127.292 Y187.42
G3 X128.236 Y189.679 I-2.231 J2.259
G1 Y220.721
G3 X127.292 Y222.98 I-3.175 J0
G1 X127.286 Y222.994
G1 X127.292 Y223.008
G1 X127.306 Y223.014
G1 X127.32 Y223.008
G3 X129.579 Y222.064 I2.259 J2.231
G1 X138.621
G3 X140.88 Y223.008 I0 J3.175
G1 X140.894 Y223.014
G1 X140.908 Y223.008
G1 X140.914 Y222.994
G1 X140.908 Y222.98
G3 X139.964 Y220.721 I2.231 J-2.259
G1 Y189.679
G3 X140.908 Y187.42 I3.175 J0
G1 X140.914 Y187.406
G1 X140.908 Y187.392
G1 X140.894 Y187.386
G1 X140.88 Y187.392
G3 X138.621 Y188.336 I-2.259 J-2.231
G1 X135.968
G1 X135.921 Y188.342
G1 X135.876 Y188.359
G1 X135.837 Y188.386
G1 X135.805 Y188.421
G1 X131.815 Y194.115
G1 X131.783 Y194.15
G1 X131.743 Y194.177
G1 X131.698 Y194.194
G1 X131.651 Y194.2
G1 X129.752 Z-13.175 F500.
G1 X138.448 Z-15.505
G1 X129.752 Z-17.835
G1 X134.1 Z-19
G1 X134.187 Y194.192
G1 X134.27 Y194.169
G1 X135.368 Y193.752
G3 X135.987 Y194.03 I0.17 J0.448
G3 X135.709 Y194.648 I-0.448 J0.17
G3 X135.09 Y194.37 I-0.17 J-0.448
G3 X135.059 Y194.2 I0.448 J-0.17
G1 Y193.56 F600.
G2 X134.74 Y193.241 I-0.319 J0
G1 X133.46
G2 X133.141 Y193.56 I0 J0.319
G1 Y216.84
G2 X133.46 Y217.159 I0.319 J0
G1 X134.74
G2 X135.059 Y216.84 I0 J-0.319
G1 Y194.2
G3 X136.728 Y191.456 I3.089 J0
G2 X137.436 Y189.229 I-0.76 J-1.468
G2 X135.968 Y188.336 I-1.468 J0.76
G1 X129.579
G3 X127.32 Y187.392 I0 J-3.175
G1 X127.306 Y187.386
G1 X127.292 Y187.392
G1 X127.286 Y187.406
G1 X127.292 Y187.42
G3 X128.236 Y189.679 I-2.231 J2.259
G1 Y220.721
G3 X127.292 Y222.98 I-3.175 J0
G1 X127.286 Y222.994
G1 X127.292 Y223.008
G1 X127.306 Y223.014
G1 X127.32 Y223.008
G3 X129.579 Y222.064 I2.259 J2.231
G1 X138.621
G3 X140.88 Y223.008 I0 J3.175
G1 X140.894 Y223.014
G1 X140.908 Y223.008
G1 X140.914 Y222.994
G1 X140.908 Y222.98
G3 X139.964 Y220.721 I2.231 J-2.259
G1 Y189.679
G3 X140.908 Y187.42 I3.175 J0
G1 X140.914 Y187.406
G1 X140.908 Y187.392
G1 X140.894 Y187.386
G1 X140.88 Y187.392
G3 X138.621 Y188.336 I-2.259 J-2.231
G1 X135.968
G1 X135.871 Y188.344 Z-18.984
G1 X135.775 Y188.366 Z-18.969
G1 X135.693 Y188.399 Z-18.924
G1 X135.616 Y188.443 Z-18.879
G1 X135.56 Y188.485 Z-18.808
G1 X135.509 Y188.533 Z-18.738
G1 X135.452 Y188.602 Z-18.561
G1 X135.434 Y188.628 Z-18.365
G0 Z7.35
G0 X132.286 Y66.7
G1 Z2.5 F600.
G1 X129.752 Z1.821 F500.
G1 X138.448 Z-0.509
G1 X129.752 Z-2.839
G1 X138.448 Z-5.168
G1 X134.1 Z-6.333
G3 X133.62 Y66.22 I0 J-0.479
G1 Y65.261
G3 X134.1 Y64.782 I0.48 J0
G3 X134.58 Y65.261 I0 J0.48
G3 X134.1 Y65.741 I-0.48 J0
G1 X133.46 F600.
G2 X133.141 Y66.06 I0 J0.319
G1 Y89.34
G2 X133.46 Y89.659 I0.319 J0
G1 X134.74
G2 X135.059 Y89.34 I0 J-0.319
G1 Y66.06
G2 X134.74 Y65.741 I-0.319 J0
G1 X134.1
G3 X131.356 Y64.072 I0 J-3.09
G2 X129.129 Y63.364 I-1.468 J0.76
G2 X128.236 Y64.832 I0.76 J1.468
G1 Y93.221
G3 X127.292 Y95.48 I-3.175 J0
G1 X127.287 Y95.494
G1 X127.292 Y95.508
G1 X127.306 Y95.514
G1 X127.32 Y95.508
G3 X129.579 Y94.564 I2.259 J2.231
G1 X138.621
G3 X140.88 Y95.508 I0 J3.175
G1 X140.894 Y95.514
G1 X140.908 Y95.508
G1 X140.913 Y95.494
G1 X140.908 Y95.48
G3 X139.964 Y93.221 I2.231 J-2.259
G1 Y62.179
G3 X140.908 Y59.92 I3.175 J0
G1 X140.913 Y59.906
G1 X140.908 Y59.892
G1 X140.894 Y59.886
G1 X140.88 Y59.892
G3 X138.621 Y60.836 I-2.259 J-2.231
G1 X129.579
G3 X127.32 Y59.892 I0 J-3.175
G1 X127.306 Y59.886
G1 X127.292 Y59.892
G1 X127.287 Y59.906
G1 X127.292 Y59.92
G3 X128.236 Y62.179 I-2.231 J2.259
G1 Y64.832
G1 X128.243 Y64.875
G1 X128.264 Y64.914
G1 X128.297 Y64.944
G1 X128.337 Y64.961
G1 X128.381 Y64.965
G1 X129.028 Y64.912
G1 X136.309 Y66.406
G1 X136.341 Y66.42
G1 X136.364 Y66.447
G1 X136.477 Y66.657
G1 X136.495 Y66.68
G1 X136.52 Y66.695
G1 X136.549 Y66.7
G1 X138.448 Z-6.842 F500.
G1 X129.752 Z-9.172
G1 X138.448 Z-11.502
G1 X134.1 Z-12.667
G3 X133.62 Y66.22 I0 J-0.479
G1 Y65.261
G3 X134.1 Y64.782 I0.48 J0
G3 X134.58 Y65.261 I0 J0.48
G3 X134.1 Y65.741 I-0.48 J0
G1 X133.46 F600.
G2 X133.141 Y66.06 I0 J0.319
G1 Y89.34
G2 X133.46 Y89.659 I0.319 J0
G1 X134.74
G2 X135.059 Y89.34 I0 J-0.319
G1 Y66.06
G2 X134.74 Y65.741 I-0.319 J0
G1 X134.1
G3 X131.356 Y64.072 I0 J-3.09
G2 X129.129 Y63.364 I-1.468 J0.76
G2 X128.236 Y64.832 I0.76 J1.468
G1 Y93.221
G3 X127.292 Y95.48 I-3.175 J0
G1 X127.287 Y95.494
G1 X127.292 Y95.508
G1 X127.306 Y95.514
G1 X127.32 Y95.508
G3 X129.579 Y94.564 I2.259 J2.231
G1 X138.621
G3 X140.88 Y95.508 I0 J3.175
G1 X140.894 Y95.514
G1 X140.908 Y95.508
G1 X140.913 Y95.494
G1 X140.908 Y95.48
G3 X139.964 Y93.221 I2.231 J-2.259
G1 Y62.179
G3 X140.908 Y59.92 I3.175 J0
G1 X140.913 Y59.906
G1 X140.908 Y59.892
G1 X140.894 Y59.886
G1 X140.88 Y59.892
G3 X138.621 Y60.836 I-2.259 J-2.231
G1 X129.579
G3 X127.32 Y59.892 I0 J-3.175
G1 X127.306 Y59.886
G1 X127.292 Y59.892
G1 X127.287 Y59.906
G1 X127.292 Y59.92
G3 X128.236 Y62.179 I-2.231 J2.259
G1 Y64.832
G1 X128.243 Y64.875
G1 X128.264 Y64.914
G1 X128.297 Y64.944
G1 X128.337 Y64.961
G1 X128.381 Y64.965
G1 X129.028 Y64.912
G1 X136.309 Y66.406
G1 X136.341 Y66.42
G1 X136.364 Y66.447
G1 X136.477 Y66.657
G1 X136.495 Y66.68
G1 X136.52 Y66.695
G1 X136.549 Y66.7
G1 X138.448 Z-13.175 F500.
G1 X129.752 Z-15.505
G1 X138.448 Z-17.835
G1 X134.1 Z-19
G3 X133.62 Y66.22 I0 J-0.479
G1 Y65.261
G3 X134.1 Y64.782 I0.48 J0
G3 X134.58 Y65.261 I0 J0.48
G3 X134.1 Y65.741 I-0.48 J0
G1 X133.46 F600.
G2 X133.141 Y66.06 I0 J0.319
G1 Y89.34
G2 X133.46 Y89.659 I0.319 J0
G1 X134.74
G2 X135.059 Y89.34 I0 J-0.319
G1 Y66.06
G2 X134.74 Y65.741 I-0.319 J0
G1 X134.1
G3 X131.356 Y64.072 I0 J-3.09
G2 X129.129 Y63.364 I-1.468 J0.76
G2 X128.236 Y64.832 I0.76 J1.468
G1 Y93.221
G3 X127.292 Y95.48 I-3.175 J0
G1 X127.287 Y95.494
G1 X127.292 Y95.508
G1 X127.306 Y95.514
G1 X127.32 Y95.508
G3 X129.579 Y94.564 I2.259 J2.231
G1 X138.621
G3 X140.88 Y95.508 I0 J3.175
G1 X140.894 Y95.514
G1 X140.908 Y95.508
G1 X140.913 Y95.494
G1 X140.908 Y95.48
G3 X139.964 Y93.221 I2.231 J-2.259
G1 Y62.179
G3 X140.908 Y59.92 I3.175 J0
G1 X140.913 Y59.906
G1 X140.908 Y59.892
G1 X140.894 Y59.886
G1 X140.88 Y59.892
G3 X138.621 Y60.836 I-2.259 J-2.231
G1 X129.579
G3 X127.32 Y59.892 I0 J-3.175
G1 X127.306 Y59.886
G1 X127.292 Y59.892
G1 X127.287 Y59.906
G1 X127.292 Y59.92
G3 X128.236 Y62.179 I-2.231 J2.259
G1 Y64.832
G1 X128.244 Y64.93 Z-18.984
G1 X128.266 Y65.025 Z-18.969
G1 X128.299 Y65.107 Z-18.924
G1 X128.343 Y65.184 Z-18.879
G1 X128.385 Y65.24 Z-18.808
G1 X128.433 Y65.291 Z-18.738
G1 X128.502 Y65.349 Z-18.561
G1 X128.528 Y65.366 Z-18.365
G0 Z7.35
G0 X295.914 Y88.7
G1 Z2.5 F600.
G1 X298.448 Z1.821 F500.
G1 X289.752 Z-0.509
G1 X298.448 Z-2.839
G1 X289.752 Z-5.168
G1 X294.1 Z-6.333
G1 X294.187 Y88.692
G1 X294.27 Y88.669
G1 X295.368 Y88.252
G3 X295.987 Y88.53 I0.17 J0.448
G3 X295.709 Y89.148 I-0.448 J0.17
G3 X295.09 Y88.87 I-0.17 J-0.448
G3 X295.059 Y88.7 I0.448 J-0.17
G1 Y66.06 F600.
G2 X294.74 Y65.741 I-0.319 J0
G1 X293.46
G2 X293.141 Y66.06 I0 J0.319
G1 Y89.34
G2 X293.46 Y89.659 I0.319 J0
G1 X294.74
G2 X295.059 Y89.34 I0 J-0.319
G1 Y88.7
G3 X297.512 Y85.021 I3.985 J0
G2 X299.964 Y81.342 I-1.533 J-3.679
G1 Y62.179
G3 X300.908 Y59.92 I3.175 J0
G1 X300.913 Y59.906
G1 X300.908 Y59.892
G1 X300.894 Y59.886
G1 X300.88 Y59.892
G3 X298.621 Y60.836 I-2.259 J-2.231
G1 X289.579
G3 X287.32 Y59.892 I0 J-3.175
G1 X287.306 Y59.886
G1 X287.292 Y59.892
G1 X287.287 Y59.906
G1 X287.292 Y59.92
G3 X288.236 Y62.179 I-2.231 J2.259
G1 Y93.221
G3 X287.292 Y95.48 I-3.175 J0
G1 X287.287 Y95.494
G1 X287.292 Y95.508
G1 X287.306 Y95.514
G1 X287.32 Y95.508
G3 X289.579 Y94.564 I2.259 J2.231
G1 X298.621
G3 X300.88 Y95.508 I0 J3.175
G1 X300.894 Y95.514
G1 X300.908 Y95.508
G1 X300.913 Y95.494
G1 X300.908 Y95.48
G3 X299.964 Y93.221 I2.231 J-2.259
G1 Y81.342
G2 X299.768 Y81.147 I-0.196 J0
G2 X299.644 Y81.191 I0 J0.196
G1 X298.958 Y81.754
G1 X291.826 Y88.773
G1 X291.651 Y88.7
G1 X289.752 Z-6.842 F500.
G1 X298.448 Z-9.172
G1 X289.752 Z-11.502
G1 X294.1 Z-12.667
G1 X294.187 Y88.692
G1 X294.27 Y88.669
G1 X295.368 Y88.252
G3 X295.987 Y88.53 I0.17 J0.448
G3 X295.709 Y89.148 I-0.448 J0.17
G3 X295.09 Y88.87 I-0.17 J-0.448
G3 X295.059 Y88.7 I0.448 J-0.17
G1 Y66.06 F600.
G2 X294.74 Y65.741 I-0.319 J0
G1 X293.46
G2 X293.141 Y66.06 I0 J0.319
G1 Y89.34
G2 X293.46 Y89.659 I0.319 J0
G1 X294.74
G2 X295.059 Y89.34 I0 J-0.319
G1 Y88.7
G3 X297.512 Y85.021 I3.985 J0
G2 X299.964 Y81.342 I-1.533 J-3.679
G1 Y62.179
G3 X300.908 Y59.92 I3.175 J0
G1 X300.913 Y59.906
G1 X300.908 Y59.892
G1 X300.894 Y59.886
G1 X300.88 Y59.892
G3 X298.621 Y60.836 I-2.259 J-2.231
G1 X289.579
G3 X287.32 Y59.892 I0 J-3.175
G1 X287.306 Y59.886
G1 X287.292 Y59.892
G1 X287.287 Y59.906
G1 X287.292 Y59.92
G3 X288.236 Y62.179 I-2.231 J2.259
G1 Y93.221
G3 X287.292 Y95.48 I-3.175 J0
G1 X287.287 Y95.494
G1 X287.292 Y95.508
G1 X287.306 Y95.514
G1 X287.32 Y95.508
G3 X289.579 Y94.564 I2.259 J2.231
G1 X298.621
G3 X300.88 Y95.508 I0 J3.175
G1 X300.894 Y95.514
G1 X300.908 Y95.508
G1 X300.913 Y95.494
G1 X300.908 Y95.48
G3 X299.964 Y93.221 I2.231 J-2.259
G1 Y81.342
G2 X299.768 Y81.147 I-0.196 J0
G2 X299.644 Y81.191 I0 J0.196
G1 X298.958 Y81.754
G1 X291.826 Y88.773
G1 X291.651 Y88.7
G1 X289.752 Z-13.175 F500.
G1 X298.448 Z-15.505
G1 X289.752 Z-17.835
G1 X294.1 Z-19
G1 X294.187 Y88.692
G1 X294.27 Y88.669
G1 X295.368 Y88.252
G3 X295.987 Y88.53 I0.17 J0.448
G3 X295.709 Y89.148 I-0.448 J0.17
G3 X295.09 Y88.87 I-0.17 J-0.448
G3 X295.059 Y88.7 I0.448 J-0.17
G1 Y66.06 F600.
G2 X294.74 Y65.741 I-0.319 J0
G1 X293.46
G2 X293.141 Y66.06 I0 J0.319
G1 Y89.34
G2 X293.46 Y89.659 I0.319 J0
G1 X294.74
G2 X295.059 Y89.34 I0 J-0.319
G1 Y88.7
G3 X297.512 Y85.021 I3.985 J0
G2 X299.964 Y81.342 I-1.533 J-3.679
G1 Y62.179
G3 X300.908 Y59.92 I3.175 J0
G1 X300.913 Y59.906
G1 X300.908 Y59.892
G1 X300.894 Y59.886
G1 X300.88 Y59.892
G3 X298.621 Y60.836 I-2.259 J-2.231
G1 X289.579
G3 X287.32 Y59.892 I0 J-3.175
G1 X287.306 Y59.886
G1 X287.292 Y59.892
G1 X287.287 Y59.906
G1 X287.292 Y59.92
G3 X288.236 Y62.179 I-2.231 J2.259
G1 Y93.221
G3 X287.292 Y95.48 I-3.175 J0
G1 X287.287 Y95.494
G1 X287.292 Y95.508
G1 X287.306 Y95.514
G1 X287.32 Y95.508
G3 X289.579 Y94.564 I2.259 J2.231
G1 X298.621
G3 X300.88 Y95.508 I0 J3.175
G1 X300.894 Y95.514
G1 X300.908 Y95.508
G1 X300.913 Y95.494
G1 X300.908 Y95.48
G3 X299.964 Y93.221 I2.231 J-2.259
G1 Y81.342
G1 X299.956 Y81.245 Z-18.984
G1 X299.934 Y81.149 Z-18.969
G1 X299.901 Y81.067 Z-18.924
G1 X299.857 Y80.99 Z-18.879
G1 X299.815 Y80.934 Z-18.808
G1 X299.767 Y80.883 Z-18.738
G1 X299.698 Y80.826 Z-18.561
G1 X299.672 Y80.808 Z-18.365
G0 Z7.35
G0 X295.914 Y216.2
G1 Z2.5 F600.
G1 X298.448 Z1.821 F500.
G1 X289.752 Z-0.509
G1 X298.448 Z-2.839
G1 X289.752 Z-5.168
G1 X294.1 Z-6.333
G1 X294.187 Y216.192
G1 X294.27 Y216.169
G1 X295.368 Y215.752
G3 X295.987 Y216.03 I0.17 J0.448
G3 X295.709 Y216.648 I-0.448 J0.17
G3 X295.09 Y216.37 I-0.17 J-0.448
G3 X295.059 Y216.2 I0.448 J-0.17
G1 Y193.56 F600.
G2 X294.74 Y193.241 I-0.319 J0
G1 X293.46
G2 X293.141 Y193.56 I0 J0.319
G1 Y216.84
G2 X293.46 Y217.159 I0.319 J0
G1 X294.74
G2 X295.059 Y216.84 I0 J-0.319
G1 Y216.2
G3 X297.512 Y212.521 I3.985 J0
G2 X299.964 Y208.842 I-1.533 J-3.679
G1 Y189.679
G3 X300.908 Y187.42 I3.175 J0
G1 X300.914 Y187.406
G1 X300.908 Y187.392
G1 X300.894 Y187.386
G1 X300.88 Y187.392
G3 X298.621 Y188.336 I-2.259 J-2.231
G1 X289.579
G3 X287.32 Y187.392 I0 J-3.175
G1 X287.306 Y187.386
G1 X287.292 Y187.392
G1 X287.286 Y187.406
G1 X287.292 Y187.42
G3 X288.236 Y189.679 I-2.231 J2.259
G1 Y220.721
G3 X287.292 Y222.98 I-3.175 J0
G1 X287.286 Y222.994
G1 X287.292 Y223.008
G1 X287.306 Y223.014
G1 X287.32 Y223.008
G3 X289.579 Y222.064 I2.259 J2.231
G1 X298.621
G3 X300.88 Y223.008 I0 J3.175
G1 X300.894 Y223.014
G1 X300.908 Y223.008
G1 X300.914 Y222.994
G1 X300.908 Y222.98
G3 X299.964 Y220.721 I2.231 J-2.259
G1 Y208.842
G2 X299.768 Y208.647 I-0.196 J0
G2 X299.644 Y208.691 I0 J0.196
G1 X298.958 Y209.254
G1 X291.826 Y216.273
G1 X291.651 Y216.2
G1 X289.752 Z-6.842 F500.
G1 X298.448 Z-9.172
G1 X289.752 Z-11.502
G1 X294.1 Z-12.667
G1 X294.187 Y216.192
G1 X294.27 Y216.169
G1 X295.368 Y215.752
G3 X295.987 Y216.03 I0.17 J0.448
G3 X295.709 Y216.648 I-0.448 J0.17
G3 X295.09 Y216.37 I-0.17 J-0.448
G3 X295.059 Y216.2 I0.448 J-0.17
G1 Y193.56 F600.
G2 X294.74 Y193.241 I-0.319 J0
G1 X293.46
G2 X293.141 Y193.56 I0 J0.319
G1 Y216.84
G2 X293.46 Y217.159 I0.319 J0
G1 X294.74
G2 X295.059 Y216.84 I0 J-0.319
G1 Y216.2
G3 X297.512 Y212.521 I3.985 J0
G2 X299.964 Y208.842 I-1.533 J-3.679
G1 Y189.679
G3 X300.908 Y187.42 I3.175 J0
G1 X300.914 Y187.406
G1 X300.908 Y187.392
G1 X300.894 Y187.386
G1 X300.88 Y187.392
G3 X298.621 Y188.336 I-2.259 J-2.231
G1 X289.579
G3 X287.32 Y187.392 I0 J-3.175
G1 X287.306 Y187.386
G1 X287.292 Y187.392
G1 X287.286 Y187.406
G1 X287.292 Y187.42
G3 X288.236 Y189.679 I-2.231 J2.259
G1 Y220.721
G3 X287.292 Y222.98 I-3.175 J0
G1 X287.286 Y222.994
G1 X287.292 Y223.008
G1 X287.306 Y223.014
G1 X287.32 Y223.008
G3 X289.579 Y222.064 I2.259 J2.231
G1 X298.621
G3 X300.88 Y223.008 I0 J3.175
G1 X300.894 Y223.014
G1 X300.908 Y223.008
G1 X300.914 Y222.994
G1 X300.908 Y222.98
G3 X299.964 Y220.721 I2.231 J-2.259
G1 Y208.842
G2 X299.768 Y208.647 I-0.196 J0
G2 X299.644 Y208.691 I0 J0.196
G1 X298.958 Y209.254
G1 X291.826 Y216.273
G1 X291.651 Y216.2
G1 X289.752 Z-13.175 F500.
G1 X298.448 Z-15.505
G1 X289.752 Z-17.835
G1 X294.1 Z-19
G1 X294.187 Y216.192
G1 X294.27 Y216.169
G1 X295.368 Y215.752
G3 X295.987 Y216.03 I0.17 J0.448
G3 X295.709 Y216.648 I-0.448 J0.17
G3 X295.09 Y216.37 I-0.17 J-0.448
G3 X295.059 Y216.2 I0.448 J-0.17
G1 Y193.56 F600.
G2 X294.74 Y193.241 I-0.319 J0
G1 X293.46
G2 X293.141 Y193.56 I0 J0.319
G1 Y216.84
G2 X293.46 Y217.159 I0.319 J0
G1 X294.74
G2 X295.059 Y216.84 I0 J-0.319
G1 Y216.2
G3 X297.512 Y212.521 I3.985 J0
G2 X299.964 Y208.842 I-1.533 J-3.679
G1 Y189.679
G3 X300.908 Y187.42 I3.175 J0
G1 X300.914 Y187.406
G1 X300.908 Y187.392
G1 X300.894 Y187.386
G1 X300.88 Y187.392
G3 X298.621 Y188.336 I-2.259 J-2.231
G1 X289.579
G3 X287.32 Y187.392 I0 J-3.175
G1 X287.306 Y187.386
G1 X287.292 Y187.392
G1 X287.286 Y187.406
G1 X287.292 Y187.42
G3 X288.236 Y189.679 I-2.231 J2.259
G1 Y220.721
G3 X287.292 Y222.98 I-3.175 J0
G1 X287.286 Y222.994
G1 X287.292 Y223.008
G1 X287.306 Y223.014
G1 X287.32 Y223.008
G3 X289.579 Y222.064 I2.259 J2.231
G1 X298.621
G3 X300.88 Y223.008 I0 J3.175
G1 X300.894 Y223.014
G1 X300.908 Y223.008
G1 X300.914 Y222.994
G1 X300.908 Y222.98
G3 X299.964 Y220.721 I2.231 J-2.259
G1 Y208.842
G1 X299.956 Y208.745 Z-18.984
G1 X299.934 Y208.649 Z-18.969
G1 X299.901 Y208.567 Z-18.924
G1 X299.857 Y208.49 Z-18.879
G1 X299.815 Y208.434 Z-18.808
G1 X299.767 Y208.383 Z-18.738
G1 X299.698 Y208.326 Z-18.561
G1 X299.672 Y208.308 Z-18.365
G0 Z7.35
G0 X295.914 Y321.7
G1 Z2.5 F600.
G1 X298.448 Z1.821 F500.
G1 X289.752 Z-0.509
G1 X298.448 Z-2.839
G1 X289.752 Z-5.168
G1 X294.1 Z-6.333
G1 X294.187 Y321.692
G1 X294.27 Y321.669
G1 X295.368 Y321.252
G3 X295.987 Y321.53 I0.17 J0.448
G3 X295.709 Y322.148 I-0.448 J0.17
G3 X295.09 Y321.87 I-0.17 J-0.448
G3 X295.059 Y321.7 I0.448 J-0.17
G1 Y321.06 F600.
G2 X294.74 Y320.741 I-0.319 J0
G1 X293.46
G2 X293.141 Y321.06 I0 J0.319
G1 Y344.34
G2 X293.46 Y344.659 I0.319 J0
G1 X294.74
G2 X295.059 Y344.34 I0 J-0.319
G1 Y321.7
G3 X296.728 Y318.956 I3.089 J0
G2 X297.436 Y316.729 I-0.76 J-1.468
G2 X295.968 Y315.836 I-1.468 J0.76
G1 X289.579
G3 X287.32 Y314.892 I0 J-3.175
G1 X287.306 Y314.886
G1 X287.292 Y314.892
G1 X287.286 Y314.906
G1 X287.292 Y314.92
G3 X288.236 Y317.179 I-2.231 J2.259
G1 Y348.221
G3 X287.292 Y350.48 I-3.175 J0
G1 X287.286 Y350.494
G1 X287.292 Y350.508
G1 X287.306 Y350.514
G1 X287.32 Y350.508
G3 X289.579 Y349.564 I2.259 J2.231
G1 X298.621
G3 X300.88 Y350.508 I0 J3.175
G1 X300.894 Y350.514
G1 X300.908 Y350.508
G1 X300.914 Y350.494
G1 X300.908 Y350.48
G3 X299.964 Y348.221 I2.231 J-2.259
G1 Y317.179
G3 X300.908 Y314.92 I3.175 J0
G1 X300.914 Y314.906
G1 X300.908 Y314.892
G1 X300.894 Y314.886
G1 X300.88 Y314.892
G3 X298.621 Y315.836 I-2.259 J-2.231
G1 X295.968
G1 X295.921 Y315.842
G1 X295.876 Y315.859
G1 X295.837 Y315.886
G1 X295.805 Y315.921
G1 X291.815 Y321.615
G1 X291.783 Y321.65
G1 X291.743 Y321.677
G1 X291.698 Y321.694
G1 X291.651 Y321.7
G1 X289.752 Z-6.842 F500.
G1 X298.448 Z-9.172
G1 X289.752 Z-11.502
G1 X294.1 Z-12.667
G1 X294.187 Y321.692
G1 X294.27 Y321.669
G1 X295.368 Y321.252
G3 X295.987 Y321.53 I0.17 J0.448
G3 X295.709 Y322.148 I-0.448 J0.17
G3 X295.09 Y321.87 I-0.17 J-0.448
G3 X295.059 Y321.7 I0.448 J-0.17
G1 Y321.06 F600.
G2 X294.74 Y320.741 I-0.319 J0
G1 X293.46
G2 X293.141 Y321.06 I0 J0.319
G1 Y344.34
G2 X293.46 Y344.659 I0.319 J0
G1 X294.74
G2 X295.059 Y344.34 I0 J-0.319
G1 Y321.7
G3 X296.728 Y318.956 I3.089 J0
G2 X297.436 Y316.729 I-0.76 J-1.468
G2 X295.968 Y315.836 I-1.468 J0.76
G1 X289.579
G3 X287.32 Y314.892 I0 J-3.175
G1 X287.306 Y314.886
G1 X287.292 Y314.892
G1 X287.286 Y314.906
G1 X287.292 Y314.92
G3 X288.236 Y317.179 I-2.231 J2.259
G1 Y348.221
G3 X287.292 Y350.48 I-3.175 J0
G1 X287.286 Y350.494
G1 X287.292 Y350.508
G1 X287.306 Y350.514
G1 X287.32 Y350.508
G3 X289.579 Y349.564 I2.259 J2.231
G1 X298.621
G3 X300.88 Y350.508 I0 J3.175
G1 X300.894 Y350.514
G1 X300.908 Y350.508
G1 X300.914 Y350.494
G1 X300.908 Y350.48
G3 X299.964 Y348.221 I2.231 J-2.259
G1 Y317.179
G3 X300.908 Y314.92 I3.175 J0
G1 X300.914 Y314.906
G1 X300.908 Y314.892
G1 X300.894 Y314.886
G1 X300.88 Y314.892
G3 X298.621 Y315.836 I-2.259 J-2.231
G1 X295.968
G1 X295.921 Y315.842
G1 X295.876 Y315.859
G1 X295.837 Y315.886
G1 X295.805 Y315.921
G1 X291.815 Y321.615
G1 X291.783 Y321.65
G1 X291.743 Y321.677
G1 X291.698 Y321.694
G1 X291.651 Y321.7
G1 X289.752 Z-13.175 F500.
G1 X298.448 Z-15.505
G1 X289.752 Z-17.835
G1 X294.1 Z-19
G1 X294.187 Y321.692
G1 X294.27 Y321.669
G1 X295.368 Y321.252
G3 X295.987 Y321.53 I0.17 J0.448
G3 X295.709 Y322.148 I-0.448 J0.17
G3 X295.09 Y321.87 I-0.17 J-0.448
G3 X295.059 Y321.7 I0.448 J-0.17
G1 Y321.06 F600.
G2 X294.74 Y320.741 I-0.319 J0
G1 X293.46
G2 X293.141 Y321.06 I0 J0.319
G1 Y344.34
G2 X293.46 Y344.659 I0.319 J0
G1 X294.74
G2 X295.059 Y344.34 I0 J-0.319
G1 Y321.7
G3 X296.728 Y318.956 I3.089 J0
G2 X297.436 Y316.729 I-0.76 J-1.468
G2 X295.968 Y315.836 I-1.468 J0.76
G1 X289.579
G3 X287.32 Y314.892 I0 J-3.175
G1 X287.306 Y314.886
G1 X287.292 Y314.892
G1 X287.286 Y314.906
G1 X287.292 Y314.92
G3 X288.236 Y317.179 I-2.231 J2.259
G1 Y348.221
G3 X287.292 Y350.48 I-3.175 J0
G1 X287.286 Y350.494
G1 X287.292 Y350.508
G1 X287.306 Y350.514
G1 X287.32 Y350.508
G3 X289.579 Y349.564 I2.259 J2.231
G1 X298.621
G3 X300.88 Y350.508 I0 J3.175
G1 X300.894 Y350.514
G1 X300.908 Y350.508
G1 X300.914 Y350.494
G1 X300.908 Y350.48
G3 X299.964 Y348.221 I2.231 J-2.259
G1 Y317.179
G3 X300.908 Y314.92 I3.175 J0
G1 X300.914 Y314.906
G1 X300.908 Y314.892
G1 X300.894 Y314.886
G1 X300.88 Y314.892
G3 X298.621 Y315.836 I-2.259 J-2.231
G1 X295.968
G1 X295.871 Y315.844 Z-18.984
G1 X295.775 Y315.866 Z-18.969
G1 X295.693 Y315.899 Z-18.924
G1 X295.616 Y315.943 Z-18.879
G1 X295.56 Y315.985 Z-18.808
G1 X295.509 Y316.033 Z-18.738
G1 X295.452 Y316.102 Z-18.561
G1 X295.434 Y316.128 Z-18.365
G0 Z7.35
G0 X132.286 Y343.7
G1 Z2.5 F600.
G1 X129.752 Z1.821 F500.
G1 X138.448 Z-0.509
G1 X129.752 Z-2.839
G1 X138.448 Z-5.168
G1 X134.1 Z-6.333
G2 X133.621 Y344.18 I0 J0.479
G2 X134.1 Y344.659 I0.479 J0
G1 X134.74 F600.
G2 X135.059 Y344.34 I0 J-0.319
G1 Y321.06
G2 X134.74 Y320.741 I-0.319 J0
G1 X133.46
G2 X133.141 Y321.06 I0 J0.319
G1 Y344.34
G2 X133.46 Y344.659 I0.319 J0
G1 X134.1
G3 X136.844 Y346.328 I0 J3.089
G2 X139.071 Y347.036 I1.468 J-0.76
G2 X139.964 Y345.568 I-0.76 J-1.468
G1 Y317.179
G3 X140.908 Y314.92 I3.175 J0
G1 X140.914 Y314.906
G1 X140.908 Y314.892
G1 X140.894 Y314.886
G1 X140.88 Y314.892
G3 X138.621 Y315.836 I-2.259 J-2.231
G1 X129.579
G3 X127.32 Y314.892 I0 J-3.175
G1 X127.306 Y314.886
G1 X127.292 Y314.892
G1 X127.286 Y314.906
G1 X127.292 Y314.92
G3 X128.236 Y317.179 I-2.231 J2.259
G1 Y348.221
G3 X127.292 Y350.48 I-3.175 J0
G1 X127.286 Y350.494
G1 X127.292 Y350.508
G1 X127.306 Y350.514
G1 X127.32 Y350.508
G3 X129.579 Y349.564 I2.259 J2.231
G1 X138.621
G3 X140.88 Y350.508 I0 J3.175
G1 X140.894 Y350.514
G1 X140.908 Y350.508
G1 X140.914 Y350.494
G1 X140.908 Y350.48
G3 X139.964 Y348.221 I2.231 J-2.259
G1 Y345.568
G1 X139.958 Y345.521
G1 X139.941 Y345.476
G1 X139.914 Y345.436
G1 X139.878 Y345.404
G1 X139.836 Y345.382
G1 X136.477 Y344.087
G3 X136.362 Y343.828 I0.072 J-0.187
G3 X136.549 Y343.7 I0.187 J0.072
G1 X138.448 Z-6.842 F500.
G1 X129.752 Z-9.172
G1 X138.448 Z-11.502
G1 X134.1 Z-12.667
G2 X133.621 Y344.18 I0 J0.479
G2 X134.1 Y344.659 I0.479 J0
G1 X134.74 F600.
G2 X135.059 Y344.34 I0 J-0.319
G1 Y321.06
G2 X134.74 Y320.741 I-0.319 J0
G1 X133.46
G2 X133.141 Y321.06 I0 J0.319
G1 Y344.34
G2 X133.46 Y344.659 I0.319 J0
G1 X134.1
G3 X136.844 Y346.328 I0 J3.089
G2 X139.071 Y347.036 I1.468 J-0.76
G2 X139.964 Y345.568 I-0.76 J-1.468
G1 Y317.179
G3 X140.908 Y314.92 I3.175 J0
G1 X140.914 Y314.906
G1 X140.908 Y314.892
G1 X140.894 Y314.886
G1 X140.88 Y314.892
G3 X138.621 Y315.836 I-2.259 J-2.231
G1 X129.579
G3 X127.32 Y314.892 I0 J-3.175
G1 X127.306 Y314.886
G1 X127.292 Y314.892
G1 X127.286 Y314.906
G1 X127.292 Y314.92
G3 X128.236 Y317.179 I-2.231 J2.259
G1 Y348.221
G3 X127.292 Y350.48 I-3.175 J0
G1 X127.286 Y350.494
G1 X127.292 Y350.508
G1 X127.306 Y350.514
G1 X127.32 Y350.508
G3 X129.579 Y349.564 I2.259 J2.231
G1 X138.621
G3 X140.88 Y350.508 I0 J3.175
G1 X140.894 Y350.514
G1 X140.908 Y350.508
G1 X140.914 Y350.494
G1 X140.908 Y350.48
G3 X139.964 Y348.221 I2.231 J-2.259
G1 Y345.568
G1 X139.958 Y345.521
G1 X139.941 Y345.476
G1 X139.914 Y345.436
G1 X139.878 Y345.404
G1 X139.836 Y345.382
G1 X136.477 Y344.087
G3 X136.362 Y343.828 I0.072 J-0.187
G3 X136.549 Y343.7 I0.187 J0.072
G1 X138.448 Z-13.175 F500.
G1 X129.752 Z-15.505
G1 X138.448 Z-17.835
G1 X134.1 Z-19
G2 X133.621 Y344.18 I0 J0.479
G2 X134.1 Y344.659 I0.479 J0
G1 X134.74 F600.
G2 X135.059 Y344.34 I0 J-0.319
G1 Y321.06
G2 X134.74 Y320.741 I-0.319 J0
G1 X133.46
G2 X133.141 Y321.06 I0 J0.319
G1 Y344.34
G2 X133.46 Y344.659 I0.319 J0
G1 X134.1
G3 X136.844 Y346.328 I0 J3.089
G2 X139.071 Y347.036 I1.468 J-0.76
G2 X139.964 Y345.568 I-0.76 J-1.468
G1 Y317.179
G3 X140.908 Y314.92 I3.175 J0
G1 X140.914 Y314.906
G1 X140.908 Y314.892
G1 X140.894 Y314.886
G1 X140.88 Y314.892
G3 X138.621 Y315.836 I-2.259 J-2.231
G1 X129.579
G3 X127.32 Y314.892 I0 J-3.175
G1 X127.306 Y314.886
G1 X127.292 Y314.892
G1 X127.286 Y314.906
G1 X127.292 Y314.92
G3 X128.236 Y317.179 I-2.231 J2.259
G1 Y348.221
G3 X127.292 Y350.48 I-3.175 J0
G1 X127.286 Y350.494
G1 X127.292 Y350.508
G1 X127.306 Y350.514
G1 X127.32 Y350.508
G3 X129.579 Y349.564 I2.259 J2.231
G1 X138.621
G3 X140.88 Y350.508 I0 J3.175
G1 X140.894 Y350.514
G1 X140.908 Y350.508
G1 X140.914 Y350.494
G1 X140.908 Y350.48
G3 X139.964 Y348.221 I2.231 J-2.259
G1 Y345.568
G1 X139.956 Y345.471 Z-18.984
G1 X139.934 Y345.375 Z-18.969
G1 X139.901 Y345.293 Z-18.924
G1 X139.857 Y345.216 Z-18.879
G1 X139.815 Y345.16 Z-18.808
G1 X139.767 Y345.109 Z-18.738
G1 X139.698 Y345.052 Z-18.561
G1 X139.672 Y345.034 Z-18.365
G0 Z8

(SPINE CUT-OUT POCKETS)
G0 X79.857 Y86.306
G0 Z8
G0 Z7.35
G1 Z2.5 F600.
G1 X82.39 Z1.821 F500.
G2 X83.978 Y84.719 I0 J-1.588
G2 X82.39 Y83.131 I-1.588 J0
G1 X73.695 Z-0.509
G2 X72.107 Y84.719 I0 J1.588
G2 X73.695 Y86.306 I1.588 J0
G1 X82.39 Z-2.839
G2 X83.978 Y84.719 I0 J-1.588
G2 X82.39 Y83.131 I-1.588 J0
G1 X73.695 Z-5.168
G2 X72.107 Y84.719 I0 J1.588
G2 X73.695 Y86.306 I1.588 J0
G1 X78.042 Z-6.333
G3 X78.859 Y87.122 I0 J0.816
G3 X78.042 Y87.938 I-0.816 J0
G3 X77.226 Y87.122 I0 J-0.816
G3 X77.348 Y86.694 I0.816 J0
G1 X78.301 Y85.147
G2 X78.422 Y84.719 I-0.695 J-0.428
G1 Y84.658 F600.
G2 X78.103 Y84.339 I-0.319 J0
G1 X77.873
G2 X77.628 Y84.585 I0 J0.246
G2 X77.634 Y84.641 I0.246 J0
G1 X78.22 Y87.141
G1 X78.235 Y87.175
G1 X78.261 Y87.201
G1 X78.295 Y87.217
G1 X78.332 Y87.219
G1 X78.367 Y87.208
G1 X78.396 Y87.186
G1 X78.416 Y87.154
G1 X78.422 Y87.118
G1 Y84.719
G3 X79.316 Y82.903 I2.29 J0
G2 X79.512 Y81.405 I-0.651 J-0.847
G2 X78.665 Y80.987 I-0.847 J0.651
G1 X73.646
G2 X73.4 Y81.233 I0 J0.246
G2 X73.406 Y81.289 I0.246 J0
G1 X81.572 Y116.12
G1 X81.586 Y116.154
G1 X81.612 Y116.18
G1 X81.646 Y116.196
G1 X81.683 Y116.198
G1 X81.718 Y116.188
G1 X81.748 Y116.165
G1 X81.767 Y116.133
G1 X81.774 Y116.097
G1 Y81.307
G2 X81.454 Y80.987 I-0.319 J0
G1 X78.665
G3 X76.152 Y79.312 I0 J-2.723
G2 X73.638 Y77.636 I-2.513 J1.047
G1 X69.418
G2 X69.172 Y77.882 I0 J0.246
G2 X69.179 Y77.938 I0.246 J0
G1 X84.923 Y145.099
G1 X84.938 Y145.133
G1 X84.964 Y145.16
G1 X84.997 Y145.175
G1 X85.034 Y145.178
G1 X85.07 Y145.167
G1 X85.099 Y145.144
G1 X85.118 Y145.112
G1 X85.125 Y145.076
G1 Y77.956
G2 X84.805 Y77.636 I-0.319 J0
G1 X73.638
G3 X71.125 Y75.961 I0 J-2.723
G2 X68.611 Y74.285 I-2.513 J1.047
G1 X65.19
G2 X64.945 Y74.531 I0 J0.246
G2 X64.951 Y74.587 I0.246 J0
G1 X88.274 Y174.078
G1 X88.289 Y174.112
G1 X88.315 Y174.139
G1 X88.348 Y174.154
G1 X88.385 Y174.157
G1 X88.421 Y174.146
G1 X88.45 Y174.123
G1 X88.469 Y174.092
G1 X88.476 Y174.055
G1 Y74.604
G2 X88.157 Y74.285 I-0.319 J0
G1 X68.611
G3 X66.098 Y72.609 I0 J-2.723
G2 X63.584 Y70.934 I-2.513 J1.047
G1 X60.963
G2 X60.717 Y71.18 I0 J0.246
G2 X60.723 Y71.236 I0.246 J0
G1 X91.625 Y203.058
G1 X91.64 Y203.092
G1 X91.666 Y203.118
G1 X91.7 Y203.133
G1 X91.737 Y203.136
G1 X91.772 Y203.125
G1 X91.801 Y203.102
G1 X91.821 Y203.071
G1 X91.827 Y203.034
G1 Y71.253
G2 X91.508 Y70.934 I-0.319 J0
G1 X63.584
G3 X61.071 Y69.258 I0 J-2.723
G2 X58.557 Y67.582 I-2.513 J1.047
G1 X56.735
G2 X56.489 Y67.828 I0 J0.246
G2 X56.496 Y67.884 I0.246 J0
G1 X94.977 Y232.037
G1 X94.991 Y232.071
G1 X95.017 Y232.097
G1 X95.051 Y232.113
G1 X95.088 Y232.115
G1 X95.123 Y232.104
G1 X95.153 Y232.082
G1 X95.172 Y232.05
G1 X95.179 Y232.013
G1 Y67.902
G2 X94.859 Y67.582 I-0.319 J0
G1 X58.557
G3 X56.044 Y65.907 I0 J-2.723
G2 X53.531 Y64.231 I-2.513 J1.047
G1 X52.507
G2 X52.261 Y64.477 I0 J0.246
G2 X52.268 Y64.533 I0.246 J0
G1 X98.328 Y261.016
G1 X98.343 Y261.05
G1 X98.369 Y261.076
G1 X98.402 Y261.092
G1 X98.439 Y261.094
G1 X98.475 Y261.083
G1 X98.504 Y261.061
G1 X98.523 Y261.029
G1 X98.53 Y260.993
G1 Y64.551
G2 X98.21 Y64.231 I-0.319 J0
G1 X53.531
G3 X51.144 Y63.06 I0 J-3.018
G2 X49.235 Y62.817 I-1.076 J0.833
G2 X48.743 Y64.204 I0.833 J1.076
G1 X100.258 Y283.954
G2 X101.249 Y284.569 I0.803 J-0.188
G2 X101.886 Y283.766 I-0.188 J-0.803
G1 Y61.7
G2 X101.061 Y60.875 I-0.825 J0
G1 X49.004
G2 X48.179 Y61.7 I0 J0.825
G2 X48.201 Y61.888 I0.825 J0
G1 X48.743 Y64.204
G1 X48.762 Y64.26
G1 X48.791 Y64.311
G1 X48.829 Y64.357
G1 X48.875 Y64.394
G1 X75.771 Y82.55
G3 X75.857 Y82.991 I-0.178 J0.263
G3 X75.593 Y83.131 I-0.263 J-0.178
G1 X73.695 Z-6.842 F500.
G2 X72.107 Y84.719 I0 J1.588
G2 X73.695 Y86.306 I1.588 J0
G1 X82.39 Z-9.172
G2 X83.978 Y84.719 I0 J-1.588
G2 X82.39 Y83.131 I-1.588 J0
G1 X73.695 Z-11.502
G2 X72.107 Y84.719 I0 J1.588
G2 X73.695 Y86.306 I1.588 J0
G1 X78.042 Z-12.667
G3 X78.859 Y87.122 I0 J0.816
G3 X78.042 Y87.938 I-0.816 J0
G3 X77.226 Y87.122 I0 J-0.816
G3 X77.348 Y86.694 I0.816 J0
G1 X78.301 Y85.147
G2 X78.422 Y84.719 I-0.695 J-0.428
G1 Y84.658 F600.
G2 X78.103 Y84.339 I-0.319 J0
G1 X77.873
G2 X77.628 Y84.585 I0 J0.246
G2 X77.634 Y84.641 I0.246 J0
G1 X78.22 Y87.141
G1 X78.235 Y87.175
G1 X78.261 Y87.201
G1 X78.295 Y87.217
G1 X78.332 Y87.219
G1 X78.367 Y87.208
G1 X78.396 Y87.186
G1 X78.416 Y87.154
G1 X78.422 Y87.118
G1 Y84.719
G3 X79.316 Y82.903 I2.29 J0
G2 X79.512 Y81.405 I-0.651 J-0.847
G2 X78.665 Y80.987 I-0.847 J0.651
G1 X73.646
G2 X73.4 Y81.233 I0 J0.246
G2 X73.406 Y81.289 I0.246 J0
G1 X81.572 Y116.12
G1 X81.586 Y116.154
G1 X81.612 Y116.18
G1 X81.646 Y116.196
G1 X81.683 Y116.198
G1 X81.718 Y116.188
G1 X81.748 Y116.165
G1 X81.767 Y116.133
G1 X81.774 Y116.097
G1 Y81.307
G2 X81.454 Y80.987 I-0.319 J0
G1 X78.665
G3 X76.152 Y79.312 I0 J-2.723
G2 X73.638 Y77.636 I-2.513 J1.047
G1 X69.418
G2 X69.172 Y77.882 I0 J0.246
G2 X69.179 Y77.938 I0.246 J0
G1 X84.923 Y145.099
G1 X84.938 Y145.133
G1 X84.964 Y145.16
G1 X84.997 Y145.175
G1 X85.034 Y145.178
G1 X85.07 Y145.167
G1 X85.099 Y145.144
G1 X85.118 Y145.112
G1 X85.125 Y145.076
G1 Y77.956
G2 X84.805 Y77.636 I-0.319 J0
G1 X73.638
G3 X71.125 Y75.961 I0 J-2.723
G2 X68.611 Y74.285 I-2.513 J1.047
G1 X65.19
G2 X64.945 Y74.531 I0 J0.246
G2 X64.951 Y74.587 I0.246 J0
G1 X88.274 Y174.078
G1 X88.289 Y174.112
G1 X88.315 Y174.139
G1 X88.348 Y174.154
G1 X88.385 Y174.157
G1 X88.421 Y174.146
G1 X88.45 Y174.123
G1 X88.469 Y174.092
G1 X88.476 Y174.055
G1 Y74.604
G2 X88.157 Y74.285 I-0.319 J0
G1 X68.611
G3 X66.098 Y72.609 I0 J-2.723
G2 X63.584 Y70.934 I-2.513 J1.047
G1 X60.963
G2 X60.717 Y71.18 I0 J0.246
G2 X60.723 Y71.236 I0.246 J0
G1 X91.625 Y203.058
G1 X91.64 Y203.092
G1 X91.666 Y203.118
G1 X91.7 Y203.133
G1 X91.737 Y203.136
G1 X91.772 Y203.125
G1 X91.801 Y203.102
G1 X91.821 Y203.071
G1 X91.827 Y203.034
G1 Y71.253
G2 X91.508 Y70.934 I-0.319 J0
G1 X63.584
G3 X61.071 Y69.258 I0 J-2.723
G2 X58.557 Y67.582 I-2.513 J1.047
G1 X56.735
G2 X56.489 Y67.828 I0 J0.246
G2 X56.496 Y67.884 I0.246 J0
G1 X94.977 Y232.037
G1 X94.991 Y232.071
G1 X95.017 Y232.097
G1 X95.051 Y232.113
G1 X95.088 Y232.115
G1 X95.123 Y232.104
G1 X95.153 Y232.082
G1 X95.172 Y232.05
G1 X95.179 Y232.013
G1 Y67.902
G2 X94.859 Y67.582 I-0.319 J0
G1 X58.557
G3 X56.044 Y65.907 I0 J-2.723
G2 X53.531 Y64.231 I-2.513 J1.047
G1 X52.507
G2 X52.261 Y64.477 I0 J0.246
G2 X52.268 Y64.533 I0.246 J0
G1 X98.328 Y261.016
G1 X98.343 Y261.05
G1 X98.369 Y261.076
G1 X98.402 Y261.092
G1 X98.439 Y261.094
G1 X98.475 Y261.083
G1 X98.504 Y261.061
G1 X98.523 Y261.029
G1 X98.53 Y260.993
G1 Y64.551
G2 X98.21 Y64.231 I-0.319 J0
G1 X53.531
G3 X51.144 Y63.06 I0 J-3.018
G2 X49.235 Y62.817 I-1.076 J0.833
G2 X48.743 Y64.204 I0.833 J1.076
G1 X100.258 Y283.954
G2 X101.249 Y284.569 I0.803 J-0.188
G2 X101.886 Y283.766 I-0.188 J-0.803
G1 Y61.7
G2 X101.061 Y60.875 I-0.825 J0
G1 X49.004
G2 X48.179 Y61.7 I0 J0.825
G2 X48.201 Y61.888 I0.825 J0
G1 X48.743 Y64.204
G1 X48.762 Y64.26
G1 X48.791 Y64.311
G1 X48.829 Y64.357
G1 X48.875 Y64.394
G1 X75.771 Y82.55
G3 X75.857 Y82.991 I-0.178 J0.263
G3 X75.593 Y83.131 I-0.263 J-0.178
G1 X73.695 Z-13.175 F500.
G2 X72.107 Y84.719 I0 J1.588
G2 X73.695 Y86.306 I1.588 J0
G1 X82.39 Z-15.505
G2 X83.978 Y84.719 I0 J-1.588
G2 X82.39 Y83.131 I-1.588 J0
G1 X73.695 Z-17.835
G2 X72.107 Y84.719 I0 J1.588
G2 X73.695 Y86.306 I1.588 J0
G1 X78.042 Z-19
G3 X78.859 Y87.122 I0 J0.816
G3 X78.042 Y87.938 I-0.816 J0
G3 X77.226 Y87.122 I0 J-0.816
G3 X77.348 Y86.694 I0.816 J0
G1 X78.301 Y85.147
G2 X78.422 Y84.719 I-0.695 J-0.428
G1 Y84.658 F600.
G2 X78.103 Y84.339 I-0.319 J0
G1 X77.873
G2 X77.628 Y84.585 I0 J0.246
G2 X77.634 Y84.641 I0.246 J0
G1 X78.22 Y87.141
G1 X78.235 Y87.175
G1 X78.261 Y87.201
G1 X78.295 Y87.217
G1 X78.332 Y87.219
G1 X78.367 Y87.208
G1 X78.396 Y87.186
G1 X78.416 Y87.154
G1 X78.422 Y87.118
G1 Y84.719
G3 X79.316 Y82.903 I2.29 J0
G2 X79.512 Y81.405 I-0.651 J-0.847
G2 X78.665 Y80.987 I-0.847 J0.651
G1 X73.646
G2 X73.4 Y81.233 I0 J0.246
G2 X73.406 Y81.289 I0.246 J0
G1 X81.572 Y116.12
G1 X81.586 Y116.154
G1 X81.612 Y116.18
G1 X81.646 Y116.196
G1 X81.683 Y116.198
G1 X81.718 Y116.188
G1 X81.748 Y116.165
G1 X81.767 Y116.133
G1 X81.774 Y116.097
G1 Y81.307
G2 X81.454 Y80.987 I-0.319 J0
G1 X78.665
G3 X76.152 Y79.312 I0 J-2.723
G2 X73.638 Y77.636 I-2.513 J1.047
G1 X69.418
G2 X69.172 Y77.882 I0 J0.246
G2 X69.179 Y77.938 I0.246 J0
G1 X84.923 Y145.099
G1 X84.938 Y145.133
G1 X84.964 Y145.16
G1 X84.997 Y145.175
G1 X85.034 Y145.178
G1 X85.07 Y145.167
G1 X85.099 Y145.144
G1 X85.118 Y145.112
G1 X85.125 Y145.076
G1 Y77.956
G2 X84.805 Y77.636 I-0.319 J0
G1 X73.638
G3 X71.125 Y75.961 I0 J-2.723
G2 X68.611 Y74.285 I-2.513 J1.047
G1 X65.19
G2 X64.945 Y74.531 I0 J0.246
G2 X64.951 Y74.587 I0.246 J0
G1 X88.274 Y174.078
G1 X88.289 Y174.112
G1 X88.315 Y174.139
G1 X88.348 Y174.154
G1 X88.385 Y174.157
G1 X88.421 Y174.146
G1 X88.45 Y174.123
G1 X88.469 Y174.092
G1 X88.476 Y174.055
G1 Y74.604
G2 X88.157 Y74.285 I-0.319 J0
G1 X68.611
G3 X66.098 Y72.609 I0 J-2.723
G2 X63.584 Y70.934 I-2.513 J1.047
G1 X60.963
G2 X60.717 Y71.18 I0 J0.246
G2 X60.723 Y71.236 I0.246 J0
G1 X91.625 Y203.058
G1 X91.64 Y203.092
G1 X91.666 Y203.118
G1 X91.7 Y203.133
G1 X91.737 Y203.136
G1 X91.772 Y203.125
G1 X91.801 Y203.102
G1 X91.821 Y203.071
G1 X91.827 Y203.034
G1 Y71.253
G2 X91.508 Y70.934 I-0.319 J0
G1 X63.584
G3 X61.071 Y69.258 I0 J-2.723
G2 X58.557 Y67.582 I-2.513 J1.047
G1 X56.735
G2 X56.489 Y67.828 I0 J0.246
G2 X56.496 Y67.884 I0.246 J0
G1 X94.977 Y232.037
G1 X94.991 Y232.071
G1 X95.017 Y232.097
G1 X95.051 Y232.113
G1 X95.088 Y232.115
G1 X95.123 Y232.104
G1 X95.153 Y232.082
G1 X95.172 Y232.05
G1 X95.179 Y232.013
G1 Y67.902
G2 X94.859 Y67.582 I-0.319 J0
G1 X58.557
G3 X56.044 Y65.907 I0 J-2.723
G2 X53.531 Y64.231 I-2.513 J1.047
G1 X52.507
G2 X52.261 Y64.477 I0 J0.246
G2 X52.268 Y64.533 I0.246 J0
G1 X98.328 Y261.016
G1 X98.343 Y261.05
G1 X98.369 Y261.076
G1 X98.402 Y261.092
G1 X98.439 Y261.094
G1 X98.475 Y261.083
G1 X98.504 Y261.061
G1 X98.523 Y261.029
G1 X98.53 Y260.993
G1 Y64.551
G2 X98.21 Y64.231 I-0.319 J0
G1 X53.531
G3 X51.144 Y63.06 I0 J-3.018
G2 X49.235 Y62.817 I-1.076 J0.833
G2 X48.743 Y64.204 I0.833 J1.076
G1 X100.258 Y283.954
G2 X101.249 Y284.569 I0.803 J-0.188
G2 X101.886 Y283.766 I-0.188 J-0.803
G1 Y61.7
G2 X101.061 Y60.875 I-0.825 J0
G1 X49.004
G2 X48.179 Y61.7 I0 J0.825
G2 X48.201 Y61.888 I0.825 J0
G1 X48.743 Y64.204
G1 X48.793 Y64.415 Z-18.993
G1 X48.842 Y64.625 Z-18.97
G1 X48.891 Y64.833 Z-18.934
G1 X48.939 Y65.038 Z-18.882
G1 X48.986 Y65.239 Z-18.817
G1 X49.032 Y65.435 Z-18.737
G1 X49.077 Y65.626 Z-18.644
G1 X49.12 Y65.81 Z-18.538
G1 X49.161 Y65.986 Z-18.419
G1 X49.201 Y66.154 Z-18.288
G1 X49.238 Y66.314 Z-18.145
G1 X49.273 Y66.463 Z-17.992
G1 X49.306 Y66.601 Z-17.829
G1 X49.335 Y66.729 Z-17.656
G1 X49.363 Y66.845 Z-17.475
G1 X49.387 Y66.948 Z-17.286
G1 X49.408 Y67.039 Z-17.09
G1 X49.426 Y67.116 Z-16.888
G1 X49.441 Y67.18 Z-16.682
G1 X49.453 Y67.23 Z-16.471
G1 X49.461 Y67.266 Z-16.257
G1 X49.466 Y67.288 Z-16.042
G1 X49.468 Y67.295 Z-15.825
G0 Z7.35
G0 X351.971 Y86.306
G1 Z2.5 F600.
G1 X354.505 Z1.821 F500.
