%
(MeticulousSled_Predrill)
(T1  D=3.175 CR=0 TAPER=118deg - ZMIN=-11 - drill)
G90 G94
G17
G21
G28 G91 Z0
G90

(Drill1)
M9
T1 M6
S10000 M3
G54
M9
G0 X80 Y-219
Z5
G1 Z-3 F100
G0 Z5
X87.5 Y-127.5
G1 Z-3 F100
G0 Z5
X80 Y-146
G1 Z-3 F100
G0 Z5
X47.5 Y-127.5
G1 Z-3 F100
G0 Z5
X-47.5
G1 Z-3 F100
G0 Z5
X-80 Y-146
G1 Z-3 F100
G0 Z5
X-87.5 Y-127.5
G1 Z-3 F100
G0 Z5
X-80 Y-219
G1 Z-3 F100
G0 Z5
X-470 Y64
G1 Z-3 F100
G0 Z5
Y-32.25
G1 Z-3 F100
G0 Z5
Y-159.75
G1 Z-3 F100
G0 Z5
X-310
G1 Z-3 F100
G0 Z5
Y-32.25
G1 Z-3 F100
G0 Z5
Y64
G1 Z-3 F100
G0 Z5
X-346.5 Y293.2
G1 Z-3 F100
G0 Z5
Y225.2
G1 Z-3 F100
G0 Z5
X-433.5
G1 Z-3 F100
G0 Z5
Y293.2
G1 Z-3 F100
G0 Z5

(Drill2)
M8
X80.822 Y-80.822
Z5
G1 Z-11 F100
G0 Z5
X-80.822
G1 Z-11 F100
G0 Z5
Y80.822
G1 Z-11 F100
G0 Z5
X0 Y76.2
G1 Z-11 F100
G0 Z5
X80.822 Y80.822
G1 Z-11 F100
G0 Z5
X0 Y228.6
G1 Z-11 F100
G0 Z5
M9
G28 G91 Z0
G28 X0 Y0
M30
%
