(METICULOUSSLED_FULLYMASLOWD_12.7MM PLYWOOD)
(T1  D=6.35 CR=0 - ZMIN=-13.7 - FLAT END MILL)
(T2  D=3.175 CR=0 - ZMIN=-3.7 - FLAT END MILL)
G0 G40 G90 G17
G21

(2D POCKET9)
T2 M6
M3 S10000
G0 X118.774 Y17.744
G0 Z8
G0 Z6
G1 Z4.175 F400.
G1 Z-1.85 F150.
G1 X27.3 F400.
G1 X25.827
G1 X25.807 Y17.749
G1 X25.793 Y17.764
G1 X25.787 Y17.783
G1 X25.792 Y17.803
G1 X25.807 Y17.817
G1 X25.827 Y17.823
G1 X117.3
G1 X118.773
G1 X118.774
G1 X118.793 Y17.817
G1 X118.808 Y17.803
G1 X118.813 Y17.784
G1 Y17.783
G1 X118.808 Y17.764
G1 X118.794 Y17.749
G1 X118.774 Y17.744
G1 Z-3.7 F150.
G1 X27.3 F400.
G1 X25.827
G1 X25.807 Y17.749
G1 X25.793 Y17.764
G1 X25.787 Y17.783
G1 X25.792 Y17.803
G1 X25.807 Y17.817
G1 X25.827 Y17.823
G1 X117.3
G1 X118.773
G1 X118.776 Y17.822
G1 X118.779 Z-3.699
G1 X118.781 Y17.821 Z-3.698
G1 X118.783 Y17.819 Z-3.696
G1 X118.785 Y17.818 Z-3.695
G1 X118.786 Y17.817 Z-3.692
G1 X118.787 Y17.816 Z-3.69
G1 X118.788 Y17.815 Z-3.687
G1 X118.789 Y17.814 Z-3.684
G1 Z-3.681
G0 Z8

(2D POCKET10)
G0 X155.826 Y83.963
G0 Z8
G0 Z6
G1 Z4.175 F400.
G1 Z-2.7 F150.
G1 X157.015 Y83.746 F400.
G2 X297.026 Y34.097 I-83.722 J-458.341
G1 X296.986 Y34.029
G3 X157.587 Y83.561 I-223.694 J-408.624
G1 X155.815 Y83.887
G1 X155.812 Y83.888
G1 X155.81 Y83.889 Z-2.699
G1 X155.807 Y83.891 Z-2.698
G1 X155.805 Y83.892 Z-2.697
G1 X155.804 Y83.894 Z-2.695
G1 X155.803 Y83.895 Z-2.693
G1 X155.802 Y83.897 Z-2.69
G1 Y83.898 Z-2.688
G1 X155.801 Z-2.685
G1 Z-2.682
G0 Z8

(2D POCKET11)
G0 X333.779 Y183.886
G0 Z8
G0 Z6
G1 Z4.175 F400.
G1 Z-2.7 F150.
G1 X332.013 Y183.561 F400.
G3 X192.614 Y134.029 I84.296 J-458.156
G1 X192.574 Y134.097
G2 X332.585 Y183.745 I223.732 J-408.692
G1 X333.779 Y183.963
G1 X333.781 Y183.964
G1 X333.784 Y183.963 Z-2.699
G1 X333.787 Z-2.698
G1 X333.789 Y183.962 Z-2.697
G1 X333.791 Y183.961 Z-2.695
G1 X333.792 Y183.96 Z-2.693
G1 X333.794 Y183.959 Z-2.69
G1 Z-2.688
G1 X333.795 Y183.958 Z-2.685
G1 Z-2.682
G0 Z8
G0 Z8

(2D POCKET12)
M5
T1 M6
M3 S12000
G0 X72.571 Y58.929
G0 Z8
G0 Z7.35
G1 Z2.5 F600.
G1 X75.573 Z0.767 F500.
G2 X77.16 Y57.342 I0 J-1.588
G2 X75.573 Y55.754 I-1.588 J0
G1 X71.877 Z-1.367
G2 X70.29 Y57.342 I0 J1.588
G2 X71.877 Y58.929 I1.588 J0
G1 X75.573 Z-3.5
G2 X77.16 Y57.342 I0 J-1.588
G2 X75.573 Y55.754 I-1.588 J0
G1 X73.725 Z-4.567
G3 X72.931 Y54.961 I0 J-0.794
G3 X73.725 Y54.167 I0.794 J0
G3 X74.519 Y54.961 I0 J0.794
G3 X74.467 Y55.242 I-0.794 J0
G1 X73.777 Y57.06
G2 X73.725 Y57.342 I0.742 J0.282
G2 X74.8 Y58.417 I1.075 J0 F600.
G2 X75.875 Y57.342 I0 J-1.075
G2 X72.3 Y53.767 I-3.575 J0
G2 X68.725 Y57.342 I0 J3.575
G2 X74.8 Y63.417 I6.075 J0
G2 X80.875 Y57.342 I0 J-6.075
G2 X72.3 Y48.767 I-8.575 J0
G2 X63.725 Y57.342 I0 J8.575
G2 X74.8 Y68.417 I11.075 J0
G2 X85.875 Y57.342 I0 J-11.075
G2 X72.3 Y43.767 I-13.575 J0
G2 X58.725 Y57.342 I0 J13.575
G2 X74.8 Y73.417 I16.075 J0
G2 X90.875 Y57.342 I0 J-16.075
G2 X72.3 Y38.767 I-18.575 J0
G2 X53.725 Y57.342 I0 J18.575
G2 X74.8 Y78.417 I21.075 J0
G2 X95.875 Y57.342 I0 J-21.075
G2 X72.3 Y33.767 I-23.575 J0
G2 X48.725 Y57.342 I0 J23.575
G2 X74.8 Y83.417 I26.075 J0
G2 X100.875 Y57.342 I0 J-26.075
G2 X72.3 Y28.767 I-28.575 J0
G2 X43.725 Y57.342 I0 J28.575
G2 X72.3 Y85.917 I28.575 J0
G2 X100.875 Y57.342 I0 J-28.575
G2 X100.558 Y57.024 I-0.317 J0
G2 X100.483 Y57.033 I0 J0.317
G1 X82.894 Y61.252
G1 X82.836 Y61.272
G3 X82.527 Y61.247 I-0.132 J-0.289
G1 X74.421 Y55.808
G1 X74.366 Y55.779
G1 X74.307 Y55.761
G1 X74.244 Y55.754
G1 X71.877 Z-5.933 F500.
G2 X70.29 Y57.342 I0 J1.588
G2 X71.877 Y58.929 I1.588 J0
G1 X75.573 Z-8.067
G2 X77.16 Y57.342 I0 J-1.588
G2 X75.573 Y55.754 I-1.588 J0
G1 X73.725 Z-9.133
G3 X72.931 Y54.961 I0 J-0.794
G3 X73.725 Y54.167 I0.794 J0
G3 X74.519 Y54.961 I0 J0.794
G3 X74.467 Y55.242 I-0.794 J0
G1 X73.777 Y57.06
G2 X73.725 Y57.342 I0.742 J0.282
G2 X74.8 Y58.417 I1.075 J0 F600.
G2 X75.875 Y57.342 I0 J-1.075
G2 X72.3 Y53.767 I-3.575 J0
G2 X68.725 Y57.342 I0 J3.575
G2 X74.8 Y63.417 I6.075 J0
G2 X80.875 Y57.342 I0 J-6.075
G2 X72.3 Y48.767 I-8.575 J0
G2 X63.725 Y57.342 I0 J8.575
G2 X74.8 Y68.417 I11.075 J0
G2 X85.875 Y57.342 I0 J-11.075
G2 X72.3 Y43.767 I-13.575 J0
G2 X58.725 Y57.342 I0 J13.575
G2 X74.8 Y73.417 I16.075 J0
G2 X90.875 Y57.342 I0 J-16.075
G2 X72.3 Y38.767 I-18.575 J0
G2 X53.725 Y57.342 I0 J18.575
G2 X74.8 Y78.417 I21.075 J0
G2 X95.875 Y57.342 I0 J-21.075
G2 X72.3 Y33.767 I-23.575 J0
G2 X48.725 Y57.342 I0 J23.575
G2 X74.8 Y83.417 I26.075 J0
G2 X100.875 Y57.342 I0 J-26.075
G2 X72.3 Y28.767 I-28.575 J0
G2 X43.725 Y57.342 I0 J28.575
G2 X72.3 Y85.917 I28.575 J0
G2 X100.875 Y57.342 I0 J-28.575
G2 X100.558 Y57.024 I-0.317 J0
G2 X100.483 Y57.033 I0 J0.317
G1 X82.894 Y61.252
G1 X82.836 Y61.272
G3 X82.527 Y61.247 I-0.132 J-0.289
G1 X74.421 Y55.808
G1 X74.366 Y55.779
G1 X74.307 Y55.761
G1 X74.244 Y55.754
G1 X71.877 Z-10.5 F500.
G2 X70.29 Y57.342 I0 J1.588
G2 X71.877 Y58.929 I1.588 J0
G1 X75.573 Z-12.633
G2 X77.16 Y57.342 I0 J-1.588
G2 X75.573 Y55.754 I-1.588 J0
G1 X73.725 Z-13.7
G3 X72.931 Y54.961 I0 J-0.794
G3 X73.725 Y54.167 I0.794 J0
G3 X74.519 Y54.961 I0 J0.794
G3 X74.467 Y55.242 I-0.794 J0
G1 X73.777 Y57.06
G2 X73.725 Y57.342 I0.742 J0.282
G2 X74.8 Y58.417 I1.075 J0 F600.
G2 X75.875 Y57.342 I0 J-1.075
G2 X72.3 Y53.767 I-3.575 J0
G2 X68.725 Y57.342 I0 J3.575
G2 X74.8 Y63.417 I6.075 J0
G2 X80.875 Y57.342 I0 J-6.075
G2 X72.3 Y48.767 I-8.575 J0
G2 X63.725 Y57.342 I0 J8.575
G2 X74.8 Y68.417 I11.075 J0
G2 X85.875 Y57.342 I0 J-11.075
G2 X72.3 Y43.767 I-13.575 J0
G2 X58.725 Y57.342 I0 J13.575
G2 X74.8 Y73.417 I16.075 J0
G2 X90.875 Y57.342 I0 J-16.075
G2 X72.3 Y38.767 I-18.575 J0
G2 X53.725 Y57.342 I0 J18.575
G2 X74.8 Y78.417 I21.075 J0
G2 X95.875 Y57.342 I0 J-21.075
G2 X72.3 Y33.767 I-23.575 J0
G2 X48.725 Y57.342 I0 J23.575
G2 X74.8 Y83.417 I26.075 J0
G2 X100.875 Y57.342 I0 J-26.075
G2 X72.3 Y28.767 I-28.575 J0
G2 X43.725 Y57.342 I0 J28.575
G2 X72.3 Y85.917 I28.575 J0
G2 X100.875 Y57.342 I0 J-28.575
G1 X100.871 Y57.176 Z-13.687
G1 X100.858 Y57.011 Z-13.674
G1 X100.836 Y56.847 Z-13.661
G1 X100.807 Y56.688 Z-13.622
G1 X100.77 Y56.531 Z-13.583
G1 X100.725 Y56.376 Z-13.545
G1 X100.674 Y56.231 Z-13.481
G1 X100.617 Y56.089 Z-13.417
G1 X100.553 Y55.949 Z-13.354
G1 X100.454 Y55.762 Z-13.224
G1 X100.342 Y55.581 Z-13.094
G1 X100.232 Y55.427 Z-12.932
G1 X100.114 Y55.279 Z-12.77
G1 X100.006 Y55.159 Z-12.581
G1 X99.891 Y55.044 Z-12.391
G1 X99.795 Y54.957 Z-12.179
G1 X99.696 Y54.873 Z-11.966
G1 X99.544 Y54.757 Z-11.506
G1 X99.448 Y54.692 Z-11.022
G1 X99.415 Y54.67 Z-10.525
G0 Z8

(2D CONTOUR8)
G0 X108.931 Y112.7
G1 Z7.35 F500.
G1 Z-1.392
G1 Y112.693 Z-1.608
G1 Y112.67 Z-1.824
G1 Y112.634 Z-2.038
G1 Y112.582 Z-2.248
G1 Y112.517 Z-2.455
G1 Y112.437 Z-2.657
G1 Y112.344 Z-2.852
G1 Y112.238 Z-3.041
G1 Y112.119 Z-3.223
G1 Y111.988 Z-3.395
G1 Y111.845 Z-3.559
G1 Y111.692 Z-3.712
G1 Y111.529 Z-3.855
G1 Y111.356 Z-3.986
G1 Y111.175 Z-4.104
G1 Y110.986 Z-4.211
G1 Y110.79 Z-4.304
G1 Y110.588 Z-4.383
G1 Y110.382 Z-4.449
G1 Y110.171 Z-4.5
G1 Y109.957 Z-4.537
G1 Y109.742 Z-4.559
G1 Y109.525 Z-4.567
G1 Y106.35 F600.
G2 X105.756 Y103.175 I-3.175 J0
G1 X27.3
G3 X24.125 Y100 I0 J-3.175
G1 Y74.773
G3 X25.055 Y72.528 I3.175 J0
G2 Y72.245 I-0.141 J-0.141
G2 X24.914 Y72.186 I-0.141 J0.141
G2 X24.772 Y72.245 I0 J0.2
G3 X22.527 Y73.175 I-2.245 J-2.245
G1 X15.3
G3 X12.125 Y70 I0 J-3.175
G1 Y40
G3 X15.3 Y36.825 I3.175 J0
G1 X22.527
G3 X24.772 Y37.755 I0 J3.175
G2 X25.055 I0.141 J-0.141
G2 Y37.472 I-0.141 J-0.141
G3 X24.125 Y35.227 I2.245 J-2.245
G1 Y10
G3 X27.3 Y6.825 I3.175 J0
G1 X117.3
G3 X120.475 Y10 I0 J3.175
G1 Y35.227
G3 X119.545 Y37.472 I-3.175 J0
G2 Y37.755 I0.141 J0.141
G2 X119.686 Y37.814 I0.141 J-0.141
G2 X119.828 Y37.755 I0 J-0.2
G3 X122.073 Y36.825 I2.245 J2.245
G1 X129.3
G3 X132.475 Y40 I0 J3.175
G1 Y70
G3 X129.3 Y73.175 I-3.175 J0
G1 X122.073
G3 X119.828 Y72.245 I0 J-3.175
G2 X119.545 I-0.141 J0.141
G2 X119.486 Y72.386 I0.141 J0.141
G2 X119.545 Y72.528 I0.2 J0
G3 X120.475 Y74.773 I-2.245 J2.245
G1 Y100
G3 X117.3 Y103.175 I-3.175 J0
G1 X93.756
G2 X90.581 Y106.35 I0 J3.175
G1 Y109.525
G1 Y109.742 Z-4.559
G1 Y109.957 Z-4.537
G1 Y110.171 Z-4.5
G1 Y110.382 Z-4.449
G1 Y110.588 Z-4.383
G1 Y110.79 Z-4.304
G1 Y110.986 Z-4.211
G1 Y111.175 Z-4.104
G1 Y111.356 Z-3.986
G1 Y111.529 Z-3.855
G1 Y111.692 Z-3.712
G1 Y111.845 Z-3.559
G1 Y111.988 Z-3.395
G1 Y112.119 Z-3.223
G1 Y112.238 Z-3.041
G1 Y112.344 Z-2.852
G1 Y112.437 Z-2.657
G1 Y112.517 Z-2.455
G1 Y112.582 Z-2.248
G1 Y112.634 Z-2.038
G1 Y112.67 Z-1.824
G1 Y112.693 Z-1.608
G1 Y112.7 Z-1.392
G1 X108.931
G1 Z-5.958 F500.
G1 Y112.693 Z-6.175
G1 Y112.67 Z-6.391
G1 Y112.634 Z-6.604
G1 Y112.582 Z-6.815
G1 Y112.517 Z-7.022
G1 Y112.437 Z-7.223
G1 Y112.344 Z-7.419
G1 Y112.238 Z-7.608
G1 Y112.119 Z-7.789
G1 Y111.988 Z-7.962
G1 Y111.845 Z-8.125
G1 Y111.692 Z-8.279
G1 Y111.529 Z-8.421
G1 Y111.356 Z-8.552
G1 Y111.175 Z-8.671
G1 Y110.986 Z-8.777
G1 Y110.79 Z-8.87
G1 Y110.588 Z-8.95
G1 Y110.382 Z-9.016
G1 Y110.171 Z-9.067
G1 Y109.957 Z-9.104
G1 Y109.742 Z-9.126
G1 Y109.525 Z-9.133
G1 Y106.35 F600.
G2 X105.756 Y103.175 I-3.175 J0
G1 X27.3
G3 X24.125 Y100 I0 J-3.175
G1 Y74.773
G3 X25.055 Y72.528 I3.175 J0
G2 Y72.245 I-0.141 J-0.141
G2 X24.914 Y72.186 I-0.141 J0.141
G2 X24.772 Y72.245 I0 J0.2
G3 X22.527 Y73.175 I-2.245 J-2.245
G1 X15.3
G3 X12.125 Y70 I0 J-3.175
G1 Y40
G3 X15.3 Y36.825 I3.175 J0
G1 X22.527
G3 X24.772 Y37.755 I0 J3.175
G2 X25.055 I0.141 J-0.141
G2 Y37.472 I-0.141 J-0.141
G3 X24.125 Y35.227 I2.245 J-2.245
G1 Y10
G3 X27.3 Y6.825 I3.175 J0
G1 X117.3
G3 X120.475 Y10 I0 J3.175
G1 Y35.227
G3 X119.545 Y37.472 I-3.175 J0
G2 Y37.755 I0.141 J0.141
G2 X119.686 Y37.814 I0.141 J-0.141
G2 X119.828 Y37.755 I0 J-0.2
G3 X122.073 Y36.825 I2.245 J2.245
G1 X129.3
G3 X132.475 Y40 I0 J3.175
G1 Y70
G3 X129.3 Y73.175 I-3.175 J0
G1 X122.073
G3 X119.828 Y72.245 I0 J-3.175
G2 X119.545 I-0.141 J0.141
G2 X119.486 Y72.386 I0.141 J0.141
G2 X119.545 Y72.528 I0.2 J0
G3 X120.475 Y74.773 I-2.245 J2.245
G1 Y100
G3 X117.3 Y103.175 I-3.175 J0
G1 X93.756
G2 X90.581 Y106.35 I0 J3.175
G1 Y109.525
G1 Y109.742 Z-9.126
G1 Y109.957 Z-9.104
G1 Y110.171 Z-9.067
G1 Y110.382 Z-9.016
G1 Y110.588 Z-8.95
G1 Y110.79 Z-8.87
G1 Y110.986 Z-8.777
G1 Y111.175 Z-8.671
G1 Y111.356 Z-8.552
G1 Y111.529 Z-8.421
G1 Y111.692 Z-8.279
G1 Y111.845 Z-8.125
G1 Y111.988 Z-7.962
G1 Y112.119 Z-7.789
G1 Y112.238 Z-7.608
G1 Y112.344 Z-7.419
G1 Y112.437 Z-7.223
G1 Y112.517 Z-7.022
G1 Y112.582 Z-6.815
G1 Y112.634 Z-6.604
G1 Y112.67 Z-6.391
G1 Y112.693 Z-6.175
G1 Y112.7 Z-5.958
G1 X108.931
G1 Z-10.525 F500.
G1 Y112.693 Z-10.742
G1 Y112.67 Z-10.957
G1 Y112.634 Z-11.171
G1 Y112.582 Z-11.382
G1 Y112.517 Z-11.588
G1 Y112.437 Z-11.79
G1 Y112.344 Z-11.986
G1 Y112.238 Z-12.175
G1 Y112.119 Z-12.356
G1 Y111.988 Z-12.529
G1 Y111.845 Z-12.692
G1 Y111.692 Z-12.845
G1 Y111.529 Z-12.988
G1 Y111.356 Z-13.119
G1 Y111.175 Z-13.238
G1 Y110.986 Z-13.344
G1 Y110.79 Z-13.437
G1 Y110.588 Z-13.517
G1 Y110.382 Z-13.582
G1 Y110.171 Z-13.634
G1 Y109.957 Z-13.67
G1 Y109.742 Z-13.693
G1 Y109.525 Z-13.7
G1 Y106.35 F600.
G2 X105.756 Y103.175 I-3.175 J0
G1 X80.343
G1 Z-9.7
G1 X63.993
G1 Z-13.7 F500.
G1 X27.3 F600.
G3 X24.125 Y100 I0 J-3.175
G1 Y74.773
G3 X25.055 Y72.528 I3.175 J0
G2 Y72.245 I-0.141 J-0.141
G2 X24.914 Y72.186 I-0.141 J0.141
G2 X24.772 Y72.245 I0 J0.2
G3 X22.527 Y73.175 I-2.245 J-2.245
G1 X15.3
G3 X12.125 Y70 I0 J-3.175
G1 Y64.858
G1 Z-9.7
G1 Y48.508
G1 Z-13.7 F500.
G1 Y40 F600.
G3 X15.3 Y36.825 I3.175 J0
G1 X22.527
G3 X24.772 Y37.755 I0 J3.175
G2 X25.055 I0.141 J-0.141
G2 Y37.472 I-0.141 J-0.141
G3 X24.125 Y35.227 I2.245 J-2.245
G1 Y10
G3 X27.3 Y6.825 I3.175 J0
G1 X64.008
G1 Z-9.7
G1 X80.358
G1 Z-13.7 F500.
G1 X117.3 F600.
G3 X120.475 Y10 I0 J3.175
G1 Y35.227
G3 X119.545 Y37.472 I-3.175 J0
G2 Y37.755 I0.141 J0.141
G2 X119.686 Y37.814 I0.141 J-0.141
G2 X119.828 Y37.755 I0 J-0.2
G3 X122.073 Y36.825 I2.245 J2.245
G1 X129.3
G3 X132.475 Y40 I0 J3.175
G1 Y47.423
G1 Z-9.7
G1 Y63.773
G1 Z-13.7 F500.
G1 Y70 F600.
G3 X129.3 Y73.175 I-3.175 J0
G1 X122.073
G3 X119.828 Y72.245 I0 J-3.175
G2 X119.545 I-0.141 J0.141
G2 X119.486 Y72.386 I0.141 J0.141
G2 X119.545 Y72.528 I0.2 J0
G3 X120.475 Y74.773 I-2.245 J2.245
G1 Y100
G3 X117.3 Y103.175 I-3.175 J0
G1 X93.756
G2 X90.581 Y106.35 I0 J3.175
G1 Y109.525
G1 Y109.742 Z-13.693
G1 Y109.957 Z-13.67
G1 Y110.171 Z-13.634
G1 Y110.382 Z-13.582
G1 Y110.588 Z-13.517
G1 Y110.79 Z-13.437
G1 Y110.986 Z-13.344
G1 Y111.175 Z-13.238
G1 Y111.356 Z-13.119
G1 Y111.529 Z-12.988
G1 Y111.692 Z-12.845
G1 Y111.845 Z-12.692
G1 Y111.988 Z-12.529
G1 Y112.119 Z-12.356
G1 Y112.238 Z-12.175
G1 Y112.344 Z-11.986
G1 Y112.437 Z-11.79
G1 Y112.517 Z-11.588
G1 Y112.582 Z-11.382
G1 Y112.634 Z-11.171
G1 Y112.67 Z-10.957
G1 Y112.693 Z-10.742
G1 Y112.7 Z-10.525
G0 Z6

(2D CONTOUR9)
G0 Z8
G0 X347.206 Y112.7
G0 Z7.35
G1 Z-1.392 F500.
G1 Y112.693 Z-1.608
G1 Y112.67 Z-1.824
G1 Y112.634 Z-2.038
G1 Y112.582 Z-2.248
G1 Y112.517 Z-2.455
G1 Y112.437 Z-2.657
G1 Y112.344 Z-2.852
G1 Y112.238 Z-3.041
G1 Y112.119 Z-3.223
G1 Y111.988 Z-3.395
G1 Y111.845 Z-3.559
G1 Y111.692 Z-3.712
G1 Y111.529 Z-3.855
G1 Y111.356 Z-3.986
G1 Y111.175 Z-4.104
G1 Y110.986 Z-4.211
G1 Y110.79 Z-4.304
G1 Y110.588 Z-4.383
G1 Y110.382 Z-4.449
G1 Y110.171 Z-4.5
G1 Y109.957 Z-4.537
G1 Y109.742 Z-4.559
G1 Y109.525 Z-4.567
G1 Y106.35 F600.
G2 X344.031 Y103.175 I-3.175 J0
G1 X327.073
G3 X324.827 Y102.245 I0 J-3.175
G2 X324.545 I-0.141 J0.141
G2 X324.486 Y102.386 I0.141 J0.141
G2 X324.545 Y102.527 I0.2 J0
G3 X325.475 Y104.773 I-2.245 J2.246
G1 Y112
G3 X322.3 Y115.175 I-3.175 J0
G1 X282.3
G3 X279.125 Y112 I0 J-3.175
G1 Y104.773
G3 X280.055 Y102.527 I3.175 J0
G2 Y102.245 I-0.141 J-0.141
G2 X279.914 Y102.186 I-0.141 J0.141
G2 X279.773 Y102.245 I0 J0.2
G3 X277.527 Y103.175 I-2.246 J-2.245
G1 X242.073
G3 X239.827 Y102.245 I0 J-3.175
G2 X239.545 I-0.141 J0.141
G2 X239.486 Y102.386 I0.141 J0.141
G2 X239.545 Y102.527 I0.2 J0
G3 X240.475 Y104.773 I-2.245 J2.246
G1 Y112
G3 X237.3 Y115.175 I-3.175 J0
G1 X197.3
G3 X194.125 Y112 I0 J-3.175
G1 Y104.773
G3 X195.055 Y102.527 I3.175 J0
G2 Y102.245 I-0.141 J-0.141
G2 X194.914 Y102.186 I-0.141 J0.141
G2 X194.773 Y102.245 I0 J0.2
G3 X192.527 Y103.175 I-2.246 J-2.245
G1 X157.3
G3 X154.125 Y100 I0 J-3.175
G1 Y75.65
G3 X156.718 Y72.529 I3.175 J0
G2 X300.712 Y19.308 I-83.425 J-447.124
G3 X303.122 Y18.991 I1.587 J2.75
G3 X305.05 Y20.47 I-0.822 J3.067
G1 X320.03 Y46.417
G3 X318.868 Y50.754 I-2.75 J1.587
G1 X312.576 Y54.387
G3 X310.166 Y54.704 I-1.588 J-2.75
G2 X309.921 Y54.846 I-0.052 J0.193
G2 X309.941 Y54.998 I0.193 J0.052
G2 X310.062 Y55.091 I0.173 J-0.1
G3 X311.991 Y56.57 I-0.821 J3.067
G1 X322.257 Y74.352
G3 X322.574 Y76.761 I-2.75 J1.588
G2 X322.715 Y77.006 I0.193 J0.052
G2 X322.96 Y76.864 I0.052 J-0.193
G3 X324.439 Y74.936 I3.067 J0.822
G1 X330.731 Y71.303
G3 X333.141 Y70.986 I1.588 J2.75
G3 X335.069 Y72.465 I-0.822 J3.067
G1 X350.05 Y98.412
G3 X348.888 Y102.75 I-2.75 J1.588
G3 X347.3 Y103.175 I-1.588 J-2.75
G1 X332.031
G2 X328.856 Y106.35 I0 J3.175
G1 Y109.525
G1 Y109.742 Z-4.559
G1 Y109.957 Z-4.537
G1 Y110.171 Z-4.5
G1 Y110.382 Z-4.449
G1 Y110.588 Z-4.383
G1 Y110.79 Z-4.304
G1 Y110.986 Z-4.211
G1 Y111.175 Z-4.104
G1 Y111.356 Z-3.986
G1 Y111.529 Z-3.855
G1 Y111.692 Z-3.712
G1 Y111.845 Z-3.559
G1 Y111.988 Z-3.395
G1 Y112.119 Z-3.223
G1 Y112.238 Z-3.041
G1 Y112.344 Z-2.852
G1 Y112.437 Z-2.657
G1 Y112.517 Z-2.455
G1 Y112.582 Z-2.248
G1 Y112.634 Z-2.038
G1 Y112.67 Z-1.824
G1 Y112.693 Z-1.608
G1 Y112.7 Z-1.392
G1 X347.206
G1 Z-5.958 F500.
G1 Y112.693 Z-6.175
G1 Y112.67 Z-6.391
G1 Y112.634 Z-6.604
G1 Y112.582 Z-6.815
G1 Y112.517 Z-7.022
G1 Y112.437 Z-7.223
G1 Y112.344 Z-7.419
G1 Y112.238 Z-7.608
G1 Y112.119 Z-7.789
G1 Y111.988 Z-7.962
G1 Y111.845 Z-8.125
G1 Y111.692 Z-8.279
G1 Y111.529 Z-8.421
G1 Y111.356 Z-8.552
G1 Y111.175 Z-8.671
G1 Y110.986 Z-8.777
G1 Y110.79 Z-8.87
G1 Y110.588 Z-8.95
G1 Y110.382 Z-9.016
G1 Y110.171 Z-9.067
G1 Y109.957 Z-9.104
G1 Y109.742 Z-9.126
G1 Y109.525 Z-9.133
G1 Y106.35 F600.
G2 X344.031 Y103.175 I-3.175 J0
G1 X327.073
G3 X324.827 Y102.245 I0 J-3.175
G2 X324.545 I-0.141 J0.141
G2 X324.486 Y102.386 I0.141 J0.141
G2 X324.545 Y102.527 I0.2 J0
G3 X325.475 Y104.773 I-2.245 J2.246
G1 Y112
G3 X322.3 Y115.175 I-3.175 J0
G1 X282.3
G3 X279.125 Y112 I0 J-3.175
G1 Y104.773
G3 X280.055 Y102.527 I3.175 J0
G2 Y102.245 I-0.141 J-0.141
G2 X279.914 Y102.186 I-0.141 J0.141
G2 X279.773 Y102.245 I0 J0.2
G3 X277.527 Y103.175 I-2.246 J-2.245
G1 X242.073
G3 X239.827 Y102.245 I0 J-3.175
G2 X239.545 I-0.141 J0.141
G2 X239.486 Y102.386 I0.141 J0.141
G2 X239.545 Y102.527 I0.2 J0
G3 X240.475 Y104.773 I-2.245 J2.246
G1 Y112
G3 X237.3 Y115.175 I-3.175 J0
G1 X197.3
G3 X194.125 Y112 I0 J-3.175
G1 Y104.773
G3 X195.055 Y102.527 I3.175 J0
G2 Y102.245 I-0.141 J-0.141
G2 X194.914 Y102.186 I-0.141 J0.141
G2 X194.773 Y102.245 I0 J0.2
G3 X192.527 Y103.175 I-2.246 J-2.245
G1 X157.3
G3 X154.125 Y100 I0 J-3.175
G1 Y75.65
G3 X156.718 Y72.529 I3.175 J0
G2 X300.712 Y19.308 I-83.425 J-447.124
G3 X303.122 Y18.991 I1.587 J2.75
G3 X305.05 Y20.47 I-0.822 J3.067
G1 X320.03 Y46.417
G3 X318.868 Y50.754 I-2.75 J1.587
G1 X312.576 Y54.387
G3 X310.166 Y54.704 I-1.588 J-2.75
G2 X309.921 Y54.846 I-0.052 J0.193
G2 X309.941 Y54.998 I0.193 J0.052
G2 X310.062 Y55.091 I0.173 J-0.1
G3 X311.991 Y56.57 I-0.821 J3.067
G1 X322.257 Y74.352
G3 X322.574 Y76.761 I-2.75 J1.588
G2 X322.715 Y77.006 I0.193 J0.052
G2 X322.96 Y76.864 I0.052 J-0.193
G3 X324.439 Y74.936 I3.067 J0.822
G1 X330.731 Y71.303
G3 X333.141 Y70.986 I1.588 J2.75
G3 X335.069 Y72.465 I-0.822 J3.067
G1 X350.05 Y98.412
G3 X348.888 Y102.75 I-2.75 J1.588
G3 X347.3 Y103.175 I-1.588 J-2.75
G1 X332.031
G2 X328.856 Y106.35 I0 J3.175
G1 Y109.525
G1 Y109.742 Z-9.126
G1 Y109.957 Z-9.104
G1 Y110.171 Z-9.067
G1 Y110.382 Z-9.016
G1 Y110.588 Z-8.95
G1 Y110.79 Z-8.87
G1 Y110.986 Z-8.777
G1 Y111.175 Z-8.671
G1 Y111.356 Z-8.552
G1 Y111.529 Z-8.421
G1 Y111.692 Z-8.279
G1 Y111.845 Z-8.125
G1 Y111.988 Z-7.962
G1 Y112.119 Z-7.789
G1 Y112.238 Z-7.608
G1 Y112.344 Z-7.419
G1 Y112.437 Z-7.223
G1 Y112.517 Z-7.022
G1 Y112.582 Z-6.815
G1 Y112.634 Z-6.604
G1 Y112.67 Z-6.391
G1 Y112.693 Z-6.175
G1 Y112.7 Z-5.958
G1 X347.206
G1 Z-10.525 F500.
G1 Y112.693 Z-10.742
G1 Y112.67 Z-10.957
G1 Y112.634 Z-11.171
G1 Y112.582 Z-11.382
G1 Y112.517 Z-11.588
G1 Y112.437 Z-11.79
G1 Y112.344 Z-11.986
G1 Y112.238 Z-12.175
G1 Y112.119 Z-12.356
G1 Y111.988 Z-12.529
G1 Y111.845 Z-12.692
G1 Y111.692 Z-12.845
G1 Y111.529 Z-12.988
G1 Y111.356 Z-13.119
G1 Y111.175 Z-13.238
G1 Y110.986 Z-13.344
G1 Y110.79 Z-13.437
G1 Y110.588 Z-13.517
G1 Y110.382 Z-13.582
G1 Y110.171 Z-13.634
G1 Y109.957 Z-13.67
G1 Y109.742 Z-13.693
G1 Y109.525 Z-13.7
G1 Y106.35 F600.
G2 X344.031 Y103.175 I-3.175 J0
G1 X327.073
G3 X324.827 Y102.245 I0 J-3.175
G2 X324.545 I-0.141 J0.141
G2 X324.486 Y102.386 I0.141 J0.141
G2 X324.545 Y102.527 I0.2 J0
G3 X325.475 Y104.773 I-2.245 J2.246
G1 Y112
G3 X322.3 Y115.175 I-3.175 J0
G1 X311.058
G1 Z-9.7
G1 X294.708
G1 Z-13.7 F500.
G1 X282.3 F600.
G3 X279.125 Y112 I0 J-3.175
G1 Y104.773
G3 X280.055 Y102.527 I3.175 J0
G2 Y102.245 I-0.141 J-0.141
G2 X279.914 Y102.186 I-0.141 J0.141
G2 X279.773 Y102.245 I0 J0.2
G3 X277.527 Y103.175 I-2.246 J-2.245
G1 X242.073
G3 X239.827 Y102.245 I0 J-3.175
G2 X239.545 I-0.141 J0.141
G2 X239.486 Y102.386 I0.141 J0.141
G2 X239.545 Y102.527 I0.2 J0
G3 X240.475 Y104.773 I-2.245 J2.246
G1 Y112
G3 X237.3 Y115.175 I-3.175 J0
G1 X197.3
G3 X194.125 Y112 I0 J-3.175
G1 Y104.773
G3 X195.055 Y102.527 I3.175 J0
G2 Y102.245 I-0.141 J-0.141
G2 X194.914 Y102.186 I-0.141 J0.141
G2 X194.773 Y102.245 I0 J0.2
G3 X192.527 Y103.175 I-2.246 J-2.245
G1 X157.3
G3 X154.125 Y100 I0 J-3.175
G1 Y96.554
G1 Z-9.7
G1 Y80.204
G1 Z-13.7 F500.
G1 Y75.65 F600.
G3 X156.718 Y72.529 I3.175 J0
G2 X300.712 Y19.308 I-83.425 J-447.124
G3 X303.122 Y18.991 I1.587 J2.75
G3 X305.05 Y20.47 I-0.822 J3.067
G1 X308.365 Y26.213
G1 Z-9.7
G1 X316.54 Y40.373
G1 Z-13.7 F500.
G1 X320.03 Y46.417 F600.
G3 X318.868 Y50.754 I-2.75 J1.587
G1 X312.576 Y54.387
G3 X310.166 Y54.704 I-1.588 J-2.75
G2 X309.921 Y54.846 I-0.052 J0.193
G2 X309.941 Y54.998 I0.193 J0.052
G2 X310.062 Y55.091 I0.173 J-0.1
G3 X311.991 Y56.57 I-0.821 J3.067
G1 X322.257 Y74.352
G3 X322.574 Y76.761 I-2.75 J1.588
G2 X322.715 Y77.006 I0.193 J0.052
G2 X322.96 Y76.864 I0.052 J-0.193
G3 X324.439 Y74.936 I3.067 J0.822
G1 X330.731 Y71.303
G3 X333.141 Y70.986 I1.588 J2.75
G3 X335.069 Y72.465 I-0.822 J3.067
G1 X350.05 Y98.412
G3 X348.888 Y102.75 I-2.75 J1.588
G3 X347.3 Y103.175 I-1.588 J-2.75
G1 X332.031
G2 X328.856 Y106.35 I0 J3.175
G1 Y109.525
G1 Y109.742 Z-13.693
G1 Y109.957 Z-13.67
G1 Y110.171 Z-13.634
G1 Y110.382 Z-13.582
G1 Y110.588 Z-13.517
G1 Y110.79 Z-13.437
G1 Y110.986 Z-13.344
G1 Y111.175 Z-13.238
G1 Y111.356 Z-13.119
G1 Y111.529 Z-12.988
G1 Y111.692 Z-12.845
G1 Y111.845 Z-12.692
G1 Y111.988 Z-12.529
G1 Y112.119 Z-12.356
G1 Y112.238 Z-12.175
G1 Y112.344 Z-11.986
G1 Y112.437 Z-11.79
G1 Y112.517 Z-11.588
G1 Y112.582 Z-11.382
G1 Y112.634 Z-11.171
G1 Y112.67 Z-10.957
G1 Y112.693 Z-10.742
G1 Y112.7 Z-10.525
G0 Z8

(2D CONTOUR10)
G0 X318.156 Y212.7
G0 Z8
G0 Z7.35
G1 Z-1.392 F500.
G1 Y212.693 Z-1.608
G1 Y212.67 Z-1.824
G1 Y212.634 Z-2.038
G1 Y212.582 Z-2.248
G1 Y212.517 Z-2.455
G1 Y212.437 Z-2.657
G1 Y212.344 Z-2.852
G1 Y212.238 Z-3.041
G1 Y212.119 Z-3.223
G1 Y211.988 Z-3.395
G1 Y211.845 Z-3.559
G1 Y211.692 Z-3.712
G1 Y211.529 Z-3.855
G1 Y211.356 Z-3.986
G1 Y211.175 Z-4.104
G1 Y210.986 Z-4.211
G1 Y210.79 Z-4.304
G1 Y210.588 Z-4.383
G1 Y210.382 Z-4.449
G1 Y210.171 Z-4.5
G1 Y209.957 Z-4.537
G1 Y209.742 Z-4.559
G1 Y209.525 Z-4.567
G1 Y206.35 F600.
G2 X314.981 Y203.175 I-3.175 J0
G1 X297.073
G3 X294.827 Y202.245 I0 J-3.175
G2 X294.545 I-0.141 J0.141
G2 X294.486 Y202.386 I0.141 J0.141
G2 X294.545 Y202.527 I0.2 J0
G3 X295.475 Y204.773 I-2.245 J2.246
G1 Y212
G3 X292.3 Y215.175 I-3.175 J0
G1 X252.3
G3 X249.125 Y212 I0 J-3.175
G1 Y204.773
G3 X250.055 Y202.527 I3.175 J0
G2 Y202.245 I-0.141 J-0.141
G2 X249.914 Y202.186 I-0.141 J0.141
G2 X249.773 Y202.245 I0 J0.2
G3 X247.527 Y203.175 I-2.246 J-2.245
G1 X212.073
G3 X209.827 Y202.245 I0 J-3.175
G2 X209.545 I-0.141 J0.141
G2 X209.486 Y202.386 I0.141 J0.141
G2 X209.545 Y202.527 I0.2 J0
G3 X210.475 Y204.773 I-2.245 J2.246
G1 Y212
G3 X207.3 Y215.175 I-3.175 J0
G1 X167.3
G3 X164.125 Y212 I0 J-3.175
G1 Y204.773
G3 X165.055 Y202.527 I3.175 J0
G2 Y202.245 I-0.141 J-0.141
G2 X164.914 Y202.186 I-0.141 J0.141
G2 X164.773 Y202.245 I0 J0.2
G3 X162.527 Y203.175 I-2.246 J-2.245
G1 X142.3
G3 X139.125 Y200 I0 J-3.175
G3 X139.55 Y198.412 I3.175 J0
G1 X154.531 Y172.465
G3 X156.459 Y170.986 I2.75 J1.588
G3 X158.869 Y171.303 I0.822 J3.067
G1 X165.161 Y174.936
G3 X166.64 Y176.865 I-1.588 J2.75
G2 X166.885 Y177.006 I0.193 J-0.052
G2 X167.006 Y176.913 I-0.052 J-0.193
G2 X167.026 Y176.761 I-0.173 J-0.1
G3 X167.343 Y174.351 I3.067 J-0.822
G1 X177.609 Y156.57
G3 X179.538 Y155.091 I2.75 J1.588
G2 X179.679 Y154.846 I-0.052 J-0.193
G2 X179.586 Y154.725 I-0.193 J0.052
G2 X179.434 Y154.705 I-0.1 J0.173
G3 X177.024 Y154.388 I-0.822 J-3.067
G1 X170.732 Y150.755
G3 X169.57 Y146.418 I1.588 J-2.75
G1 X184.55 Y120.471
G3 X186.478 Y118.991 I2.75 J1.587
G3 X188.887 Y119.308 I0.822 J3.067
G2 X332.882 Y172.529 I227.419 J-393.904
G3 X335.475 Y175.65 I-0.582 J3.121
G1 Y200
G3 X332.3 Y203.175 I-3.175 J0
G1 X314.981
G1 X302.981
G2 X299.806 Y206.35 I0 J3.175
G1 Y209.525
G1 Y209.742 Z-4.559
G1 Y209.957 Z-4.537
G1 Y210.171 Z-4.5
G1 Y210.382 Z-4.449
G1 Y210.588 Z-4.383
G1 Y210.79 Z-4.304
G1 Y210.986 Z-4.211
G1 Y211.175 Z-4.104
G1 Y211.356 Z-3.986
G1 Y211.529 Z-3.855
G1 Y211.692 Z-3.712
G1 Y211.845 Z-3.559
G1 Y211.988 Z-3.395
G1 Y212.119 Z-3.223
G1 Y212.238 Z-3.041
G1 Y212.344 Z-2.852
G1 Y212.437 Z-2.657
G1 Y212.517 Z-2.455
G1 Y212.582 Z-2.248
G1 Y212.634 Z-2.038
G1 Y212.67 Z-1.824
G1 Y212.693 Z-1.608
G1 Y212.7 Z-1.392
G1 X318.156
G1 Z-5.958 F500.
G1 Y212.693 Z-6.175
G1 Y212.67 Z-6.391
G1 Y212.634 Z-6.604
G1 Y212.582 Z-6.815
G1 Y212.517 Z-7.022
G1 Y212.437 Z-7.223
G1 Y212.344 Z-7.419
G1 Y212.238 Z-7.608
G1 Y212.119 Z-7.789
G1 Y211.988 Z-7.962
G1 Y211.845 Z-8.125
G1 Y211.692 Z-8.279
G1 Y211.529 Z-8.421
G1 Y211.356 Z-8.552
G1 Y211.175 Z-8.671
G1 Y210.986 Z-8.777
G1 Y210.79 Z-8.87
G1 Y210.588 Z-8.95
G1 Y210.382 Z-9.016
G1 Y210.171 Z-9.067
G1 Y209.957 Z-9.104
G1 Y209.742 Z-9.126
G1 Y209.525 Z-9.133
G1 Y206.35 F600.
G2 X314.981 Y203.175 I-3.175 J0
G1 X297.073
G3 X294.827 Y202.245 I0 J-3.175
G2 X294.545 I-0.141 J0.141
G2 X294.486 Y202.386 I0.141 J0.141
G2 X294.545 Y202.527 I0.2 J0
G3 X295.475 Y204.773 I-2.245 J2.246
G1 Y212
G3 X292.3 Y215.175 I-3.175 J0
G1 X252.3
G3 X249.125 Y212 I0 J-3.175
G1 Y204.773
G3 X250.055 Y202.527 I3.175 J0
G2 Y202.245 I-0.141 J-0.141
G2 X249.914 Y202.186 I-0.141 J0.141
G2 X249.773 Y202.245 I0 J0.2
G3 X247.527 Y203.175 I-2.246 J-2.245
G1 X212.073
G3 X209.827 Y202.245 I0 J-3.175
G2 X209.545 I-0.141 J0.141
G2 X209.486 Y202.386 I0.141 J0.141
G2 X209.545 Y202.527 I0.2 J0
G3 X210.475 Y204.773 I-2.245 J2.246
G1 Y212
G3 X207.3 Y215.175 I-3.175 J0
G1 X167.3
G3 X164.125 Y212 I0 J-3.175
G1 Y204.773
G3 X165.055 Y202.527 I3.175 J0
G2 Y202.245 I-0.141 J-0.141
G2 X164.914 Y202.186 I-0.141 J0.141
G2 X164.773 Y202.245 I0 J0.2
G3 X162.527 Y203.175 I-2.246 J-2.245
G1 X142.3
G3 X139.125 Y200 I0 J-3.175
G3 X139.55 Y198.412 I3.175 J0
G1 X154.531 Y172.465
G3 X156.459 Y170.986 I2.75 J1.588
G3 X158.869 Y171.303 I0.822 J3.067
G1 X165.161 Y174.936
G3 X166.64 Y176.865 I-1.588 J2.75
G2 X166.885 Y177.006 I0.193 J-0.052
G2 X167.006 Y176.913 I-0.052 J-0.193
G2 X167.026 Y176.761 I-0.173 J-0.1
G3 X167.343 Y174.351 I3.067 J-0.822
G1 X177.609 Y156.57
G3 X179.538 Y155.091 I2.75 J1.588
G2 X179.679 Y154.846 I-0.052 J-0.193
G2 X179.586 Y154.725 I-0.193 J0.052
G2 X179.434 Y154.705 I-0.1 J0.173
G3 X177.024 Y154.388 I-0.822 J-3.067
G1 X170.732 Y150.755
G3 X169.57 Y146.418 I1.588 J-2.75
G1 X184.55 Y120.471
G3 X186.478 Y118.991 I2.75 J1.587
G3 X188.887 Y119.308 I0.822 J3.067
G2 X332.882 Y172.529 I227.419 J-393.904
G3 X335.475 Y175.65 I-0.582 J3.121
G1 Y200
G3 X332.3 Y203.175 I-3.175 J0
G1 X314.981
G1 X302.981
G2 X299.806 Y206.35 I0 J3.175
G1 Y209.525
G1 Y209.742 Z-9.126
G1 Y209.957 Z-9.104
G1 Y210.171 Z-9.067
G1 Y210.382 Z-9.016
G1 Y210.588 Z-8.95
G1 Y210.79 Z-8.87
G1 Y210.986 Z-8.777
G1 Y211.175 Z-8.671
G1 Y211.356 Z-8.552
G1 Y211.529 Z-8.421
G1 Y211.692 Z-8.279
G1 Y211.845 Z-8.125
G1 Y211.988 Z-7.962
G1 Y212.119 Z-7.789
G1 Y212.238 Z-7.608
G1 Y212.344 Z-7.419
G1 Y212.437 Z-7.223
G1 Y212.517 Z-7.022
G1 Y212.582 Z-6.815
G1 Y212.634 Z-6.604
G1 Y212.67 Z-6.391
G1 Y212.693 Z-6.175
G1 Y212.7 Z-5.958
G1 X318.156
G1 Z-10.525 F500.
G1 Y212.693 Z-10.742
G1 Y212.67 Z-10.957
G1 Y212.634 Z-11.171
G1 Y212.582 Z-11.382
G1 Y212.517 Z-11.588
G1 Y212.437 Z-11.79
G1 Y212.344 Z-11.986
G1 Y212.238 Z-12.175
G1 Y212.119 Z-12.356
G1 Y211.988 Z-12.529
G1 Y211.845 Z-12.692
G1 Y211.692 Z-12.845
G1 Y211.529 Z-12.988
G1 Y211.356 Z-13.119
G1 Y211.175 Z-13.238
G1 Y210.986 Z-13.344
G1 Y210.79 Z-13.437
G1 Y210.588 Z-13.517
G1 Y210.382 Z-13.582
G1 Y210.171 Z-13.634
G1 Y209.957 Z-13.67
G1 Y209.742 Z-13.693
G1 Y209.525 Z-13.7
G1 Y206.35 F600.
G2 X314.981 Y203.175 I-3.175 J0
G1 X297.073
G3 X294.827 Y202.245 I0 J-3.175
G2 X294.545 I-0.141 J0.141
G2 X294.486 Y202.386 I0.141 J0.141
G2 X294.545 Y202.527 I0.2 J0
G3 X295.475 Y204.773 I-2.245 J2.246
G1 Y212
G3 X292.3 Y215.175 I-3.175 J0
G1 X252.3
G3 X249.125 Y212 I0 J-3.175
G1 Y204.773
G3 X250.055 Y202.527 I3.175 J0
G2 Y202.245 I-0.141 J-0.141
G2 X249.914 Y202.186 I-0.141 J0.141
G2 X249.773 Y202.245 I0 J0.2
G3 X247.527 Y203.175 I-2.246 J-2.245
G1 X212.073
G3 X209.827 Y202.245 I0 J-3.175
G2 X209.545 I-0.141 J0.141
G2 X209.486 Y202.386 I0.141 J0.141
G2 X209.545 Y202.527 I0.2 J0
G3 X210.475 Y204.773 I-2.245 J2.246
G1 Y212
G3 X207.3 Y215.175 I-3.175 J0
G1 X195.177
G1 Z-9.7
G1 X178.827
G1 Z-13.7 F500.
G1 X167.3 F600.
G3 X164.125 Y212 I0 J-3.175
G1 Y204.773
G3 X165.055 Y202.527 I3.175 J0
G2 Y202.245 I-0.141 J-0.141
G2 X164.914 Y202.186 I-0.141 J0.141
G2 X164.773 Y202.245 I0 J0.2
G3 X162.527 Y203.175 I-2.246 J-2.245
G1 X142.3
G3 X139.125 Y200 I0 J-3.175
G3 X139.55 Y198.412 I3.175 J0
G1 X154.531 Y172.465
G3 X156.459 Y170.986 I2.75 J1.588
G3 X158.869 Y171.303 I0.822 J3.067
G1 X165.161 Y174.936
G3 X166.64 Y176.865 I-1.588 J2.75
G2 X166.885 Y177.006 I0.193 J-0.052
G2 X167.006 Y176.913 I-0.052 J-0.193
G2 X167.026 Y176.761 I-0.173 J-0.1
G3 X167.343 Y174.351 I3.067 J-0.822
G1 X177.609 Y156.57
G3 X179.538 Y155.091 I2.75 J1.588
G2 X179.679 Y154.846 I-0.052 J-0.193
G2 X179.586 Y154.725 I-0.193 J0.052
G2 X179.434 Y154.705 I-0.1 J0.173
G3 X177.024 Y154.388 I-0.822 J-3.067
G1 X170.732 Y150.755
G3 X169.57 Y146.418 I1.588 J-2.75
G1 X174.393 Y138.064
G1 Z-9.7
G1 X182.568 Y123.905
G1 Z-13.7 F500.
G1 X184.55 Y120.471 F600.
G3 X186.478 Y118.991 I2.75 J1.587
G3 X188.887 Y119.308 I0.822 J3.067
G2 X332.882 Y172.529 I227.419 J-393.904
G3 X335.475 Y175.65 I-0.582 J3.121
G1 Y180.34
G1 Z-9.7
G1 Y196.69
G1 Z-13.7 F500.
G1 Y200 F600.
G3 X332.3 Y203.175 I-3.175 J0
G1 X302.981
G2 X299.806 Y206.35 I0 J3.175
G1 Y209.525
G1 Y209.742 Z-13.693
G1 Y209.957 Z-13.67
G1 Y210.171 Z-13.634
G1 Y210.382 Z-13.582
G1 Y210.588 Z-13.517
G1 Y210.79 Z-13.437
G1 Y210.986 Z-13.344
G1 Y211.175 Z-13.238
G1 Y211.356 Z-13.119
G1 Y211.529 Z-12.988
G1 Y211.692 Z-12.845
G1 Y211.845 Z-12.692
G1 Y211.988 Z-12.529
G1 Y212.119 Z-12.356
G1 Y212.238 Z-12.175
G1 Y212.344 Z-11.986
G1 Y212.437 Z-11.79
G1 Y212.517 Z-11.588
G1 Y212.582 Z-11.382
G1 Y212.634 Z-11.171
G1 Y212.67 Z-10.957
G1 Y212.693 Z-10.742
G1 Y212.7 Z-10.525
G0 Z8

G0 Z8
M5
M30
