(METICULOUSSLED_HDPE)
(T1  D=6.35 CR=0 - ZMIN=-4.219 - FLAT END MILL)
G0 G40 G90 G17
G21

(45 DEGREE LINKAGE POCKETS)
T1 M6
M3 S12000
G0 X173.594 Y342.409
G0 Z8
G0 Z6
G1 Z2.5 F600.
G1 X184.896 Z0.507 F500.
G2 X186.484 Y340.822 I0 J-1.587
G2 X184.896 Y339.234 I-1.587 J0
G1 X173.267 Z-1.543
G2 X171.68 Y340.822 I0 J1.587
G2 X173.267 Y342.409 I1.587 J0
G1 X184.896 Z-3.594
G2 X186.484 Y340.822 I0 J-1.587
G2 X184.896 Y339.234 I-1.587 J0
G1 X181.353 Z-4.219
G3 X180.559 Y338.441 I0 J-0.794
G3 X181.353 Y337.647 I0.794 J0
G3 X182.147 Y338.441 I0 J0.794
G3 X182.095 Y338.723 I-0.794 J0
G1 X181.405 Y340.54
G2 X181.353 Y340.822 I0.742 J0.282
G2 X181.678 Y341.147 I0.325 J0 F600.
G2 X182.003 Y340.822 I0 J-0.325
G2 X179.178 Y337.997 I-2.825 J0
G2 X176.353 Y340.822 I0 J2.825
G2 X181.678 Y346.147 I5.325 J0
G2 X187.003 Y340.822 I0 J-5.325
G2 X179.178 Y332.997 I-7.825 J0
G2 X171.353 Y340.822 I0 J7.825
G2 X179.178 Y348.647 I7.825 J0
G2 X187.003 Y340.822 I0 J-7.825
G1 X186.999 Y340.657 Z-4.206
G1 X186.986 Y340.491 Z-4.193
G1 X186.964 Y340.327 Z-4.18
G1 X186.935 Y340.169 Z-4.141
G1 X186.898 Y340.011 Z-4.102
G1 X186.853 Y339.856 Z-4.063
G1 X186.802 Y339.711 Z-4
G1 X186.745 Y339.569 Z-3.936
G1 X186.681 Y339.43 Z-3.873
G1 X186.582 Y339.242 Z-3.743
G1 X186.47 Y339.061 Z-3.612
G1 X186.36 Y338.907 Z-3.451
G1 X186.242 Y338.759 Z-3.289
G1 X186.134 Y338.639 Z-3.099
G1 X186.019 Y338.525 Z-2.91
G1 X185.923 Y338.437 Z-2.698
G1 X185.824 Y338.353 Z-2.485
G1 X185.672 Y338.237 Z-2.025
G1 X185.576 Y338.172 Z-1.54
G1 X185.543 Y338.15 Z-1.044
G0 Z6
G0 X335.238 Y342.409
G1 Z2.5 F600.
G1 X346.54 Z0.507 F500.
G2 X348.128 Y340.822 I0 J-1.587
G2 X346.54 Y339.234 I-1.587 J0
G1 X334.911 Z-1.543
G2 X333.324 Y340.822 I0 J1.587
G2 X334.911 Y342.409 I1.587 J0
G1 X346.54 Z-3.594
G2 X348.128 Y340.822 I0 J-1.587
G2 X346.54 Y339.234 I-1.587 J0
G1 X342.997 Z-4.219
G3 X342.203 Y338.441 I0 J-0.794
G3 X342.997 Y337.647 I0.794 J0
G3 X343.791 Y338.441 I0 J0.794
G3 X343.739 Y338.723 I-0.794 J0
G1 X343.049 Y340.54
G2 X342.997 Y340.822 I0.742 J0.282
G2 X343.322 Y341.147 I0.325 J0 F600.
G2 X343.647 Y340.822 I0 J-0.325
G2 X340.822 Y337.997 I-2.825 J0
G2 X337.997 Y340.822 I0 J2.825
G2 X343.322 Y346.147 I5.325 J0
G2 X348.647 Y340.822 I0 J-5.325
G2 X340.822 Y332.997 I-7.825 J0
G2 X332.997 Y340.822 I0 J7.825
G2 X340.822 Y348.647 I7.825 J0
G2 X348.647 Y340.822 I0 J-7.825
G1 X348.643 Y340.657 Z-4.206
G1 X348.63 Y340.491 Z-4.193
G1 X348.608 Y340.327 Z-4.18
G1 X348.579 Y340.169 Z-4.141
G1 X348.542 Y340.011 Z-4.102
G1 X348.497 Y339.856 Z-4.063
G1 X348.446 Y339.711 Z-4
G1 X348.389 Y339.569 Z-3.936
G1 X348.325 Y339.43 Z-3.873
G1 X348.226 Y339.242 Z-3.743
G1 X348.114 Y339.061 Z-3.612
G1 X348.004 Y338.907 Z-3.451
G1 X347.886 Y338.759 Z-3.289
G1 X347.778 Y338.639 Z-3.099
G1 X347.663 Y338.525 Z-2.91
G1 X347.567 Y338.437 Z-2.698
G1 X347.468 Y338.353 Z-2.485
G1 X347.316 Y338.237 Z-2.025
G1 X347.22 Y338.172 Z-1.54
G1 X347.187 Y338.15 Z-1.044
G0 Z6
G0 X335.238 Y180.766
G1 Z2.5 F600.
G1 X346.54 Z0.507 F500.
G2 X348.128 Y179.178 I0 J-1.588
G2 X346.54 Y177.59 I-1.588 J0
G1 X334.911 Z-1.543
G2 X333.324 Y179.178 I0 J1.587
G2 X334.911 Y180.766 I1.588 J0
G1 X346.54 Z-3.594
G2 X348.128 Y179.178 I0 J-1.588
G2 X346.54 Y177.59 I-1.588 J0
G1 X342.997 Z-4.219
G3 X342.203 Y176.797 I0 J-0.794
G3 X342.997 Y176.003 I0.794 J0
G3 X343.791 Y176.797 I0 J0.794
G3 X343.739 Y177.079 I-0.794 J0
G1 X343.049 Y178.896
G2 X342.997 Y179.178 I0.742 J0.282
G2 X343.322 Y179.503 I0.325 J0 F600.
G2 X343.647 Y179.178 I0 J-0.325
G2 X340.822 Y176.353 I-2.825 J0
G2 X337.997 Y179.178 I0 J2.825
G2 X343.322 Y184.503 I5.325 J0
G2 X348.647 Y179.178 I0 J-5.325
G2 X340.822 Y171.353 I-7.825 J0
G2 X332.997 Y179.178 I0 J7.825
G2 X340.822 Y187.003 I7.825 J0
G2 X348.647 Y179.178 I0 J-7.825
G1 X348.643 Y179.013 Z-4.206
G1 X348.63 Y178.847 Z-4.193
G1 X348.608 Y178.683 Z-4.18
G1 X348.579 Y178.525 Z-4.141
G1 X348.542 Y178.367 Z-4.102
G1 X348.497 Y178.212 Z-4.063
G1 X348.446 Y178.067 Z-4
G1 X348.389 Y177.925 Z-3.936
G1 X348.325 Y177.786 Z-3.873
G1 X348.226 Y177.598 Z-3.743
G1 X348.114 Y177.417 Z-3.612
G1 X348.004 Y177.263 Z-3.451
G1 X347.886 Y177.115 Z-3.289
G1 X347.778 Y176.995 Z-3.099
G1 X347.663 Y176.881 Z-2.91
G1 X347.567 Y176.793 Z-2.698
G1 X347.468 Y176.709 Z-2.485
G1 X347.316 Y176.593 Z-2.025
G1 X347.22 Y176.528 Z-1.54
G1 X347.187 Y176.506 Z-1.044
G0 Z6
G0 X173.594 Y180.766
G1 Z2.5 F600.
G1 X184.896 Z0.507 F500.
G2 X186.484 Y179.178 I0 J-1.588
G2 X184.896 Y177.59 I-1.588 J0
G1 X173.267 Z-1.543
G2 X171.68 Y179.178 I0 J1.587
G2 X173.267 Y180.766 I1.588 J0
G1 X184.896 Z-3.594
G2 X186.484 Y179.178 I0 J-1.588
G2 X184.896 Y177.59 I-1.588 J0
G1 X181.353 Z-4.219
G3 X180.559 Y176.797 I0 J-0.794
G3 X181.353 Y176.003 I0.794 J0
G3 X182.147 Y176.797 I0 J0.794
G3 X182.095 Y177.079 I-0.794 J0
G1 X181.405 Y178.896
G2 X181.353 Y179.178 I0.742 J0.282
G2 X181.678 Y179.503 I0.325 J0 F600.
G2 X182.003 Y179.178 I0 J-0.325
G2 X179.178 Y176.353 I-2.825 J0
G2 X176.353 Y179.178 I0 J2.825
G2 X181.678 Y184.503 I5.325 J0
G2 X187.003 Y179.178 I0 J-5.325
G2 X179.178 Y171.353 I-7.825 J0
G2 X171.353 Y179.178 I0 J7.825
G2 X179.178 Y187.003 I7.825 J0
G2 X187.003 Y179.178 I0 J-7.825
G1 X186.999 Y179.013 Z-4.206
G1 X186.986 Y178.847 Z-4.193
G1 X186.964 Y178.683 Z-4.18
G1 X186.935 Y178.525 Z-4.141
G1 X186.898 Y178.367 Z-4.102
G1 X186.853 Y178.212 Z-4.063
G1 X186.802 Y178.067 Z-4
G1 X186.745 Y177.925 Z-3.936
G1 X186.681 Y177.786 Z-3.873
G1 X186.582 Y177.598 Z-3.743
G1 X186.47 Y177.417 Z-3.612
G1 X186.36 Y177.263 Z-3.451
G1 X186.242 Y177.115 Z-3.289
G1 X186.134 Y176.995 Z-3.099
G1 X186.019 Y176.881 Z-2.91
G1 X185.923 Y176.793 Z-2.698
G1 X185.824 Y176.709 Z-2.485
G1 X185.672 Y176.593 Z-2.025
G1 X185.576 Y176.528 Z-1.54
G1 X185.543 Y176.506 Z-1.044
G0 Z8

(TOP MOUNT LINKAGE POCKETS)
G0 X263.351 Y185.387
G0 Z8
G0 Z6
G1 Z2.5 F600.
G1 X267.597 Z1.751 F500.
G2 X269.184 Y183.8 I0 J-1.587
G2 X267.597 Y182.212 I-1.588 J0
G1 X254.053 Z-0.637
G2 X252.466 Y183.8 I0 J1.588
G2 X254.053 Y185.387 I1.588 J0
G1 X267.597 Z-3.025
G2 X269.184 Y183.8 I0 J-1.587
G2 X267.597 Y182.212 I-1.588 J0
G1 X260.825 Z-4.219
G2 X260.264 Y182.445 I0 J0.794
G1 X259.47 Y183.239
G2 Y184.361 I0.561 J0.561
G2 X260.593 I0.561 J-0.561
G2 X260.825 Y183.8 I-0.561 J-0.561
G2 X260 Y182.975 I-0.825 J0 F600.
G2 X259.175 Y183.8 I0 J0.825
G2 X262.5 Y187.125 I3.325 J0
G2 X265.825 Y183.8 I0 J-3.325
G2 X260 Y177.975 I-5.825 J0
G2 X254.175 Y183.8 I0 J5.825
G2 X262.5 Y192.125 I8.325 J0
G2 X270.825 Y183.8 I0 J-8.325
G2 X260 Y172.975 I-10.825 J0
G2 X249.175 Y183.8 I0 J10.825
G2 X260 Y194.625 I10.825 J0
G2 X270.825 Y183.8 I0 J-10.825
G1 X270.821 Y183.635 Z-4.206
G1 X270.808 Y183.469 Z-4.193
G1 X270.786 Y183.305 Z-4.18
G1 X270.757 Y183.147 Z-4.141
G1 X270.72 Y182.989 Z-4.102
G1 X270.675 Y182.834 Z-4.063
G1 X270.624 Y182.689 Z-4
G1 X270.567 Y182.547 Z-3.936
G1 X270.503 Y182.408 Z-3.873
G1 X270.404 Y182.22 Z-3.743
G1 X270.292 Y182.039 Z-3.612
G1 X270.182 Y181.885 Z-3.451
G1 X270.064 Y181.737 Z-3.289
G1 X269.956 Y181.617 Z-3.099
G1 X269.841 Y181.503 Z-2.91
G1 X269.745 Y181.415 Z-2.698
G1 X269.646 Y181.331 Z-2.485
G1 X269.494 Y181.215 Z-2.025
G1 X269.398 Y181.15 Z-1.54
G1 X269.365 Y181.128 Z-1.044
G0 Z6
G0 X263.351 Y32.987
G1 Z2.5 F600.
G1 X267.597 Z1.751 F500.
G2 X269.184 Y31.4 I0 J-1.587
G2 X267.597 Y29.813 I-1.587 J0
G1 X254.053 Z-0.637
G2 X252.466 Y31.4 I0 J1.587
G2 X254.053 Y32.987 I1.587 J0
G1 X267.597 Z-3.025
G2 X269.184 Y31.4 I0 J-1.587
G2 X267.597 Y29.813 I-1.587 J0
G1 X260.825 Z-4.219
G2 X260.264 Y30.045 I0 J0.794
G1 X259.47 Y30.839
G2 Y31.961 I0.561 J0.561
G2 X260.593 I0.561 J-0.561
G2 X260.825 Y31.4 I-0.561 J-0.561
G2 X260 Y30.575 I-0.825 J0 F600.
G2 X259.175 Y31.4 I0 J0.825
G2 X262.5 Y34.725 I3.325 J0
G2 X265.825 Y31.4 I0 J-3.325
G2 X260 Y25.575 I-5.825 J0
G2 X254.175 Y31.4 I0 J5.825
G2 X262.5 Y39.725 I8.325 J0
G2 X270.825 Y31.4 I0 J-8.325
G2 X260 Y20.575 I-10.825 J0
G2 X249.175 Y31.4 I0 J10.825
G2 X260 Y42.225 I10.825 J0
G2 X270.825 Y31.4 I0 J-10.825
G1 X270.821 Y31.235 Z-4.206
G1 X270.808 Y31.069 Z-4.193
G1 X270.786 Y30.905 Z-4.18
G1 X270.757 Y30.747 Z-4.141
G1 X270.72 Y30.589 Z-4.102
G1 X270.675 Y30.434 Z-4.063
G1 X270.624 Y30.289 Z-4
G1 X270.567 Y30.147 Z-3.936
G1 X270.503 Y30.008 Z-3.873
G1 X270.404 Y29.82 Z-3.743
G1 X270.292 Y29.639 Z-3.612
G1 X270.182 Y29.485 Z-3.451
G1 X270.064 Y29.337 Z-3.289
G1 X269.956 Y29.217 Z-3.099
G1 X269.841 Y29.103 Z-2.91
G1 X269.745 Y29.015 Z-2.698
G1 X269.646 Y28.931 Z-2.485
G1 X269.494 Y28.815 Z-2.025
G1 X269.398 Y28.75 Z-1.54
G1 X269.365 Y28.728 Z-1.044
G0 Z8

(2D CONTOUR8)
G0 X311.418 Y274.72
G0 Z8
G0 Z7
G1 Z-0.544 F300.
G1 X311.425 Y274.719 Z-0.76
G1 X311.447 Y274.715 Z-0.976
G1 X311.484 Y274.71 Z-1.19
G1 X311.534 Y274.702 Z-1.4
G1 X311.599 Y274.693 Z-1.607
G1 X311.678 Y274.681 Z-1.809
G1 X311.77 Y274.667 Z-2.004
G1 X311.875 Y274.651 Z-2.193
G1 X311.993 Y274.634 Z-2.375
G1 X312.122 Y274.614 Z-2.547
G1 X312.263 Y274.593 Z-2.711
G1 X312.415 Y274.57 Z-2.864
G1 X312.576 Y274.546 Z-3.007
G1 X312.747 Y274.521 Z-3.138
G1 X312.926 Y274.494 Z-3.257
G1 X313.113 Y274.466 Z-3.363
G1 X313.307 Y274.437 Z-3.456
G1 X313.506 Y274.407 Z-3.535
G1 X313.711 Y274.376 Z-3.601
G1 X313.919 Y274.345 Z-3.652
G1 X314.13 Y274.314 Z-3.689
G1 X314.344 Y274.282 Z-3.711
G1 X314.558 Y274.25 Z-3.719
G1 X316.041 Y274.027 F600.
G2 X316.882 Y272.89 I-0.148 J-0.989
G3 X316.622 Y264.796 I34.434 J-5.157
G2 X301.361 Y221.034 I-56.622 J-4.796
G1 Z-1.719
G2 X288.554 Y210.87 I-41.361 J38.966
G1 Z-3.719 F300.
G2 X236.805 Y208.124 I-28.554 J49.13 F600.
G1 Z-1.719
G2 X222.995 Y216.876 I23.195 J51.876
G1 Z-3.719 F300.
G2 X203.378 Y264.796 I37.005 J43.124 F600.
G3 X200.966 Y280.779 I-34.694 J2.938
G2 X202.191 Y295.473 I15.177 J6.133
G3 X205.88 Y301.906 I-106.635 J65.425
G3 X211.16 Y312.726 I-143.222 J76.595
G1 Z-1.719
G3 X217.021 Y327.99 I-148.503 J65.775
G1 Z-3.719 F300.
G3 X222.63 Y350.426 I-154.363 J50.511 F600.
G2 X242.157 Y366.825 I19.527 J-3.426
G1 X252.537
G1 Z-1.719
G1 X268.887
G1 Z-3.719 F300.
G1 X277.843 F600.
G2 X297.37 Y350.426 I0 J-19.825
G3 X303.672 Y325.921 I159.972 J28.074
G1 Z-1.719
G3 X309.737 Y310.737 I153.67 J52.58
G1 Z-3.719 F300.
G3 X314.12 Y301.906 I147.605 J67.764 F600.
G3 X317.809 Y295.474 I110.323 J58.992
G2 X319.034 Y280.779 I-13.952 J-8.562
G3 X316.622 Y264.796 I32.282 J-13.045
G2 X316.818 Y260.918 I-56.622 J-4.796
G2 X315.834 Y259.902 I-1 J-0.016
G1 X314.334 Y259.878
G1 X314.117 Y259.875 Z-3.711
G1 X313.902 Y259.871 Z-3.689
G1 X313.688 Y259.868 Z-3.652
G1 X313.478 Y259.864 Z-3.601
G1 X313.271 Y259.861 Z-3.535
G1 X313.069 Y259.858 Z-3.456
G1 X312.874 Y259.855 Z-3.363
G1 X312.685 Y259.852 Z-3.257
G1 X312.503 Y259.849 Z-3.138
G1 X312.331 Y259.846 Z-3.007
G1 X312.167 Y259.843 Z-2.864
G1 X312.014 Y259.841 Z-2.711
G1 X311.872 Y259.838 Z-2.547
G1 X311.741 Y259.836 Z-2.375
G1 X311.622 Y259.834 Z-2.193
G1 X311.515 Y259.833 Z-2.004
G1 X311.422 Y259.831 Z-1.809
G1 X311.343 Y259.83 Z-1.607
G1 X311.277 Y259.829 Z-1.4
G1 X311.226 Y259.828 Z-1.19
G1 X311.189 Y259.827 Z-0.976
G1 X311.167 Z-0.76
G1 X311.16 Z-0.544
G0 Z8

(2D CONTOUR7)
G0 X373.6 Y492.593
G0 Z8
G0 Z7
G1 Z-1.044 F300.
G1 X373.597 Y492.586 Z-1.26
G1 X373.587 Y492.566 Z-1.476
G1 X373.571 Y492.533 Z-1.69
G1 X373.549 Y492.487 Z-1.9
G1 X373.52 Y492.428 Z-2.107
G1 X373.486 Y492.356 Z-2.309
G1 X373.445 Y492.272 Z-2.504
G1 X373.399 Y492.176 Z-2.693
G1 X373.347 Y492.069 Z-2.875
G1 X373.29 Y491.951 Z-3.047
G1 X373.228 Y491.823 Z-3.211
G1 X373.161 Y491.685 Z-3.364
G1 X373.09 Y491.538 Z-3.507
G1 X373.015 Y491.383 Z-3.638
G1 X372.936 Y491.219 Z-3.757
G1 X372.854 Y491.049 Z-3.863
G1 X372.769 Y490.873 Z-3.956
G1 X372.681 Y490.691 Z-4.035
G1 X372.591 Y490.505 Z-4.101
G1 X372.499 Y490.316 Z-4.152
G1 X372.406 Y490.123 Z-4.189
G1 X372.312 Y489.929 Z-4.211
G1 X372.218 Y489.734 Z-4.219
G1 X371.565 Y488.384 F600.
G2 X370.229 Y487.919 I-0.9 J0.435
G3 X270.783 Y512.945 I-110.229 J-227.919
G1 Z-2.219
G3 X254.434 Y513.114 I-10.783 J-252.945
G1 Z-4.219 F300.
G3 X58.256 Y412.961 I5.566 J-253.114 F600.
G1 Z-2.219
G3 X48.804 Y399.62 I201.744 J-152.961
G1 Z-4.219 F300.
G3 X30.864 Y152.322 I211.196 J-139.62 F600.
G1 Z-2.219
G3 X38.292 Y137.757 I229.136 J107.678
G1 Z-4.219 F300.
G3 X252.082 Y6.949 I221.708 J122.243 F600.
G1 Z-2.219
G3 X268.432 Y6.965 I7.918 J253.051
G1 Z-4.219 F300.
G3 X474.576 Y125.632 I-8.432 J253.035 F600.
G1 Z-2.219
G3 X482.801 Y139.762 I-214.576 J134.368
G1 Z-4.219 F300.
G3 X475.009 Y393.674 I-222.801 J120.238 F600.
G1 Z-2.219
G3 X465.933 Y407.273 I-215.009 J-133.674
G1 Z-4.219 F300.
G3 X359.307 Y492.886 I-205.933 J-147.273 F600.
G2 X358.779 Y494.198 I0.392 J0.92
G1 X359.367 Y495.578
G1 X359.452 Y495.777 Z-4.211
G1 X359.537 Y495.975 Z-4.189
G1 X359.621 Y496.172 Z-4.152
G1 X359.703 Y496.366 Z-4.101
G1 X359.784 Y496.556 Z-4.035
G1 X359.863 Y496.741 Z-3.956
G1 X359.94 Y496.921 Z-3.863
G1 X360.014 Y497.095 Z-3.757
G1 X360.086 Y497.262 Z-3.638
G1 X360.153 Y497.421 Z-3.507
G1 X360.217 Y497.571 Z-3.364
G1 X360.277 Y497.712 Z-3.211
G1 X360.333 Y497.843 Z-3.047
G1 X360.385 Y497.964 Z-2.875
G1 X360.431 Y498.073 Z-2.693
G1 X360.473 Y498.171 Z-2.504
G1 X360.51 Y498.256 Z-2.309
G1 X360.541 Y498.33 Z-2.107
G1 X360.567 Y498.39 Z-1.9
G1 X360.587 Y498.437 Z-1.69
G1 X360.601 Y498.471 Z-1.476
G1 X360.61 Y498.491 Z-1.26
G1 X360.613 Y498.498 Z-1.044
G0 Z8

G0 Z8
M5
M30
