(METICULOUSSLED_FULLYMASLOWD_3.175MM PLEXI)
(T1  D=6.35 CR=0 - ZMIN=-4.175 - FLAT END MILL)
(T2  D=3.175 CR=0 - ZMIN=-4.175 - FLAT END MILL)
G0 G40 G90 G17
G21

(2D POCKET13)
T2 M6
M3 S10000
G0 X80 Y114.206
G0 Z8
G0 Z6
G1 Z2.5 F400.
G1 Z-4.175 F150.
G2 X79.439 Y114.439 I0 J0.794 F400.
G2 X79.206 Y115 I0.561 J0.561
G2 X80 Y115.794 I0.794 J0
G2 X80.794 Y115 I0 J-0.794
G2 X80 Y114.206 I-0.794 J0
G1 X79.892 Y114.214 Z-4.168
G1 X79.786 Y114.236 Z-4.161
G1 X79.683 Y114.272 Z-4.154
G1 X79.589 Y114.321 Z-4.132
G1 X79.502 Y114.382 Z-4.111
G1 X79.423 Y114.454 Z-4.09
G1 X79.358 Y114.534 Z-4.055
G1 X79.303 Y114.621 Z-4.02
G1 X79.259 Y114.714 Z-3.985
G1 X79.23 Y114.807 Z-3.937
G1 X79.212 Y114.903 Z-3.889
G1 X79.206 Y115 Z-3.841
G1 X79.213 Y115.102 Z-3.771
G1 X79.233 Y115.203 Z-3.701
G1 X79.265 Y115.3 Z-3.631
G1 X79.304 Y115.382 Z-3.546
G1 X79.353 Y115.46 Z-3.462
G1 X79.41 Y115.531 Z-3.377
G1 X79.464 Y115.586 Z-3.28
G1 X79.524 Y115.635 Z-3.183
G1 X79.588 Y115.678 Z-3.086
G1 X79.67 Y115.722 Z-2.925
G1 X79.757 Y115.756 Z-2.763
G1 X79.823 Y115.774 Z-2.59
G1 X79.89 Y115.786 Z-2.416
G1 X79.972 Y115.793 Z-2.053
G1 X80 Y115.794 Z-1.681
G0 Z6
G0 X14.206 Y50
G1 Z2.5 F150.
G1 Z-4.175
G2 X15 Y50.794 I0.794 J0 F400.
G2 X15.794 Y50 I0 J-0.794
G2 X15 Y49.206 I-0.794 J0
G2 X14.206 Y50 I0 J0.794
G1 X14.214 Y50.108 Z-4.168
G1 X14.236 Y50.214 Z-4.161
G1 X14.272 Y50.316 Z-4.154
G1 X14.321 Y50.411 Z-4.132
G1 X14.382 Y50.498 Z-4.111
G1 X14.454 Y50.577 Z-4.09
G1 X14.534 Y50.642 Z-4.055
G1 X14.621 Y50.697 Z-4.02
G1 X14.714 Y50.74 Z-3.985
G1 X14.807 Y50.77 Z-3.937
G1 X14.903 Y50.788 Z-3.889
G1 X15 Y50.794 Z-3.841
G1 X15.102 Y50.787 Z-3.771
G1 X15.203 Y50.767 Z-3.701
G1 X15.3 Y50.735 Z-3.631
G1 X15.382 Y50.696 Z-3.546
G1 X15.459 Y50.647 Z-3.462
G1 X15.531 Y50.59 Z-3.377
G1 X15.586 Y50.536 Z-3.28
G1 X15.635 Y50.476 Z-3.183
G1 X15.678 Y50.412 Z-3.086
G1 X15.722 Y50.33 Z-2.925
G1 X15.756 Y50.243 Z-2.763
G1 X15.774 Y50.177 Z-2.59
G1 X15.786 Y50.11 Z-2.416
G1 X15.793 Y50.028 Z-2.053
G1 X15.794 Y50 Z-1.681
G0 Z6
G0 X145 Y49.207
G1 Z2.5 F150.
G1 Z-4.175
G2 X144.207 Y50 I0 J0.793 F400.
G2 X145 Y50.793 I0.793 J0
G2 X145.793 Y50 I0 J-0.793
G2 X145 Y49.207 I-0.793 J0
G1 X144.892 Y49.214 Z-4.168
G1 X144.786 Y49.236 Z-4.161
G1 X144.684 Y49.272 Z-4.154
G1 X144.589 Y49.321 Z-4.132
G1 X144.502 Y49.382 Z-4.111
G1 X144.424 Y49.455 Z-4.09
G1 X144.358 Y49.534 Z-4.055
G1 X144.303 Y49.621 Z-4.02
G1 X144.26 Y49.714 Z-3.985
G1 X144.23 Y49.807 Z-3.937
G1 X144.212 Y49.903 Z-3.889
G1 X144.206 Y50 Z-3.841
G1 X144.213 Y50.102 Z-3.771
G1 X144.233 Y50.203 Z-3.701
G1 X144.265 Y50.3 Z-3.631
G1 X144.305 Y50.382 Z-3.547
G1 X144.353 Y50.459 Z-3.462
G1 X144.41 Y50.53 Z-3.378
G1 X144.464 Y50.585 Z-3.281
G1 X144.524 Y50.635 Z-3.184
G1 X144.588 Y50.678 Z-3.086
G1 X144.67 Y50.722 Z-2.925
G1 X144.757 Y50.755 Z-2.764
G1 X144.823 Y50.773 Z-2.59
G1 X144.89 Y50.786 Z-2.417
G1 X144.972 Y50.793 Z-2.054
G1 X145 Z-1.682
G0 Z8
G0 Z8

(2D POCKET14)
M5
T1 M6
M3 S12000
G0 X79.524 Y51.588
G0 Z8
G0 Z6
G1 Z2.5 F600.
G1 X81.848 Z1.158 F500.
G2 X83.435 Y50 I0 J-1.588
G2 X81.848 Y48.412 I-1.588 J0
G1 X78.152 Z-0.975
G2 X76.565 Y50 I0 J1.588
G2 X78.152 Y51.588 I1.588 J0
G1 X81.848 Z-3.108
G2 X83.435 Y50 I0 J-1.588
G2 X81.848 Y48.412 I-1.588 J0
G1 X80 Z-4.175
G2 X78.5 Y49.852 I0 J1.501
G1 X78.496 Y49.956
G2 X79.247 Y51.318 I1.5 J0.061
G2 X81.324 Y50.759 I0.759 J-1.318 F600.
G2 X81.527 Y50 I-1.318 J-0.759
G2 X80 Y48.473 I-1.527 J0
G2 X79.189 Y48.706 I0 J1.527
G3 X78.063 Y49.329 I-6.209 J-9.905
G3 X76.893 Y49.864 I-13.417 J-27.789
G2 X76.816 Y50.059 I0.059 J0.136
G2 X76.893 Y50.136 I0.136 J-0.059
G3 X79.247 Y51.318 I-9.141 J21.141
G3 X80.623 Y53.485 I-1.38 J2.396
G2 X82.243 Y54.858 I1.496 J-0.124
G2 X82.92 Y54.631 I-0.124 J-1.496
G2 X84.631 Y47.08 I-2.92 J-4.631
G2 X77.092 Y45.361 I-4.631 J2.92
G3 X70.174 Y47.35 I-6.918 J-11.036
G1 X44.23 Y47.305
G2 X43.883 Y47.63 I0 J0.348
G2 Y52.37 I35.906 J2.37
G2 X44.23 Y52.695 I0.347 J-0.023
G1 X70.174 Y52.65
G3 X77.092 Y54.639 I0 J13.025
G2 X82.92 Y54.631 I2.908 J-4.639
G3 X86.556 Y54.474 I1.956 J3.103
G2 X89.754 Y53.451 I1.088 J-2.11
G2 X89.912 Y53.065 I-2.11 J-1.088
G2 X83.065 Y40.088 I-9.912 J-3.065
G2 X74.49 Y41.209 I-3.065 J9.912
G3 X70.174 Y42.45 I-4.315 J-6.884
G1 X41.222 Y42.405
G2 X40.155 Y42.774 I0 J1.729
G1 X39.872 Y42.996
G2 X39.365 Y43.868 I0.842 J1.073
G2 Y56.132 I41.207 J6.132
G2 X39.872 Y57.004 I1.349 J-0.201
G1 X40.155 Y57.226
G2 X41.222 Y57.595 I1.067 J-1.36
G1 X70.174 Y57.55
G3 X74.49 Y58.791 I0 J8.125
G2 X88.791 Y55.51 I5.51 J-8.791
G2 X89.912 Y53.065 I-8.791 J-5.51
G3 X92.846 Y50.439 I3.652 J1.129
G2 X95.065 Y47.187 I-0.524 J-2.74
G2 X77.187 Y34.935 I-15.065 J2.813
G2 X71.861 Y37.015 I2.813 J15.065
G3 X70.174 Y37.5 I-1.686 J-2.69
G1 X38.931
G1 X34.969 Y40.608
G2 Y59.392 I45.031 J9.392
G1 X38.931 Y62.5
G1 X70.174
G3 X71.861 Y62.985 I0 J3.175
G2 X92.985 Y58.139 I8.139 J-12.985
G2 X95.065 Y47.187 I-12.985 J-8.139
G1 X95.03 Y47.025 Z-4.162
G1 X94.987 Y46.865 Z-4.149
G1 X94.936 Y46.707 Z-4.136
G1 X94.878 Y46.557 Z-4.097
G1 X94.812 Y46.409 Z-4.058
G1 X94.739 Y46.265 Z-4.02
G1 X94.663 Y46.132 Z-3.956
G1 X94.581 Y46.002 Z-3.892
G1 X94.493 Y45.877 Z-3.829
G1 X94.361 Y45.711 Z-3.699
G1 X94.218 Y45.554 Z-3.569
G1 X94.081 Y45.422 Z-3.407
G1 X93.938 Y45.299 Z-3.245
G1 X93.809 Y45.2 Z-3.056
G1 X93.676 Y45.109 Z-2.866
G1 X93.565 Y45.04 Z-2.654
G1 X93.452 Y44.976 Z-2.441
G1 X93.282 Y44.89 Z-1.981
G1 X93.175 Y44.843 Z-1.497
G1 X93.139 Y44.828 Z-1
G0 Z8

(2D CONTOUR11)
G0 X83.935 Y132.317
G0 Z8
G0 Z7.35
G1 Z-1 F500.
G1 Y132.31 Z-1.217
G1 Y132.288 Z-1.432
G1 X83.934 Y132.251 Z-1.646
G1 Y132.199 Z-1.857
G1 X83.933 Y132.134 Z-2.063
G1 X83.932 Y132.054 Z-2.265
G1 Y131.961 Z-2.461
G1 X83.931 Y131.855 Z-2.65
G1 X83.929 Y131.736 Z-2.831
G1 X83.928 Y131.605 Z-3.004
G1 X83.927 Y131.463 Z-3.167
G1 X83.926 Y131.309 Z-3.32
G1 X83.924 Y131.146 Z-3.463
G1 X83.922 Y130.973 Z-3.594
G1 X83.921 Y130.792 Z-3.713
G1 X83.919 Y130.603 Z-3.819
G1 X83.917 Y130.407 Z-3.912
G1 X83.915 Y130.206 Z-3.992
G1 X83.913 Y129.999 Z-4.057
G1 X83.912 Y129.788 Z-4.109
G1 X83.91 Y129.575 Z-4.145
G1 X83.908 Y129.359 Z-4.168
G1 X83.906 Y129.142 Z-4.175
G1 X83.876 Y125.967 F600.
G2 X82.926 Y123.731 I-3.175 J0.029
G2 X80.672 Y122.822 I-2.224 J2.266
G3 X80 Y122.825 I-0.672 J-72.822
G3 X35.118 Y107.351 I0 J-72.825
G1 Z-2.175
G3 X23.455 Y95.893 I44.882 J-57.351
G1 Z-4.175 F500.
G3 X19.879 Y8.903 I56.545 J-45.893 F600.
G3 X22.5 Y7.52 I2.621 J1.792
G1 X76.656
G1 Z-2.175
G1 X93.006
G1 Z-4.175 F500.
G1 X137.5 F600.
G3 X140.121 Y8.903 I0 J3.175
G3 X136.092 Y96.445 I-60.121 J41.097
G1 Z-2.175
G3 X135.343 Y97.336 I-56.092 J-46.445
G3 X124.317 Y107.788 I-55.343 J-47.336
G1 Z-4.175 F500.
G3 X80 Y122.825 I-44.317 J-57.788 F600.
G3 X68.718 Y121.946 I0 J-72.825
G2 X65.089 Y124.591 I-0.492 J3.137
G1 X64.597 Y127.727
G1 X64.564 Y127.941 Z-4.168
G1 X64.53 Y128.154 Z-4.145
G1 X64.497 Y128.365 Z-4.109
G1 X64.465 Y128.573 Z-4.057
G1 X64.433 Y128.778 Z-3.992
G1 X64.401 Y128.977 Z-3.912
G1 X64.371 Y129.17 Z-3.819
G1 X64.342 Y129.357 Z-3.713
G1 X64.314 Y129.536 Z-3.594
G1 X64.287 Y129.707 Z-3.463
G1 X64.262 Y129.868 Z-3.32
G1 X64.238 Y130.02 Z-3.167
G1 X64.216 Y130.16 Z-3.004
G1 X64.195 Y130.29 Z-2.831
G1 X64.177 Y130.407 Z-2.65
G1 X64.161 Y130.512 Z-2.461
G1 X64.146 Y130.604 Z-2.265
G1 X64.134 Y130.683 Z-2.063
G1 X64.124 Y130.748 Z-1.857
G1 X64.116 Y130.798 Z-1.646
G1 X64.11 Y130.835 Z-1.432
G1 X64.107 Y130.857 Z-1.217
G1 X64.105 Y130.864 Z-1
G0 Z8

G0 Z8
M5
M30
