%
(MeticulousSled_Engrave)
(T2  D=0.04 CR=0.1 TAPER=15deg - ZMIN=0 - tapered mill)
G90 G94
G17
G21
G28 G91 Z0
G90

(Trace1)
M9
T2 M6
S10000 M3
G54
M9
G0 X-219.667 Y326.588
Z7
Z0
G1 X-220.857 Y326.558 F500
X-222.031 Y326.469
X-223.188 Y326.322
X-224.326 Y326.118
X-225.444 Y325.86
X-226.541 Y325.549
X-227.616 Y325.185
X-228.665 Y324.771
X-229.689 Y324.308
X-230.686 Y323.798
X-231.654 Y323.241
X-232.592 Y322.64
X-233.498 Y321.996
X-234.372 Y321.309
X-235.211 Y320.583
X-236.013 Y319.817
X-236.779 Y319.014
X-237.505 Y318.176
X-238.192 Y317.302
X-238.836 Y316.396
X-239.438 Y315.458
X-239.994 Y314.49
X-240.505 Y313.493
X-240.968 Y312.469
X-241.382 Y311.419
X-241.745 Y310.345
X-242.056 Y309.248
X-242.315 Y308.13
X-242.518 Y306.991
X-242.665 Y305.834
X-242.754 Y304.66
X-242.784 Y303.471
X-242.754 Y302.281
X-242.665 Y301.107
X-242.518 Y299.95
X-242.315 Y298.812
X-242.056 Y297.693
X-241.745 Y296.596
X-241.382 Y295.522
X-240.968 Y294.472
X-240.505 Y293.448
X-239.994 Y292.451
X-239.438 Y291.483
X-238.836 Y290.545
X-238.192 Y289.639
X-237.505 Y288.766
X-236.779 Y287.927
X-236.013 Y287.124
X-235.211 Y286.359
X-234.372 Y285.632
X-233.498 Y284.946
X-232.592 Y284.301
X-231.654 Y283.7
X-230.686 Y283.143
X-229.689 Y282.633
X-228.665 Y282.17
X-227.616 Y281.756
X-226.541 Y281.392
X-225.444 Y281.081
X-224.326 Y280.823
X-223.188 Y280.619
X-222.031 Y280.472
X-220.857 Y280.383
X-219.667 Y280.353
X-218.477 Y280.383
X-217.303 Y280.472
X-216.146 Y280.619
X-215.008 Y280.823
X-213.89 Y281.081
X-212.793 Y281.392
X-211.718 Y281.756
X-210.669 Y282.17
X-209.645 Y282.633
X-208.648 Y283.143
X-207.68 Y283.7
X-206.742 Y284.301
X-205.836 Y284.946
X-204.962 Y285.632
X-204.123 Y286.359
X-203.321 Y287.124
X-202.555 Y287.927
X-201.829 Y288.766
X-201.142 Y289.639
X-200.498 Y290.545
X-199.897 Y291.483
X-199.34 Y292.451
X-198.829 Y293.448
X-198.367 Y294.472
X-197.953 Y295.522
X-197.589 Y296.596
X-197.278 Y297.693
X-197.02 Y298.812
X-196.816 Y299.95
X-196.669 Y301.107
X-196.58 Y302.281
X-196.55 Y303.471
X-196.58 Y304.66
X-196.669 Y305.834
X-196.816 Y306.991
X-197.02 Y308.13
X-197.278 Y309.248
X-197.589 Y310.345
X-197.953 Y311.419
X-198.367 Y312.469
X-198.829 Y313.493
X-199.34 Y314.49
X-199.897 Y315.458
X-200.498 Y316.396
X-201.142 Y317.302
X-201.829 Y318.176
X-202.555 Y319.014
X-203.321 Y319.817
X-204.123 Y320.583
X-204.962 Y321.309
X-205.836 Y321.996
X-206.742 Y322.64
X-207.68 Y323.241
X-208.648 Y323.798
X-209.645 Y324.308
X-210.669 Y324.771
X-211.718 Y325.185
X-212.793 Y325.549
X-213.89 Y325.86
X-215.008 Y326.118
X-216.146 Y326.322
X-217.303 Y326.469
X-218.477 Y326.558
X-219.667 Y326.588
G0 Z5
Y318.842
Z0
G1 X-218.989 Y318.827 F500
X-218.317 Y318.784
X-217.65 Y318.711
X-216.989 Y318.611
X-216.335 Y318.482
X-215.69 Y318.325
X-215.053 Y318.141
X-214.425 Y317.93
X-213.807 Y317.692
X-213.2 Y317.428
X-212.605 Y317.137
X-212.022 Y316.821
X-211.452 Y316.479
X-210.895 Y316.111
X-210.354 Y315.719
X-209.827 Y315.302
X-209.524 Y315.732
X-209.392 Y315.886
X-209.238 Y316.008
X-209.065 Y316.096
X-208.881 Y316.151
X-208.69 Y316.171
X-208.497 Y316.154
X-208.308 Y316.101
X-208.127 Y316.009
X-207.968 Y315.885
X-207.839 Y315.736
X-207.742 Y315.568
X-207.679 Y315.386
X-207.65 Y315.196
X-207.657 Y315.003
X-207.702 Y314.811
X-207.785 Y314.627
X-208.076 Y314.11
X-208.371 Y313.57
X-208.97 Y312.428
X-209.571 Y311.217
X-210.164 Y309.952
X-210.738 Y308.65
X-211.282 Y307.326
X-211.785 Y305.997
X-212.238 Y304.678
X-212.63 Y303.385
X-212.799 Y302.754
X-212.949 Y302.135
X-213.078 Y301.531
X-213.186 Y300.943
X-213.27 Y300.374
X-213.329 Y299.825
X-213.362 Y299.299
X-213.368 Y298.797
X-213.346 Y298.322
X-213.294 Y297.876
X-213.21 Y297.46
X-213.094 Y297.076
X-212.943 Y296.727
X-212.758 Y296.414
X-212.63 Y296.247
X-212.486 Y296.093
X-212.328 Y295.953
X-212.155 Y295.827
X-211.966 Y295.714
X-211.763 Y295.615
X-211.545 Y295.53
X-211.312 Y295.458
X-211.064 Y295.4
X-210.802 Y295.356
X-210.525 Y295.325
X-210.233 Y295.309
X-209.927 Y295.306
X-209.606 Y295.316
X-208.921 Y295.379
X-208.605 Y295.82
X-208.309 Y296.27
X-208.032 Y296.73
X-207.775 Y297.199
X-207.537 Y297.676
X-207.319 Y298.162
X-207.122 Y298.655
X-206.945 Y299.156
X-206.788 Y299.664
X-206.651 Y300.178
X-206.535 Y300.699
X-206.44 Y301.226
X-206.366 Y301.757
X-206.313 Y302.294
X-206.281 Y302.836
X-206.27 Y303.382
X-206.304 Y304.344
X-206.406 Y305.296
X-206.575 Y306.235
X-206.81 Y307.157
X-207.11 Y308.06
X-207.474 Y308.94
X-207.901 Y309.793
X-208.391 Y310.618
X-208.486 Y310.804
X-208.54 Y311
X-208.555 Y311.199
X-208.531 Y311.395
X-208.471 Y311.584
X-208.375 Y311.759
X-208.244 Y311.914
X-208.081 Y312.044
X-207.895 Y312.139
X-207.699 Y312.193
X-207.5 Y312.208
X-207.304 Y312.184
X-207.115 Y312.124
X-206.94 Y312.028
X-206.785 Y311.898
X-206.655 Y311.734
X-206.09 Y310.782
X-205.596 Y309.796
X-205.176 Y308.781
X-204.83 Y307.739
X-204.559 Y306.674
X-204.363 Y305.591
X-204.246 Y304.492
X-204.206 Y303.382
X-204.22 Y302.723
X-204.26 Y302.069
X-204.327 Y301.422
X-204.421 Y300.781
X-204.541 Y300.146
X-204.687 Y299.52
X-204.86 Y298.901
X-205.058 Y298.29
X-205.282 Y297.689
X-205.531 Y297.097
X-205.806 Y296.516
X-206.105 Y295.945
X-206.43 Y295.385
X-206.779 Y294.836
X-207.153 Y294.3
X-207.551 Y293.777
X-207.684 Y293.638
X-207.838 Y293.528
X-208.009 Y293.447
X-208.195 Y293.399
X-208.742 Y293.322
X-209.27 Y293.271
X-209.776 Y293.245
X-210.262
X-210.728 Y293.27
X-211.172 Y293.321
X-211.596 Y293.398
X-211.998 Y293.501
X-212.38 Y293.629
X-212.741 Y293.782
X-213.08 Y293.962
X-213.398 Y294.166
X-213.694 Y294.396
X-213.969 Y294.652
X-214.223 Y294.933
X-214.455 Y295.239
X-214.736 Y295.702
X-214.965 Y296.203
X-215.144 Y296.739
X-215.278 Y297.306
X-215.367 Y297.903
X-215.414 Y298.527
X-215.422 Y299.174
X-215.394 Y299.842
X-215.33 Y300.528
X-215.235 Y301.23
X-215.111 Y301.944
X-214.959 Y302.668
X-214.782 Y303.399
X-214.584 Y304.134
X-214.13 Y305.606
X-223.422 Y292.407
X-223.591 Y292.219
X-223.796 Y292.082
X-224.024 Y291.997
X-224.266 Y291.968
X-224.48 Y291.991
X-224.69 Y292.06
X-224.849 Y292.149
X-224.987 Y292.262
X-225.101 Y292.396
X-225.192 Y292.545
X-225.255 Y292.708
X-225.291 Y292.881
X-225.296 Y293.059
X-225.269 Y293.239
X-221.418 Y309.415
X-230.639 Y295.702
X-230.15 Y295.046
X-229.627 Y294.426
X-229.071 Y293.841
X-228.484 Y293.294
X-227.868 Y292.785
X-227.225 Y292.315
X-226.555 Y291.886
X-225.862 Y291.497
X-225.147 Y291.15
X-224.411 Y290.847
X-223.657 Y290.587
X-222.886 Y290.373
X-222.1 Y290.204
X-221.3 Y290.083
X-220.488 Y290.009
X-219.667 Y289.984
X-218.634 Y290.023
X-217.614 Y290.14
X-216.612 Y290.333
X-215.63 Y290.602
X-214.672 Y290.945
X-213.742 Y291.361
X-212.843 Y291.85
X-211.977 Y292.41
X-211.795 Y292.512
X-211.602 Y292.574
X-211.404 Y292.597
X-211.207 Y292.581
X-211.016 Y292.529
X-210.837 Y292.44
X-210.677 Y292.316
X-210.54 Y292.158
X-210.438 Y291.976
X-210.376 Y291.782
X-210.353 Y291.584
X-210.368 Y291.387
X-210.421 Y291.196
X-210.509 Y291.018
X-210.633 Y290.857
X-210.791 Y290.721
X-211.286 Y290.387
X-211.79 Y290.074
X-212.305 Y289.782
X-212.829 Y289.51
X-213.362 Y289.259
X-213.903 Y289.03
X-214.452 Y288.821
X-215.008 Y288.634
X-215.571 Y288.468
X-216.141 Y288.324
X-216.717 Y288.201
X-217.298 Y288.101
X-217.884 Y288.022
X-218.474 Y287.966
X-219.069 Y287.932
X-219.667 Y287.921
X-220.566 Y287.946
X-221.454 Y288.023
X-222.331 Y288.149
X-223.194 Y288.325
X-224.041 Y288.548
X-224.872 Y288.818
X-225.684 Y289.134
X-226.475 Y289.495
X-227.244 Y289.9
X-227.989 Y290.348
X-228.709 Y290.838
X-229.401 Y291.369
X-230.064 Y291.941
X-230.696 Y292.551
X-231.295 Y293.2
X-231.861 Y293.886
X-232.023 Y293.645
X-232.156 Y293.484
X-232.314 Y293.357
X-232.491 Y293.264
X-232.681 Y293.208
X-232.878 Y293.189
X-233.076 Y293.208
X-233.27 Y293.266
X-233.455 Y293.365
X-233.615 Y293.498
X-233.743 Y293.656
X-233.835 Y293.833
X-233.891 Y294.022
X-233.911 Y294.219
X-233.892 Y294.418
X-233.834 Y294.612
X-233.735 Y294.796
X-219.95 Y315.295
X-219.834 Y315.438
X-219.698 Y315.556
X-219.546 Y315.647
X-219.382 Y315.71
X-219.209 Y315.745
X-219.032 Y315.75
X-218.854 Y315.723
X-218.679 Y315.665
X-218.518 Y315.576
X-218.378 Y315.464
X-218.261 Y315.33
X-218.17 Y315.18
X-218.105 Y315.016
X-218.069 Y314.842
X-218.063 Y314.663
X-218.09 Y314.481
X-222.017 Y297.986
X-211.019 Y313.609
X-211.479 Y313.982
X-211.953 Y314.333
X-212.441 Y314.662
X-212.94 Y314.968
X-213.452 Y315.252
X-213.975 Y315.512
X-214.508 Y315.749
X-215.051 Y315.962
X-215.603 Y316.151
X-216.164 Y316.316
X-216.732 Y316.456
X-217.308 Y316.571
X-217.889 Y316.661
X-218.477 Y316.726
X-219.07 Y316.765
X-219.667 Y316.778
X-220.355 Y316.761
X-221.035 Y316.709
X-221.704 Y316.624
X-222.363 Y316.506
X-223.011 Y316.356
X-223.646 Y316.175
X-224.268 Y315.964
X-224.877 Y315.724
X-225.47 Y315.455
X-226.047 Y315.159
X-226.608 Y314.836
X-227.152 Y314.487
X-227.677 Y314.113
X-228.184 Y313.715
X-228.67 Y313.294
X-229.135 Y312.85
X-229.579 Y312.384
X-230.001 Y311.898
X-230.399 Y311.392
X-230.773 Y310.866
X-231.121 Y310.323
X-231.444 Y309.762
X-231.741 Y309.184
X-232.009 Y308.591
X-232.249 Y307.983
X-232.46 Y307.361
X-232.641 Y306.725
X-232.791 Y306.078
X-232.909 Y305.419
X-232.994 Y304.749
X-233.046 Y304.07
X-233.064 Y303.381
X-233.053 Y302.834
X-233.02 Y302.29
X-232.965 Y301.749
X-232.889 Y301.212
X-232.791 Y300.679
X-232.672 Y300.151
X-232.531 Y299.628
X-232.369 Y299.11
X-232.322 Y298.906
X-232.318 Y298.704
X-232.352 Y298.507
X-232.423 Y298.322
X-232.527 Y298.154
X-232.663 Y298.008
X-232.828 Y297.89
X-233.018 Y297.804
X-233.182 Y297.763
X-233.347 Y297.75
X-233.507 Y297.762
X-233.661 Y297.799
X-233.807 Y297.858
X-233.943 Y297.939
X-234.065 Y298.041
X-234.172 Y298.161
X-234.259 Y298.299
X-234.325 Y298.453
X-234.512 Y299.05
X-234.675 Y299.654
X-234.813 Y300.264
X-234.926 Y300.879
X-235.014 Y301.499
X-235.077 Y302.123
X-235.115 Y302.751
X-235.127 Y303.381
X-235.107 Y304.176
X-235.047 Y304.96
X-234.949 Y305.733
X-234.813 Y306.493
X-234.64 Y307.241
X-234.431 Y307.974
X-234.188 Y308.692
X-233.911 Y309.394
X-233.6 Y310.078
X-233.259 Y310.745
X-232.886 Y311.392
X-232.483 Y312.02
X-232.052 Y312.626
X-231.593 Y313.21
X-231.106 Y313.771
X-230.594 Y314.309
X-230.057 Y314.821
X-229.495 Y315.307
X-228.911 Y315.767
X-228.305 Y316.198
X-227.678 Y316.601
X-227.03 Y316.973
X-226.364 Y317.315
X-225.679 Y317.625
X-224.977 Y317.902
X-224.259 Y318.146
X-223.526 Y318.354
X-222.779 Y318.527
X-222.018 Y318.664
X-221.245 Y318.762
X-220.461 Y318.822
X-219.667 Y318.842
G0 Z5
X-188.902 Y293.888
Z0
G1 Y291.109 F500
X-183.731 Y291.112
Y306.926
X-177.776 Y291.112
X-177.749
Y291.106
X-173.477
X-167.522 Y306.921
Y291.106
X-162.35 Y291.109
Y315.559
X-167.522 Y315.557
X-169.192
X-175.589 Y298.508
X-175.663
X-182.062 Y315.562
X-183.731
X-188.902 Y315.559
Y293.888
G0 Z5
X-160.133 Y304.435
Z0
G1 X-160.139 Y304.376 F500
X-160.141 Y303.721
X-155.247 Y303.332
X-155.21 Y303.564
X-155.149 Y303.775
X-155.066 Y303.967
X-154.964 Y304.141
X-154.846 Y304.296
X-154.714 Y304.435
X-154.42 Y304.668
X-154.102 Y304.845
X-153.782 Y304.976
X-153.481 Y305.068
X-153.219 Y305.128
X-152.913 Y305.168
X-152.567 Y305.182
X-152.22 Y305.17
X-151.898 Y305.14
X-151.6 Y305.093
X-151.324 Y305.029
X-151.072 Y304.949
X-150.842 Y304.854
X-150.634 Y304.743
X-150.447 Y304.617
X-150.281 Y304.478
X-150.135 Y304.324
X-150.009 Y304.157
X-149.902 Y303.978
X-149.815 Y303.786
X-149.745 Y303.582
X-149.694 Y303.367
X-149.66 Y303.142
X-149.626 Y302.794
X-149.606 Y302.419
X-149.595 Y302.017
X-149.592 Y301.587
X-150.279 Y301.65
X-150.943 Y301.699
X-151.586 Y301.732
X-152.207 Y301.75
X-152.806 Y301.753
X-153.384 Y301.741
X-153.939 Y301.714
X-154.473 Y301.673
X-154.985 Y301.616
X-155.476 Y301.544
X-155.944 Y301.457
X-156.391 Y301.355
X-156.816 Y301.239
X-157.219 Y301.107
X-157.6 Y300.96
X-157.96 Y300.798
X-158.298 Y300.621
X-158.613 Y300.43
X-158.908 Y300.223
X-159.18 Y300.001
X-159.431 Y299.764
X-159.659 Y299.513
X-159.866 Y299.246
X-160.052 Y298.964
X-160.215 Y298.667
X-160.357 Y298.355
X-160.477 Y298.029
X-160.575 Y297.687
X-160.651 Y297.33
X-160.705 Y296.958
X-160.738 Y296.571
X-160.767 Y295.514
X-160.73 Y294.901
X-160.639 Y294.33
X-160.492 Y293.801
X-160.292 Y293.315
X-160.036 Y292.871
X-159.726 Y292.469
X-159.361 Y292.109
X-158.941 Y291.792
X-158.467 Y291.517
X-157.938 Y291.284
X-157.354 Y291.094
X-156.715 Y290.946
X-156.022 Y290.84
X-155.274 Y290.777
X-154.472 Y290.756
X-154.057 Y290.763
X-153.655 Y290.79
X-153.264 Y290.836
X-152.886 Y290.901
X-152.519 Y290.987
X-152.165 Y291.091
X-151.822 Y291.215
X-151.491 Y291.359
X-151.172 Y291.522
X-150.866 Y291.704
X-150.571 Y291.906
X-150.288 Y292.127
X-150.017 Y292.368
X-149.758 Y292.628
X-149.511 Y292.908
X-149.275 Y293.207
X-149.186 Y292.873
X-149.092 Y292.56
X-148.991 Y292.267
X-148.886 Y291.994
X-148.774 Y291.742
X-148.657 Y291.511
X-148.535 Y291.3
X-148.407 Y291.109
X-143.244
X-143.367 Y291.276
X-143.483 Y291.466
X-143.593 Y291.677
X-143.695 Y291.911
X-143.789 Y292.166
X-143.877 Y292.444
X-143.958 Y292.743
X-144.031 Y293.065
X-144.098 Y293.409
X-144.157 Y293.775
X-144.209 Y294.163
X-144.254 Y294.574
X-144.292 Y295.006
X-144.323 Y295.46
X-144.347 Y295.937
X-144.363 Y296.435
X-144.365 Y303.645
X-144.35 Y303.983
X-144.353 Y304.31
X-144.373 Y304.626
X-144.411 Y304.931
X-144.467 Y305.226
X-144.54 Y305.51
X-144.631 Y305.784
X-144.74 Y306.046
X-144.866 Y306.298
X-145.01 Y306.54
X-145.172 Y306.77
X-145.351 Y306.99
X-145.548 Y307.199
X-145.763 Y307.397
X-145.995 Y307.585
X-146.245 Y307.762
X-146.513 Y307.928
X-146.798 Y308.083
X-147.102 Y308.228
X-147.422 Y308.362
X-147.761 Y308.486
X-148.117 Y308.598
X-148.49 Y308.7
X-148.882 Y308.791
X-149.291 Y308.871
X-149.717 Y308.941
X-150.162 Y309
X-150.624 Y309.048
X-151.103 Y309.086
X-151.601 Y309.113
X-152.116 Y309.129
X-152.649 Y309.134
X-153.583 Y309.113
X-154.455 Y309.05
X-155.265 Y308.944
X-156.013 Y308.796
X-156.698 Y308.606
X-157.322 Y308.373
X-157.883 Y308.098
X-158.383 Y307.781
X-158.82 Y307.421
X-159.195 Y307.02
X-159.508 Y306.575
X-159.759 Y306.089
X-159.948 Y305.56
X-160.074 Y304.99
X-160.133 Y304.435
G0 Z5
X-150.403 Y295.253
Z0
G1 X-150.454 Y295.225 F500
X-150.86 Y295.056
X-151.305 Y294.917
X-151.777 Y294.811
X-152.263 Y294.743
X-152.75 Y294.716
X-153.227 Y294.733
X-153.68 Y294.798
X-154.098 Y294.915
X-154.467 Y295.087
X-154.63 Y295.194
X-154.776 Y295.317
X-154.904 Y295.455
X-155.012 Y295.61
X-155.099 Y295.78
X-155.163 Y295.968
X-155.203 Y296.173
X-155.216 Y296.396
X-155.204 Y296.694
X-155.166 Y296.972
X-155.103 Y297.228
X-155.015 Y297.464
X-154.902 Y297.678
X-154.764 Y297.871
X-154.601 Y298.043
X-154.413 Y298.194
X-154.199 Y298.324
X-153.961 Y298.433
X-153.697 Y298.52
X-153.409 Y298.587
X-153.095 Y298.632
X-152.756 Y298.657
X-152.392 Y298.66
X-152.003 Y298.642
X-149.592
Y295.877
X-149.689 Y295.756
X-149.807 Y295.639
X-150.099 Y295.42
X-150.403 Y295.253
G0 Z5
X-142.896 Y296.399
Z0
G1 X-142.888 Y296.047 F500
X-142.863 Y295.706
X-142.821 Y295.376
X-142.762 Y295.057
X-142.686 Y294.75
X-142.593 Y294.453
X-142.484 Y294.168
X-142.357 Y293.894
X-142.214 Y293.632
X-142.053 Y293.38
X-141.876 Y293.14
X-141.681 Y292.91
X-141.47 Y292.692
X-141.242 Y292.485
X-140.997 Y292.29
X-140.735 Y292.105
X-140.456 Y291.932
X-140.16 Y291.77
X-139.847 Y291.619
X-139.517 Y291.479
X-139.17 Y291.35
X-138.807 Y291.233
X-138.426 Y291.127
X-138.028 Y291.032
X-137.614 Y290.948
X-137.182 Y290.875
X-136.734 Y290.814
X-136.269 Y290.763
X-135.786 Y290.724
X-135.287 Y290.696
X-134.771 Y290.679
X-134.238 Y290.674
X-133.696 Y290.679
X-133.171 Y290.696
X-132.664 Y290.723
X-132.173 Y290.762
X-131.699 Y290.812
X-131.243 Y290.872
X-130.804 Y290.944
X-130.381 Y291.027
X-129.976 Y291.121
X-129.588 Y291.226
X-129.217 Y291.341
X-128.864 Y291.468
X-128.527 Y291.606
X-128.207 Y291.755
X-127.905 Y291.915
X-127.619 Y292.086
X-127.351 Y292.268
X-127.1 Y292.462
X-126.866 Y292.666
X-126.649 Y292.881
X-126.449 Y293.107
X-126.266 Y293.345
X-126.101 Y293.593
X-125.952 Y293.852
X-125.82 Y294.123
X-125.706 Y294.404
X-125.609 Y294.696
X-125.529 Y295
X-125.466 Y295.314
X-125.42 Y295.64
X-125.391 Y295.977
X-125.379 Y296.324
X-125.414 Y296.884
X-125.516 Y297.407
X-125.679 Y297.895
X-125.897 Y298.349
X-126.164 Y298.77
X-126.475 Y299.16
X-126.824 Y299.519
X-127.206 Y299.849
X-127.614 Y300.151
X-128.044 Y300.426
X-128.489 Y300.675
X-128.943 Y300.9
X-129.402 Y301.1
X-129.859 Y301.279
X-130.308 Y301.436
X-130.744 Y301.573
X-130.73 Y301.586
X-130.832 Y301.599
X-131.302 Y301.728
X-131.736 Y301.835
X-132.128 Y301.921
X-132.468 Y301.987
X-132.475 Y301.988
X-132.672 Y302.023
X-132.85 Y302.052
X-133.007 Y302.075
X-133.145 Y302.093
X-133.146 Y302.091
X-133.583 Y302.173
X-133.989 Y302.261
X-134.364 Y302.355
X-134.709 Y302.456
X-135.023 Y302.562
X-135.307 Y302.675
X-135.561 Y302.793
X-135.784 Y302.918
X-135.977 Y303.049
X-136.139 Y303.186
X-136.271 Y303.329
X-136.372 Y303.478
X-136.443 Y303.633
X-136.483 Y303.794
X-136.493 Y303.962
X-136.472 Y304.135
X-136.495 Y304.328
X-136.493 Y304.508
X-136.467 Y304.676
X-136.417 Y304.832
X-136.342 Y304.974
X-136.243 Y305.105
X-136.119 Y305.223
X-135.971 Y305.328
X-135.798 Y305.422
X-135.601 Y305.502
X-135.38 Y305.57
X-135.134 Y305.626
X-134.864 Y305.669
X-134.569 Y305.7
X-134.25 Y305.718
X-133.907 Y305.724
X-133.551 Y305.714
X-133.216 Y305.686
X-132.903 Y305.64
X-132.612 Y305.575
X-132.342 Y305.492
X-132.093 Y305.391
X-131.867 Y305.271
X-131.661 Y305.133
X-131.477 Y304.977
X-131.315 Y304.802
X-131.174 Y304.609
X-131.055 Y304.398
X-130.957 Y304.168
X-130.881 Y303.92
X-130.827 Y303.653
X-130.793 Y303.368
X-125.403 Y303.763
X-125.436 Y304.414
X-125.535 Y305.022
X-125.7 Y305.589
X-125.93 Y306.113
X-126.226 Y306.596
X-126.588 Y307.036
X-127.015 Y307.435
X-127.508 Y307.792
X-128.067 Y308.106
X-128.692 Y308.379
X-129.382 Y308.61
X-130.138 Y308.799
X-130.96 Y308.946
X-131.847 Y309.05
X-132.8 Y309.113
X-133.819 Y309.134
X-134.855 Y309.114
X-135.824 Y309.052
X-136.727 Y308.948
X-137.563 Y308.803
X-138.333 Y308.617
X-139.036 Y308.39
X-139.673 Y308.121
X-140.243 Y307.81
X-140.747 Y307.459
X-141.184 Y307.066
X-141.555 Y306.631
X-141.859 Y306.155
X-142.097 Y305.638
X-142.268 Y305.079
X-142.373 Y304.479
X-142.411 Y303.838
X-142.396 Y303.469
X-142.35 Y303.115
X-142.277 Y302.778
X-142.176 Y302.455
X-142.051 Y302.148
X-141.902 Y301.855
X-141.732 Y301.576
X-141.541 Y301.312
X-141.332 Y301.061
X-141.105 Y300.823
X-140.609 Y300.386
X-140.064 Y299.998
X-139.484 Y299.656
X-138.881 Y299.358
X-138.27 Y299.1
X-137.662 Y298.881
X-137.07 Y298.697
X-136.509 Y298.545
X-135.99 Y298.424
X-135.526 Y298.329
X-135.131 Y298.259
X-135.121 Y298.258
X-134.638 Y298.165
X-134.188 Y298.067
X-133.772 Y297.964
X-133.39 Y297.855
X-133.04 Y297.742
X-132.725 Y297.624
X-132.442 Y297.5
X-132.194 Y297.371
X-131.978 Y297.237
X-131.796 Y297.098
X-131.648 Y296.954
X-131.533 Y296.805
X-131.451 Y296.65
X-131.403 Y296.491
X-131.389 Y296.326
X-131.408 Y296.156
X-131.395 Y295.948
X-131.407 Y295.754
X-131.443 Y295.573
X-131.503 Y295.405
X-131.588 Y295.251
X-131.698 Y295.11
X-131.832 Y294.983
X-131.99 Y294.869
X-132.173 Y294.768
X-132.38 Y294.681
X-132.612 Y294.607
X-132.868 Y294.547
X-133.149 Y294.5
X-133.454 Y294.466
X-133.784 Y294.446
X-134.138 Y294.439
X-134.494 Y294.448
X-134.829 Y294.474
X-135.143 Y294.518
X-135.437 Y294.579
X-135.71 Y294.657
X-135.962 Y294.753
X-136.194 Y294.866
X-136.405 Y294.997
X-136.595 Y295.145
X-136.764 Y295.31
X-136.913 Y295.493
X-137.041 Y295.693
X-137.148 Y295.911
X-137.235 Y296.146
X-137.301 Y296.399
X-137.346 Y296.668
X-142.896 Y296.399
G0 Z5
X-123.686 Y296.33
Z0
G1 Y315.563 F500
X-118.213
Y291.112
X-123.686
Y296.33
G0 Z5
X-112.928 Y307.588
Z0
G1 X-112.994 Y307.544 F500
X-113.337 Y307.285
X-113.663 Y307.01
X-113.969 Y306.719
X-114.257 Y306.413
X-114.527 Y306.092
X-114.779 Y305.757
X-115.013 Y305.409
X-115.228 Y305.048
X-115.426 Y304.675
X-115.606 Y304.29
X-115.768 Y303.895
X-115.913 Y303.489
X-116.15 Y302.648
X-116.319 Y301.774
X-116.419 Y300.871
X-116.452 Y299.945
X-116.419 Y299.018
X-116.319 Y298.115
X-116.15 Y297.241
X-115.913 Y296.401
X-115.768 Y295.995
X-115.606 Y295.599
X-115.426 Y295.215
X-115.229 Y294.842
X-115.013 Y294.481
X-114.779 Y294.132
X-114.528 Y293.798
X-114.258 Y293.477
X-113.97 Y293.171
X-113.663 Y292.88
X-113.338 Y292.605
X-112.994 Y292.346
X-112.631 Y292.105
X-112.25 Y291.881
X-111.85 Y291.676
X-111.43 Y291.489
X-110.991 Y291.323
X-110.533 Y291.176
X-110.056 Y291.05
X-109.559 Y290.946
X-109.042 Y290.864
X-108.506 Y290.805
X-107.949 Y290.768
X-107.373 Y290.756
X-106.797 Y290.768
X-106.24 Y290.804
X-105.703 Y290.863
X-105.186 Y290.944
X-104.688 Y291.048
X-104.21 Y291.172
X-103.751 Y291.317
X-103.312 Y291.483
X-102.891 Y291.668
X-102.489 Y291.872
X-102.107 Y292.094
X-101.743 Y292.334
X-101.398 Y292.591
X-101.071 Y292.865
X-100.763 Y293.154
X-100.474 Y293.459
X-100.202 Y293.779
X-99.949 Y294.113
X-99.715 Y294.461
X-99.498 Y294.821
X-99.299 Y295.194
X-99.118 Y295.579
X-98.954 Y295.975
X-98.808 Y296.381
X-98.569 Y297.224
X-98.399 Y298.102
X-98.298 Y299.01
X-98.265 Y299.945
X-98.298 Y300.879
X-98.399 Y301.788
X-98.569 Y302.666
X-98.808 Y303.509
X-98.954 Y303.915
X-99.118 Y304.311
X-99.299 Y304.696
X-99.498 Y305.069
X-99.715 Y305.429
X-99.95 Y305.777
X-100.203 Y306.111
X-100.474 Y306.431
X-100.763 Y306.736
X-101.071 Y307.026
X-101.398 Y307.299
X-101.743 Y307.556
X-102.107 Y307.796
X-102.489 Y308.019
X-102.891 Y308.222
X-103.312 Y308.407
X-103.751 Y308.573
X-104.21 Y308.718
X-104.689 Y308.843
X-105.186 Y308.946
X-105.703 Y309.027
X-106.24 Y309.086
X-106.797 Y309.122
X-107.373 Y309.134
X-107.949 Y309.122
X-108.505 Y309.086
X-109.042 Y309.026
X-109.558 Y308.944
X-110.055 Y308.84
X-110.533 Y308.714
X-110.991 Y308.567
X-111.43 Y308.401
X-111.849 Y308.214
X-112.25 Y308.009
X-112.631 Y307.785
X-112.928 Y307.588
G0 Z5
X-107.361 Y305.457
Z0
G1 X-107.223 Y305.455 F500
X-107.046 Y305.441
X-106.837 Y305.408
X-106.603 Y305.347
X-106.349 Y305.254
X-106.084 Y305.121
X-105.812 Y304.94
X-105.541 Y304.707
X-105.278 Y304.413
X-105.028 Y304.052
X-104.911 Y303.845
X-104.799 Y303.618
X-104.694 Y303.371
X-104.597 Y303.103
X-104.508 Y302.813
X-104.428 Y302.501
X-104.358 Y302.165
X-104.3 Y301.804
X-104.252 Y301.419
X-104.218 Y301.007
X-104.196 Y300.569
X-104.189 Y300.103
X-104.196 Y299.636
X-104.218 Y299.198
X-104.252 Y298.787
X-104.3 Y298.401
X-104.358 Y298.041
X-104.428 Y297.705
X-104.508 Y297.392
X-104.597 Y297.103
X-104.694 Y296.835
X-104.799 Y296.588
X-104.911 Y296.361
X-105.028 Y296.153
X-105.278 Y295.793
X-105.541 Y295.499
X-105.812 Y295.265
X-106.084 Y295.085
X-106.349 Y294.952
X-106.603 Y294.859
X-106.837 Y294.798
X-107.046 Y294.765
X-107.223 Y294.75
X-107.361 Y294.749
X-107.499 Y294.75
X-107.676 Y294.764
X-107.885 Y294.798
X-108.119 Y294.858
X-108.372 Y294.952
X-108.638 Y295.085
X-108.91 Y295.265
X-109.18 Y295.499
X-109.444 Y295.792
X-109.693 Y296.153
X-109.811 Y296.361
X-109.922 Y296.588
X-110.027 Y296.835
X-110.125 Y297.103
X-110.213 Y297.392
X-110.293 Y297.705
X-110.363 Y298.041
X-110.422 Y298.401
X-110.469 Y298.787
X-110.504 Y299.198
X-110.525 Y299.636
X-110.532 Y300.103
X-110.525 Y300.569
X-110.504 Y301.007
X-110.469 Y301.419
X-110.422 Y301.804
X-110.363 Y302.165
X-110.293 Y302.501
X-110.213 Y302.813
X-110.125 Y303.103
X-110.027 Y303.371
X-109.922 Y303.618
X-109.811 Y303.845
X-109.693 Y304.052
X-109.444 Y304.413
X-109.18 Y304.707
X-108.91 Y304.94
X-108.638 Y305.121
X-108.372 Y305.254
X-108.119 Y305.347
X-107.885 Y305.408
X-107.676 Y305.441
X-107.499 Y305.455
X-107.361 Y305.457
G0 Z5
X-96.982 Y303.363
Z0
G1 X-94.03 Y291.127 F500
X-87.245
X-85.101 Y301.459
X-85.098
X-82.954 Y291.127
X-76.17
X-71.914 Y308.762
X-77.57
X-80.271 Y297.415
X-82.854 Y308.762
X-87.274
X-89.975 Y297.415
X-92.557 Y308.762
X-98.285
X-96.982 Y303.363
G0 Z5
X275.355 Y-45.518
Z0
G1 X274.59 Y-46.32 F500
X273.863 Y-47.159
X273.177 Y-48.033
X272.532 Y-48.939
X271.931 Y-49.877
X271.374 Y-50.845
X270.864 Y-51.842
X270.401 Y-52.866
X269.987 Y-53.916
X269.623 Y-54.99
X269.312 Y-56.087
X269.054 Y-57.205
X268.851 Y-58.343
X268.704 Y-59.5
X268.614 Y-60.674
X268.584 Y-61.864
X268.614 Y-63.054
X268.704 Y-64.228
X268.851 Y-65.385
X269.054 Y-66.523
X269.312 Y-67.642
X269.623 Y-68.739
X269.987 Y-69.813
X270.401 Y-70.862
X270.864 Y-71.886
X271.374 Y-72.883
X271.931 Y-73.851
X272.532 Y-74.789
X273.177 Y-75.696
X273.863 Y-76.569
X274.59 Y-77.408
X275.355 Y-78.211
X276.158 Y-78.976
X276.997 Y-79.702
X277.87 Y-80.389
X278.776 Y-81.033
X279.714 Y-81.634
X280.682 Y-82.191
X281.679 Y-82.702
X282.703 Y-83.165
X283.753 Y-83.578
X284.827 Y-83.942
X285.924 Y-84.253
X287.043 Y-84.511
X288.181 Y-84.715
X289.338 Y-84.862
X290.512 Y-84.951
X291.702 Y-84.981
X292.891 Y-84.951
X294.065 Y-84.862
X295.222 Y-84.715
X296.361 Y-84.511
X297.479 Y-84.253
X298.576 Y-83.942
X299.65 Y-83.578
X300.7 Y-83.165
X301.724 Y-82.702
X302.721 Y-82.191
X303.689 Y-81.634
X304.627 Y-81.033
X305.533 Y-80.389
X306.407 Y-79.702
X307.245 Y-78.976
X308.048 Y-78.211
X308.814 Y-77.408
X309.54 Y-76.569
X310.227 Y-75.696
X310.871 Y-74.789
X311.472 Y-73.851
X312.029 Y-72.883
X312.54 Y-71.886
X313.003 Y-70.862
X313.416 Y-69.813
X313.78 Y-68.739
X314.091 Y-67.642
X314.35 Y-66.523
X314.553 Y-65.385
X314.7 Y-64.228
X314.789 Y-63.054
X314.819 Y-61.864
X314.789 Y-60.674
X314.7 Y-59.5
X314.553 Y-58.343
X314.35 Y-57.205
X314.091 Y-56.087
X313.78 Y-54.99
X313.416 Y-53.916
X313.003 Y-52.866
X312.54 Y-51.842
X312.029 Y-50.845
X311.472 Y-49.877
X310.871 Y-48.939
X310.227 Y-48.033
X309.54 Y-47.159
X308.814 Y-46.32
X308.048 Y-45.518
X307.245 Y-44.752
X306.407 Y-44.026
X305.533 Y-43.339
X304.627 Y-42.695
X303.689 Y-42.094
X302.721 Y-41.537
X301.724 Y-41.026
X300.7 Y-40.563
X299.65 Y-40.15
X298.576 Y-39.786
X297.479 Y-39.475
X296.361 Y-39.216
X295.222 Y-39.013
X294.065 Y-38.866
X292.891 Y-38.777
X291.702 Y-38.747
X290.512 Y-38.777
X289.338 Y-38.866
X288.181 Y-39.013
X287.043 Y-39.216
X285.924 Y-39.475
X284.827 Y-39.786
X283.753 Y-40.15
X282.703 Y-40.563
X281.679 Y-41.026
X280.682 Y-41.537
X279.714 Y-42.094
X278.776 Y-42.695
X277.87 Y-43.339
X276.997 Y-44.026
X276.158 Y-44.752
X275.355 Y-45.518
G0 Z5
X291.695 Y-92.629
Z0
G1 X279.34 F500
X279.343 Y-97.8
X295.157
X279.343 Y-103.755
Y-103.782
X279.338
Y-108.054
X295.152 Y-114.009
X279.338
X279.34 Y-119.181
X303.79
X303.788 Y-114.009
Y-112.339
X286.739 Y-105.942
Y-105.869
X303.793 Y-99.469
Y-97.8
X303.79 Y-92.629
X291.695
G0 Z5
X281.102 Y-121.495
Z0
G1 X280.7 Y-121.805 F500
X280.34 Y-122.17
X280.023 Y-122.59
X279.748 Y-123.064
X279.515 Y-123.594
X279.325 Y-124.177
X279.177 Y-124.816
X279.071 Y-125.509
X279.008 Y-126.257
X278.987 Y-127.059
X278.994 Y-127.474
X279.021 Y-127.876
X279.067 Y-128.267
X279.133 Y-128.645
X279.218 Y-129.012
X279.322 Y-129.366
X279.446 Y-129.709
X279.59 Y-130.04
X279.753 Y-130.359
X279.935 Y-130.665
X280.137 Y-130.96
X280.358 Y-131.243
X280.599 Y-131.514
X280.859 Y-131.773
X281.139 Y-132.021
X281.438 Y-132.256
X281.104 Y-132.345
X280.791 Y-132.44
X280.498 Y-132.54
X280.225 Y-132.646
X279.973 Y-132.757
X279.742 Y-132.874
X279.531 Y-132.996
X279.34 Y-133.124
Y-138.287
X279.508 Y-138.164
X279.697 Y-138.048
X279.908 Y-137.939
X280.142 Y-137.837
X280.397 Y-137.742
X280.675 Y-137.654
X280.975 Y-137.573
X281.296 Y-137.5
X281.64 Y-137.433
X282.006 Y-137.374
X282.394 Y-137.322
X282.805 Y-137.277
X283.237 Y-137.239
X283.691 Y-137.208
X284.168 Y-137.185
X284.667 Y-137.168
X291.876 Y-137.166
X292.214 Y-137.181
X292.541 Y-137.178
X292.857 Y-137.158
X293.163 Y-137.12
X293.457 Y-137.064
X293.741 Y-136.991
X294.015 Y-136.9
X294.278 Y-136.791
X294.529 Y-136.665
X294.771 Y-136.521
X295.001 Y-136.359
X295.221 Y-136.18
X295.43 Y-135.983
X295.628 Y-135.768
X295.816 Y-135.536
X295.993 Y-135.286
X296.159 Y-135.018
X296.315 Y-134.733
X296.459 Y-134.43
X296.593 Y-134.109
X296.717 Y-133.771
X296.829 Y-133.415
X296.931 Y-133.041
X297.022 Y-132.649
X297.103 Y-132.24
X297.172 Y-131.814
X297.231 Y-131.369
X297.279 Y-130.907
X297.317 Y-130.428
X297.344 Y-129.93
X297.36 Y-129.415
X297.365 Y-128.883
X297.344 Y-127.948
X297.281 Y-127.076
X297.175 Y-126.266
X297.027 Y-125.519
X296.837 Y-124.833
X296.604 Y-124.209
X296.329 Y-123.648
X296.012 Y-123.148
X295.652 Y-122.711
X295.251 Y-122.336
X294.807 Y-122.023
X294.32 Y-121.772
X293.792 Y-121.583
X293.221 Y-121.457
X292.607 Y-121.392
X291.952 Y-121.39
X291.563 Y-126.284
X291.795 Y-126.321
X292.006 Y-126.382
X292.198 Y-126.465
X292.372 Y-126.567
X292.527 Y-126.685
X292.667 Y-126.817
X292.899 Y-127.111
X293.076 Y-127.429
X293.207 Y-127.749
X293.299 Y-128.05
X293.359 Y-128.312
X293.399 Y-128.618
X293.413 Y-128.964
X293.401 Y-129.311
X293.371 Y-129.633
X293.324 Y-129.932
X293.26 Y-130.207
X293.181 Y-130.459
X293.085 Y-130.689
X292.974 Y-130.897
X292.848 Y-131.084
X292.709 Y-131.251
X292.555 Y-131.396
X292.388 Y-131.522
X292.209 Y-131.629
X292.017 Y-131.717
X291.813 Y-131.786
X291.598 Y-131.837
X291.373 Y-131.871
X291.025 Y-131.905
X290.651 Y-131.925
X290.248 Y-131.936
X289.818 Y-131.939
X289.881 Y-131.252
X289.93 Y-130.588
X289.963 Y-129.945
X289.981 Y-129.324
X289.984 Y-128.725
X289.972 Y-128.147
X289.946 Y-127.592
X289.904 Y-127.058
X289.847 Y-126.546
X289.775 Y-126.055
X289.688 Y-125.587
X289.587 Y-125.14
X289.47 Y-124.715
X289.338 Y-124.312
X289.191 Y-123.931
X289.029 Y-123.571
X288.853 Y-123.234
X288.661 Y-122.918
X288.454 Y-122.623
X288.232 Y-122.351
X287.995 Y-122.1
X287.744 Y-121.872
X287.477 Y-121.665
X287.195 Y-121.479
X286.898 Y-121.316
X286.586 Y-121.174
X286.26 Y-121.055
X285.918 Y-120.956
X285.561 Y-120.88
X285.189 Y-120.826
X284.803 Y-120.793
X283.745 Y-120.764
X283.132 Y-120.801
X282.561 Y-120.892
X282.032 Y-121.039
X281.546 Y-121.24
X281.102 Y-121.495
G0 Z5
X283.03 Y-127.851
Z0
G1 X283.146 Y-127.434 F500
X283.318 Y-127.064
X283.426 Y-126.901
X283.548 Y-126.755
X283.687 Y-126.627
X283.841 Y-126.519
X284.012 Y-126.432
X284.199 Y-126.368
X284.404 Y-126.328
X284.627 Y-126.315
X284.925 Y-126.327
X285.203 Y-126.365
X285.459 Y-126.428
X285.695 Y-126.516
X285.909 Y-126.629
X286.102 Y-126.767
X286.274 Y-126.93
X286.425 Y-127.118
X286.555 Y-127.332
X286.664 Y-127.57
X286.751 Y-127.834
X286.818 Y-128.122
X286.863 Y-128.436
X286.888 Y-128.775
X286.891 Y-129.139
X286.873 Y-129.528
Y-131.939
X284.108
X283.987 Y-131.842
X283.87 Y-131.724
X283.652 Y-131.433
X283.456 Y-131.077
X283.287 Y-130.671
X283.148 Y-130.226
X283.043 Y-129.754
X282.975 Y-129.268
X282.947 Y-128.781
X282.964 Y-128.304
X283.03 Y-127.851
G0 Z5
X284.63 Y-138.636
Z0
G1 X284.278 Y-138.644 F500
X283.937 Y-138.669
X283.607 Y-138.71
X283.288 Y-138.769
X282.981 Y-138.845
X282.685 Y-138.938
X282.399 Y-139.047
X282.125 Y-139.174
X281.863 Y-139.318
X281.611 Y-139.478
X281.371 Y-139.655
X281.141 Y-139.85
X280.923 Y-140.061
X280.716 Y-140.289
X280.521 Y-140.534
X280.336 Y-140.796
X280.163 Y-141.075
X280.001 Y-141.371
X279.85 Y-141.684
X279.71 Y-142.014
X279.581 Y-142.361
X279.464 Y-142.725
X279.358 Y-143.105
X279.263 Y-143.503
X279.179 Y-143.917
X279.106 Y-144.349
X279.045 Y-144.797
X278.994 Y-145.262
X278.955 Y-145.745
X278.927 Y-146.244
X278.91 Y-146.76
X278.905 Y-147.293
X278.91 Y-147.835
X278.927 Y-148.36
X278.955 Y-148.868
X278.993 Y-149.358
X279.043 Y-149.832
X279.103 Y-150.288
X279.175 Y-150.727
X279.258 Y-151.15
X279.352 Y-151.555
X279.457 Y-151.943
X279.573 Y-152.314
X279.699 Y-152.668
X279.837 Y-153.004
X279.986 Y-153.324
X280.146 Y-153.626
X280.317 Y-153.912
X280.5 Y-154.18
X280.693 Y-154.431
X280.897 Y-154.665
X281.112 Y-154.882
X281.338 Y-155.082
X281.576 Y-155.265
X281.824 Y-155.431
X282.083 Y-155.579
X282.354 Y-155.711
X282.635 Y-155.825
X282.928 Y-155.922
X283.231 Y-156.002
X283.546 Y-156.065
X283.871 Y-156.111
X284.208 Y-156.14
X284.555 Y-156.152
X285.115 Y-156.117
X285.638 Y-156.015
X286.126 Y-155.852
X286.58 Y-155.635
X287.001 Y-155.367
X287.391 Y-155.056
X287.75 Y-154.707
X288.08 Y-154.325
X288.382 Y-153.917
X288.657 Y-153.487
X288.906 Y-153.042
X289.131 Y-152.588
X289.332 Y-152.129
X289.51 Y-151.673
X289.667 Y-151.223
X289.804 Y-150.787
X289.817 Y-150.801
X289.83 Y-150.699
X289.959 Y-150.23
X290.066 Y-149.795
X290.152 Y-149.403
X290.218 Y-149.063
X290.22 Y-149.057
X290.254 Y-148.859
X290.283 Y-148.681
X290.307 Y-148.524
X290.324 Y-148.386
X290.322 Y-148.385
X290.404 Y-147.948
X290.492 Y-147.543
X290.587 Y-147.167
X290.687 Y-146.822
X290.793 Y-146.508
X290.906 Y-146.224
X291.024 Y-145.97
X291.149 Y-145.747
X291.28 Y-145.554
X291.417 Y-145.392
X291.56 Y-145.261
X291.709 Y-145.159
X291.864 Y-145.089
X292.025 Y-145.048
X292.193 Y-145.038
X292.366 Y-145.059
X292.559 Y-145.036
X292.739 Y-145.038
X292.907 Y-145.064
X293.063 Y-145.114
X293.206 Y-145.189
X293.336 Y-145.288
X293.454 Y-145.412
X293.56 Y-145.56
X293.653 Y-145.733
X293.733 Y-145.93
X293.801 Y-146.151
X293.857 Y-146.397
X293.9 Y-146.667
X293.931 Y-146.962
X293.949 Y-147.281
X293.955 Y-147.624
X293.945 Y-147.98
X293.917 Y-148.315
X293.871 Y-148.628
X293.806 Y-148.919
X293.723 Y-149.189
X293.622 Y-149.438
X293.502 Y-149.665
X293.364 Y-149.87
X293.208 Y-150.054
X293.033 Y-150.216
X292.84 Y-150.357
X292.629 Y-150.476
X292.399 Y-150.574
X292.151 Y-150.65
X291.884 Y-150.705
X291.599 Y-150.738
X291.994 Y-156.128
X292.645 Y-156.095
X293.253 Y-155.996
X293.82 Y-155.831
X294.344 Y-155.601
X294.827 Y-155.305
X295.267 Y-154.943
X295.666 Y-154.516
X296.023 Y-154.023
X296.337 Y-153.464
X296.61 Y-152.839
X296.841 Y-152.149
X297.03 Y-151.393
X297.177 Y-150.571
X297.282 Y-149.684
X297.345 Y-148.731
X297.366 Y-147.712
X297.345 Y-146.676
X297.283 Y-145.707
X297.179 Y-144.804
X297.035 Y-143.968
X296.848 Y-143.198
X296.621 Y-142.495
X296.352 Y-141.858
X296.041 Y-141.288
X295.69 Y-140.784
X295.297 Y-140.347
X294.862 Y-139.976
X294.386 Y-139.672
X293.869 Y-139.434
X293.31 Y-139.263
X292.71 Y-139.158
X292.069 Y-139.12
X291.7 Y-139.136
X291.346 Y-139.181
X291.009 Y-139.255
X290.686 Y-139.355
X290.379 Y-139.48
X290.086 Y-139.629
X289.807 Y-139.8
X289.543 Y-139.99
X289.292 Y-140.2
X289.054 Y-140.426
X288.617 Y-140.922
X288.229 Y-141.467
X287.887 Y-142.047
X287.589 Y-142.65
X287.332 Y-143.261
X287.112 Y-143.869
X286.928 Y-144.461
X286.777 Y-145.022
X286.655 Y-145.541
X286.561 Y-146.005
X286.491 Y-146.4
X286.396 Y-146.893
X286.298 Y-147.343
X286.195 Y-147.759
X286.087 Y-148.142
X285.973 Y-148.491
X285.855 Y-148.806
X285.731 Y-149.089
X285.602 Y-149.338
X285.468 Y-149.553
X285.329 Y-149.735
X285.185 Y-149.883
X285.036 Y-149.998
X284.882 Y-150.08
X284.722 Y-150.128
X284.557 Y-150.142
X284.387 Y-150.123
X284.18 Y-150.136
X283.985 Y-150.124
X283.804 Y-150.088
X283.636 Y-150.028
X283.482 Y-149.943
X283.341 Y-149.833
X283.214 Y-149.699
X283.1 Y-149.541
X282.999 Y-149.358
X282.912 Y-149.151
X282.838 Y-148.919
X282.778 Y-148.663
X282.731 Y-148.382
X282.697 Y-148.077
X282.677 Y-147.747
X282.67 Y-147.393
X282.679 Y-147.037
X282.705 Y-146.702
X282.749 Y-146.388
X282.81 Y-146.094
X282.888 Y-145.821
X282.984 Y-145.569
X283.097 Y-145.337
X283.228 Y-145.126
X283.376 Y-144.936
X283.541 Y-144.767
X283.724 Y-144.618
X283.924 Y-144.49
X284.142 Y-144.383
X284.377 Y-144.296
X284.63 Y-144.23
X284.9 Y-144.185
X284.63 Y-138.636
G0 Z5
X293.958 Y-157.845
Z0
G1 X303.794 F500
Y-163.319
X279.343
Y-157.845
X293.958
G0 Z5
X283.446 Y-166.105
Z0
G1 X283.073 Y-166.303 F500
X282.712 Y-166.518
X282.363 Y-166.752
X282.029 Y-167.003
X281.708 Y-167.273
X281.402 Y-167.561
X281.111 Y-167.868
X280.836 Y-168.193
X280.577 Y-168.537
X280.336 Y-168.9
X280.112 Y-169.281
X279.907 Y-169.682
X279.72 Y-170.101
X279.554 Y-170.54
X279.407 Y-170.998
X279.281 Y-171.475
X279.177 Y-171.972
X279.095 Y-172.489
X279.036 Y-173.025
X279 Y-173.582
X278.987 Y-174.158
X278.999 Y-174.734
X279.035 Y-175.291
X279.094 Y-175.828
X279.175 Y-176.345
X279.279 Y-176.843
X279.403 Y-177.321
X279.548 Y-177.78
X279.714 Y-178.22
X279.899 Y-178.64
X280.103 Y-179.042
X280.325 Y-179.424
X280.565 Y-179.788
X280.822 Y-180.133
X281.096 Y-180.46
X281.385 Y-180.768
X281.69 Y-181.057
X282.01 Y-181.329
X282.344 Y-181.582
X282.692 Y-181.817
X283.052 Y-182.033
X283.425 Y-182.232
X283.81 Y-182.414
X284.206 Y-182.577
X284.612 Y-182.723
X285.455 Y-182.962
X286.333 Y-183.132
X287.242 Y-183.233
X288.176 Y-183.266
X289.11 Y-183.233
X290.019 Y-183.132
X290.897 Y-182.962
X291.74 Y-182.723
X292.146 Y-182.577
X292.542 Y-182.413
X292.927 Y-182.232
X293.3 Y-182.033
X293.661 Y-181.817
X294.008 Y-181.582
X294.342 Y-181.329
X294.662 Y-181.057
X294.967 Y-180.768
X295.257 Y-180.46
X295.53 Y-180.133
X295.787 Y-179.788
X296.027 Y-179.424
X296.25 Y-179.042
X296.454 Y-178.64
X296.638 Y-178.219
X296.804 Y-177.78
X296.949 Y-177.321
X297.074 Y-176.843
X297.177 Y-176.345
X297.258 Y-175.828
X297.317 Y-175.291
X297.353 Y-174.734
X297.365 Y-174.158
X297.353 Y-173.582
X297.317 Y-173.026
X297.257 Y-172.489
X297.175 Y-171.973
X297.071 Y-171.476
X296.945 Y-170.998
X296.799 Y-170.54
X296.632 Y-170.102
X296.445 Y-169.682
X296.24 Y-169.282
X296.016 Y-168.9
X295.775 Y-168.537
X295.516 Y-168.194
X295.241 Y-167.868
X294.95 Y-167.562
X294.644 Y-167.274
X294.323 Y-167.004
X293.988 Y-166.752
X293.64 Y-166.518
X293.279 Y-166.303
X292.906 Y-166.105
X292.521 Y-165.925
X292.126 Y-165.763
X291.72 Y-165.618
X290.879 Y-165.381
X290.005 Y-165.212
X289.102 Y-165.112
X288.176 Y-165.079
X287.249 Y-165.112
X286.346 Y-165.212
X285.472 Y-165.381
X284.632 Y-165.618
X284.226 Y-165.763
X283.831 Y-165.925
X283.446 Y-166.105
G0 Z5
X293.688 Y-174.17
Z0
G1 X293.686 Y-174.308 F500
X293.672 Y-174.485
X293.639 Y-174.694
X293.578 Y-174.928
X293.485 Y-175.182
X293.352 Y-175.447
X293.172 Y-175.719
X292.938 Y-175.99
X292.644 Y-176.253
X292.283 Y-176.503
X292.076 Y-176.62
X291.849 Y-176.732
X291.602 Y-176.837
X291.334 Y-176.934
X291.044 Y-177.023
X290.732 Y-177.103
X290.396 Y-177.173
X290.035 Y-177.231
X289.65 Y-177.279
X289.238 Y-177.313
X288.8 Y-177.335
X288.334 Y-177.342
X287.868 Y-177.335
X287.429 Y-177.313
X287.018 Y-177.279
X286.632 Y-177.231
X286.272 Y-177.173
X285.936 Y-177.103
X285.624 Y-177.023
X285.334 Y-176.934
X285.066 Y-176.837
X284.819 Y-176.732
X284.592 Y-176.62
X284.384 Y-176.503
X284.024 Y-176.253
X283.73 Y-175.99
X283.496 Y-175.719
X283.316 Y-175.447
X283.183 Y-175.182
X283.09 Y-174.928
X283.029 Y-174.694
X282.996 Y-174.485
X282.981 Y-174.308
X282.98 Y-174.17
X282.981 Y-174.032
X282.996 Y-173.855
X283.029 Y-173.646
X283.09 Y-173.412
X283.183 Y-173.159
X283.316 Y-172.893
X283.496 Y-172.622
X283.73 Y-172.351
X284.024 Y-172.087
X284.384 Y-171.838
X284.592 Y-171.72
X284.819 Y-171.609
X285.066 Y-171.504
X285.334 Y-171.407
X285.623 Y-171.318
X285.936 Y-171.238
X286.272 Y-171.168
X286.632 Y-171.109
X287.018 Y-171.062
X287.429 Y-171.027
X287.868 Y-171.006
X288.334 Y-170.999
X288.8 Y-171.006
X289.238 Y-171.027
X289.65 Y-171.062
X290.035 Y-171.109
X290.396 Y-171.168
X290.732 Y-171.238
X291.044 Y-171.318
X291.334 Y-171.407
X291.602 Y-171.504
X291.849 Y-171.609
X292.076 Y-171.72
X292.283 Y-171.838
X292.644 Y-172.087
X292.938 Y-172.351
X293.172 Y-172.622
X293.352 Y-172.893
X293.485 Y-173.159
X293.578 Y-173.412
X293.639 Y-173.646
X293.672 Y-173.855
X293.686 Y-174.032
X293.688 Y-174.17
G0 Z5
X285.825 Y-185.941
Z0
G1 X279.358 Y-187.502 F500
Y-194.286
X289.69 Y-196.43
Y-196.434
X279.358 Y-198.577
Y-205.362
X296.993 Y-209.617
Y-203.961
X285.646 Y-201.26
X296.993 Y-198.678
Y-194.257
X285.646 Y-191.556
X296.993 Y-188.974
Y-183.246
X285.825 Y-185.941
G0 Z5
X290.301 Y-77.271
Z0
G1 X289.653 Y-77.204 F500
X289.012 Y-77.11
X288.378 Y-76.99
X287.751 Y-76.844
X287.132 Y-76.671
X286.522 Y-76.473
X285.92 Y-76.249
X285.328 Y-76
X284.747 Y-75.725
X284.176 Y-75.426
X283.616 Y-75.101
X283.067 Y-74.752
X282.531 Y-74.378
X282.008 Y-73.98
X281.87 Y-73.848
X281.759 Y-73.693
X281.679 Y-73.522
X281.631 Y-73.337
X281.553 Y-72.789
X281.502 Y-72.262
X281.476 Y-71.755
Y-71.269
X281.501 Y-70.803
X281.553 Y-70.359
X281.629 Y-69.935
X281.732 Y-69.533
X281.86 Y-69.151
X282.014 Y-68.791
X282.193 Y-68.451
X282.397 Y-68.133
X282.628 Y-67.837
X282.883 Y-67.562
X283.164 Y-67.308
X283.47 Y-67.076
X283.933 Y-66.796
X284.434 Y-66.567
X284.97 Y-66.387
X285.537 Y-66.253
X286.134 Y-66.164
X286.758 Y-66.117
X287.405 Y-66.109
X288.073 Y-66.137
X288.759 Y-66.201
X289.461 Y-66.296
X290.175 Y-66.421
X290.899 Y-66.572
X291.63 Y-66.749
X292.365 Y-66.947
X293.837 Y-67.401
X280.638 Y-58.109
X280.45 Y-57.94
X280.313 Y-57.736
X280.228 Y-57.507
X280.199 Y-57.265
X280.222 Y-57.051
X280.291 Y-56.841
X280.38 Y-56.682
X280.493 Y-56.545
X280.627 Y-56.43
X280.777 Y-56.34
X280.939 Y-56.276
X281.112 Y-56.241
X281.29 Y-56.235
X281.471 Y-56.262
X297.646 Y-60.113
X283.933 Y-50.892
X283.277 Y-51.381
X282.657 Y-51.904
X282.072 Y-52.46
X281.525 Y-53.047
X281.016 Y-53.663
X280.547 Y-54.307
X280.117 Y-54.976
X279.728 Y-55.669
X279.382 Y-56.384
X279.078 Y-57.12
X278.818 Y-57.874
X278.604 Y-58.645
X278.435 Y-59.431
X278.314 Y-60.231
X278.24 Y-61.043
X278.215 Y-61.864
X278.254 Y-62.897
X278.371 Y-63.917
X278.564 Y-64.919
X278.833 Y-65.901
X279.176 Y-66.859
X279.592 Y-67.789
X280.081 Y-68.688
X280.641 Y-69.554
X280.743 Y-69.736
X280.805 Y-69.929
X280.828 Y-70.127
X280.813 Y-70.325
X280.76 Y-70.515
X280.671 Y-70.694
X280.547 Y-70.855
X280.389 Y-70.991
X280.207 Y-71.093
X280.014 Y-71.156
X279.816 Y-71.178
X279.618 Y-71.163
X279.427 Y-71.111
X279.249 Y-71.022
X279.088 Y-70.898
X278.952 Y-70.74
X278.618 Y-70.245
X278.305 Y-69.741
X278.013 Y-69.226
X277.741 Y-68.702
X277.49 Y-68.17
X277.261 Y-67.628
X277.052 Y-67.079
X276.865 Y-66.523
X276.699 Y-65.96
X276.555 Y-65.39
X276.432 Y-64.814
X276.332 Y-64.233
X276.253 Y-63.647
X276.197 Y-63.057
X276.163 Y-62.462
X276.152 Y-61.864
X276.178 Y-60.965
X276.254 Y-60.077
X276.38 Y-59.2
X276.556 Y-58.337
X276.779 Y-57.49
X277.049 Y-56.659
X277.365 Y-55.847
X277.726 Y-55.056
X278.131 Y-54.287
X278.579 Y-53.542
X279.069 Y-52.822
X279.6 Y-52.13
X280.172 Y-51.467
X280.782 Y-50.835
X281.431 Y-50.236
X282.117 Y-49.67
X281.876 Y-49.508
X281.715 Y-49.375
X281.588 Y-49.217
X281.496 Y-49.04
X281.439 Y-48.85
X281.42 Y-48.653
X281.439 Y-48.455
X281.497 Y-48.261
X281.596 Y-48.077
X281.729 Y-47.916
X281.887 Y-47.788
X282.064 Y-47.696
X282.254 Y-47.64
X282.451 Y-47.62
X282.649 Y-47.639
X282.843 Y-47.697
X283.028 Y-47.796
X303.526 Y-61.581
X303.669 Y-61.697
X303.787 Y-61.833
X303.878 Y-61.985
X303.941 Y-62.149
X303.976 Y-62.322
X303.981 Y-62.499
X303.954 Y-62.677
X303.896 Y-62.852
X303.807 Y-63.013
X303.695 Y-63.153
X303.561 Y-63.27
X303.411 Y-63.361
X303.247 Y-63.426
X303.073 Y-63.462
X302.894 Y-63.468
X302.712 Y-63.441
X286.218 Y-59.514
X301.84 Y-70.512
X302.213 Y-70.052
X302.565 Y-69.578
X302.893 Y-69.09
X303.2 Y-68.591
X303.483 Y-68.079
X303.743 Y-67.556
X303.98 Y-67.023
X304.193 Y-66.48
X304.382 Y-65.928
X304.547 Y-65.367
X304.687 Y-64.799
X304.802 Y-64.224
X304.892 Y-63.642
X304.957 Y-63.054
X304.996 Y-62.461
X305.009 Y-61.864
X304.992 Y-61.176
X304.94 Y-60.496
X304.855 Y-59.827
X304.737 Y-59.168
X304.587 Y-58.52
X304.406 Y-57.885
X304.195 Y-57.263
X303.955 Y-56.654
X303.686 Y-56.061
X303.39 Y-55.484
X303.067 Y-54.923
X302.718 Y-54.379
X302.344 Y-53.854
X301.946 Y-53.347
X301.525 Y-52.861
X301.081 Y-52.396
X300.616 Y-51.952
X300.129 Y-51.53
X299.623 Y-51.132
X299.098 Y-50.758
X298.554 Y-50.41
X297.993 Y-50.087
X297.415 Y-49.791
X296.822 Y-49.522
X296.214 Y-49.282
X295.592 Y-49.071
X294.957 Y-48.89
X294.309 Y-48.74
X293.65 Y-48.622
X292.98 Y-48.537
X292.301 Y-48.485
X291.612 Y-48.467
X291.066 Y-48.478
X290.521 Y-48.511
X289.981 Y-48.566
X289.443 Y-48.642
X288.91 Y-48.74
X288.382 Y-48.859
X287.859 Y-49
X287.341 Y-49.162
X287.137 Y-49.209
X286.935 Y-49.214
X286.738 Y-49.179
X286.553 Y-49.108
X286.385 Y-49.004
X286.239 Y-48.868
X286.121 Y-48.703
X286.035 Y-48.513
X285.994 Y-48.349
X285.981 Y-48.184
X285.993 Y-48.024
X286.03 Y-47.87
X286.089 Y-47.724
X286.17 Y-47.588
X286.272 Y-47.466
X286.392 Y-47.36
X286.53 Y-47.272
X286.684 Y-47.206
X287.281 Y-47.019
X287.885 Y-46.856
X288.495 Y-46.718
X289.11 Y-46.605
X289.73 Y-46.517
X290.354 Y-46.454
X290.982 Y-46.416
X291.612 Y-46.404
X292.407 Y-46.424
X293.191 Y-46.484
X293.964 Y-46.582
X294.724 Y-46.718
X295.472 Y-46.891
X296.205 Y-47.1
X296.923 Y-47.343
X297.625 Y-47.621
X298.309 Y-47.931
X298.976 Y-48.272
X299.623 Y-48.645
X300.251 Y-49.048
X300.857 Y-49.479
X301.441 Y-49.939
X302.003 Y-50.425
X302.54 Y-50.937
X303.052 Y-51.474
X303.538 Y-52.036
X303.998 Y-52.62
X304.429 Y-53.226
X304.832 Y-53.854
X305.204 Y-54.501
X305.546 Y-55.167
X305.856 Y-55.852
X306.133 Y-56.554
X306.377 Y-57.272
X306.586 Y-58.005
X306.758 Y-58.752
X306.895 Y-59.513
X306.993 Y-60.286
X307.053 Y-61.07
X307.073 Y-61.864
X307.059 Y-62.542
X307.015 Y-63.215
X306.943 Y-63.882
X306.842 Y-64.542
X306.713 Y-65.196
X306.557 Y-65.841
X306.373 Y-66.479
X306.161 Y-67.106
X305.923 Y-67.724
X305.659 Y-68.331
X305.368 Y-68.926
X305.052 Y-69.509
X304.71 Y-70.079
X304.342 Y-70.636
X303.95 Y-71.177
X303.533 Y-71.704
X303.964 Y-72.007
X304.117 Y-72.139
X304.239 Y-72.294
X304.327 Y-72.466
X304.382 Y-72.65
X304.402 Y-72.841
X304.385 Y-73.034
X304.332 Y-73.224
X304.24 Y-73.404
X304.116 Y-73.563
X303.967 Y-73.692
X303.799 Y-73.789
X303.617 Y-73.852
X303.427 Y-73.881
X303.234 Y-73.874
X303.042 Y-73.829
X302.858 Y-73.746
X302.341 Y-73.455
X301.801 Y-73.16
X300.659 Y-72.561
X299.448 Y-71.96
X298.183 Y-71.367
X296.881 Y-70.793
X295.557 Y-70.249
X294.228 Y-69.746
X292.909 Y-69.293
X291.616 Y-68.901
X290.985 Y-68.732
X290.366 Y-68.582
X289.762 Y-68.453
X289.174 Y-68.346
X288.605 Y-68.261
X288.056 Y-68.202
X287.53 Y-68.169
X287.028 Y-68.163
X286.553 Y-68.185
X286.107 Y-68.238
X285.691 Y-68.321
X285.307 Y-68.438
X284.958 Y-68.588
X284.646 Y-68.773
X284.478 Y-68.901
X284.325 Y-69.045
X284.184 Y-69.203
X284.058 Y-69.376
X283.945 Y-69.565
X283.846 Y-69.768
X283.761 Y-69.986
X283.689 Y-70.219
X283.631 Y-70.467
X283.587 Y-70.729
X283.556 Y-71.006
X283.54 Y-71.298
X283.537 Y-71.604
X283.548 Y-71.925
X283.611 Y-72.61
X284.051 Y-72.926
X284.502 Y-73.222
X284.961 Y-73.499
X285.43 Y-73.757
X285.908 Y-73.994
X286.393 Y-74.212
X286.887 Y-74.409
X287.387 Y-74.587
X287.895 Y-74.743
X288.41 Y-74.88
X288.93 Y-74.996
X289.457 Y-75.091
X289.989 Y-75.165
X290.525 Y-75.218
X291.067 Y-75.251
X291.613 Y-75.261
X292.575 Y-75.227
X293.527 Y-75.125
X294.466 Y-74.956
X295.388 Y-74.721
X296.291 Y-74.421
X297.171 Y-74.057
X298.025 Y-73.63
X298.849 Y-73.14
X299.035 Y-73.046
X299.231 Y-72.991
X299.43 Y-72.977
X299.626 Y-73
X299.815 Y-73.06
X299.99 Y-73.156
X300.145 Y-73.287
X300.275 Y-73.45
X300.37 Y-73.636
X300.424 Y-73.832
X300.439 Y-74.031
X300.416 Y-74.227
X300.355 Y-74.416
X300.259 Y-74.591
X300.129 Y-74.746
X299.965 Y-74.876
X299.013 Y-75.441
X298.028 Y-75.935
X297.012 Y-76.355
X295.97 Y-76.701
X294.905 Y-76.973
X293.822 Y-77.168
X292.723 Y-77.285
X291.613 Y-77.325
X290.954 Y-77.312
X290.301 Y-77.271
G0 Z7
M9
G28 G91 Z0
G28 X0 Y0
M30
%
