(METICULOUSSLED_DUSTWINDOW_0188-DRILL)
(DRILL PROGRAM FOR THE METICULOUS SLED DUST CHUTE WINDOW. SEE TOOL LIST BELOW FOR NEEDED TOOLING.)
(T5  D=4.762 CR=0 TAPER=118DEG - ZMIN=-6 - DRILL)
G0 G40 G90 G17
G21

(DRILL4)
T5 M6
M3 S10000
G0 X-65 Y0
G0 Z5
G1 Z-6 F1000.
G0 Z5
G0 X0 Y65
G1 Z-6 F1000.
G0 Z5
G0 X65 Y0
G1 Z-6 F1000.
G0 Z5

G0 Z5
M5
M30
