%
(MeticulousSled_0250-1FL)
(T1  D=6.35 CR=0 - ZMIN=-18.5 - flat end mill)
G90 G94
G17
G21
G28 G91 Z0
G90

(2D Pocket2)
M9
T1 M6
S12000 M3
G54
M9
G0 X1.175 Y76.2
Z5
G1 Z2.5 F500
Z-8
G2 X2.825 I0.825
X-2.825 I-2.825
X6.825 I4.825
X-6.825 I-6.825
X10.825 I8.825
X-10.825 I-10.825
X10.825 I10.825
X10.19 Y75.565 I-0.635
G0 Z5
X80.997 Y80.822
G1 Z2.5 F500
Z-8
G2 X84.647 I1.825
X76.997 I-3.825
X88.647 I5.825
X72.997 I-7.825
X88.647 I7.825
X88.012 Y80.187 I-0.635
G0 Z5
X80.997 Y-80.822
G1 Z2.5 F500
Z-8
G2 X84.647 I1.825
X76.997 I-3.825
X88.647 I5.825
X72.997 I-7.825
X88.647 I7.825
X88.012 Y-81.457 I-0.635
G0 Z5
X-80.647 Y-80.822
G1 Z2.5 F500
Z-8
G2 X-76.997 I1.825
X-84.647 I-3.825
X-72.997 I5.825
X-88.647 I-7.825
X-72.997 I7.825
X-73.632 Y-81.457 I-0.635
G0 Z5
X-80.647 Y80.822
G1 Z2.5 F500
Z-8
G2 X-76.997 I1.825
X-84.647 I-3.825
X-72.997 I5.825
X-88.647 I-7.825
X-72.997 I7.825
X-73.632 Y80.187 I-0.635
G0 Z5
X1.175 Y228.6
G1 Z2.5 F500
Z-8
G2 X2.825 I0.825
X-2.825 I-2.825
X6.825 I4.825
X-6.825 I-6.825
X10.825 I8.825
X-10.825 I-10.825
X10.825 I10.825
X10.19 Y227.965 I-0.635
G0 Z5

(2D Pocket4)
M9
Z7
X-129 Y-125.19
G1 Z-6 F500
X-127.009
G2 X-126.69 Y-125.509 J-0.319
G1 Y-129.491
G2 X-127.009 Y-129.81 I-0.319
G1 X-152.991
G2 X-153.31 Y-129.491 J0.319
G1 Y-125.509
G2 X-152.991 Y-125.19 I0.319
G1 X-129
G3 X-125.886 Y-123.403 J3.606
G2 X-123.173 Y-121.051 I4.811 J-2.81
G3 X-122 Y-120.225 I-1.195 J2.941
G2 X-121.717 Y-120.217 I0.145 J-0.13
X-121.725 Y-120.5 I-0.138 J-0.138
G3 X-122.785 Y-122.868 I2.115 J-2.368
G1 Y-132.132
G3 X-121.725 Y-134.5 I3.175
G2 X-121.717 Y-134.783 I-0.13 J-0.145
X-122 Y-134.775 I-0.138 J0.138
G3 X-124.368 Y-133.715 I-2.368 J-2.115
G1 X-155.632
G3 X-158 Y-134.775 J-3.175
G2 X-158.283 Y-134.783 I-0.145 J0.13
X-158.275 Y-134.5 I0.138 J0.138
G3 X-157.215 Y-132.132 I-2.115 J2.368
G1 Y-122.868
G3 X-158.275 Y-120.5 I-3.175
G2 X-158.283 Y-120.217 I0.13 J0.145
X-158 Y-120.225 I0.138 J-0.138
G3 X-155.632 Y-121.285 I2.368 J2.115
G1 X-124.368
G3 X-123.173 Y-121.051 J3.175
G2 X-123.093 Y-121.153 I0.025 J-0.062
G1 X-123.251 Y-121.367
X-128.252 Y-125.54
G2 X-128.335 Y-125.591 I-0.208 J0.249
G1 X-128.875 Y-125.815
G2 X-129.125 Y-125.215 I-0.125 J0.3
X-129 Y-125.19 I0.125 J-0.3
G1 Z-12
X-127.009
G2 X-126.69 Y-125.509 J-0.319
G1 Y-129.491
G2 X-127.009 Y-129.81 I-0.319
G1 X-152.991
G2 X-153.31 Y-129.491 J0.319
G1 Y-125.509
G2 X-152.991 Y-125.19 I0.319
G1 X-129
G3 X-125.886 Y-123.403 J3.606
G2 X-123.173 Y-121.051 I4.811 J-2.81
G3 X-122 Y-120.225 I-1.195 J2.941
G2 X-121.717 Y-120.217 I0.145 J-0.13
X-121.725 Y-120.5 I-0.138 J-0.138
G3 X-122.785 Y-122.868 I2.115 J-2.368
G1 Y-132.132
G3 X-121.725 Y-134.5 I3.175
G2 X-121.717 Y-134.783 I-0.13 J-0.145
X-122 Y-134.775 I-0.138 J0.138
G3 X-124.368 Y-133.715 I-2.368 J-2.115
G1 X-155.632
G3 X-158 Y-134.775 J-3.175
G2 X-158.283 Y-134.783 I-0.145 J0.13
X-158.275 Y-134.5 I0.138 J0.138
G3 X-157.215 Y-132.132 I-2.115 J2.368
G1 Y-122.868
G3 X-158.275 Y-120.5 I-3.175
G2 X-158.283 Y-120.217 I0.13 J0.145
X-158 Y-120.225 I0.138 J-0.138
G3 X-155.632 Y-121.285 I2.368 J2.115
G1 X-124.368
G3 X-123.173 Y-121.051 J3.175
G2 X-123.093 Y-121.153 I0.025 J-0.062
G1 X-123.251 Y-121.367
X-128.252 Y-125.54
G2 X-128.335 Y-125.591 I-0.208 J0.249
G1 X-128.875 Y-125.815
G2 X-129.125 Y-125.215 I-0.125 J0.3
X-129 Y-125.19 I0.125 J-0.3
G1 Z-15.25
X-127.009
G2 X-126.69 Y-125.509 J-0.319
G1 Y-129.491
G2 X-127.009 Y-129.81 I-0.319
G1 X-152.991
G2 X-153.31 Y-129.491 J0.319
G1 Y-125.509
G2 X-152.991 Y-125.19 I0.319
G1 X-129
G3 X-125.886 Y-123.403 J3.606
G2 X-123.173 Y-121.051 I4.811 J-2.81
G3 X-122 Y-120.225 I-1.195 J2.941
G2 X-121.717 Y-120.217 I0.145 J-0.13
X-121.725 Y-120.5 I-0.138 J-0.138
G3 X-122.785 Y-122.868 I2.115 J-2.368
G1 Y-132.132
G3 X-121.725 Y-134.5 I3.175
G2 X-121.717 Y-134.783 I-0.13 J-0.145
X-122 Y-134.775 I-0.138 J0.138
G3 X-124.368 Y-133.715 I-2.368 J-2.115
G1 X-155.632
G3 X-158 Y-134.775 J-3.175
G2 X-158.283 Y-134.783 I-0.145 J0.13
X-158.275 Y-134.5 I0.138 J0.138
G3 X-157.215 Y-132.132 I-2.115 J2.368
G1 Y-122.868
G3 X-158.275 Y-120.5 I-3.175
G2 X-158.283 Y-120.217 I0.13 J0.145
X-158 Y-120.225 I0.138 J-0.138
G3 X-155.632 Y-121.285 I2.368 J2.115
G1 X-124.368
G3 X-123.173 Y-121.051 J3.175
G2 X-123.093 Y-121.153 I0.025 J-0.062
G1 X-123.251 Y-121.367
X-128.252 Y-125.54
G2 X-128.335 Y-125.591 I-0.208 J0.249
G1 X-128.875 Y-125.815
G2 X-129.125 Y-125.215 I-0.125 J0.3
X-129 Y-125.19 I0.125 J-0.3
G1 Z-18.5
X-127.009
G2 X-126.69 Y-125.509 J-0.319
G1 Y-129.491
G2 X-127.009 Y-129.81 I-0.319
G1 X-152.991
G2 X-153.31 Y-129.491 J0.319
G1 Y-125.509
G2 X-152.991 Y-125.19 I0.319
G1 X-129
G3 X-125.886 Y-123.403 J3.606
G2 X-123.173 Y-121.051 I4.811 J-2.81
G3 X-122 Y-120.225 I-1.195 J2.941
G2 X-121.717 Y-120.217 I0.145 J-0.13
X-121.725 Y-120.5 I-0.138 J-0.138
G3 X-122.785 Y-122.868 I2.115 J-2.368
G1 Y-132.132
G3 X-121.725 Y-134.5 I3.175
G2 X-121.717 Y-134.783 I-0.13 J-0.145
X-122 Y-134.775 I-0.138 J0.138
G3 X-124.368 Y-133.715 I-2.368 J-2.115
G1 X-155.632
G3 X-158 Y-134.775 J-3.175
G2 X-158.283 Y-134.783 I-0.145 J0.13
X-158.275 Y-134.5 I0.138 J0.138
G3 X-157.215 Y-132.132 I-2.115 J2.368
G1 Y-122.868
G3 X-158.275 Y-120.5 I-3.175
G2 X-158.283 Y-120.217 I0.13 J0.145
X-158 Y-120.225 I0.138 J-0.138
G3 X-155.632 Y-121.285 I2.368 J2.115
G1 X-124.368
G3 X-123.173 Y-121.051 J3.175
G0 Z7
X-77.69 Y-202.5
G1 Z-6 F500
Y-204.491
G2 X-78.009 Y-204.81 I-0.319
G1 X-81.995
G2 X-82.31 Y-204.495 J0.315
G1 Y-168.509
G2 X-81.991 Y-168.19 I0.319
G1 X-78.009
G2 X-77.69 Y-168.509 J-0.319
G1 Y-202.5
G3 X-75.903 Y-205.614 I3.606
G2 X-73.551 Y-208.327 I-2.81 J-4.811
G3 X-72.725 Y-209.5 I2.941 J1.195
G2 X-72.717 Y-209.783 I-0.13 J-0.145
X-73 Y-209.775 I-0.138 J0.138
G3 X-75.368 Y-208.715 I-2.368 J-2.115
G1 X-84.632
G3 X-87 Y-209.775 J-3.175
G2 X-87.283 Y-209.783 I-0.145 J0.13
X-87.275 Y-209.5 I0.138 J0.138
G3 X-86.215 Y-207.132 I-2.115 J2.368
G1 Y-165.868
G3 X-87.275 Y-163.5 I-3.175
G2 X-87.283 Y-163.217 I0.13 J0.145
X-87 Y-163.225 I0.138 J-0.138
G3 X-84.632 Y-164.285 I2.368 J2.115
G1 X-75.368
G3 X-73 Y-163.225 J3.175
G2 X-72.717 Y-163.217 I0.145 J-0.13
X-72.725 Y-163.5 I-0.138 J-0.138
G3 X-73.785 Y-165.868 I2.115 J-2.368
G1 Y-207.132
G3 X-73.551 Y-208.327 I3.175
G2 X-73.653 Y-208.407 I-0.062 J-0.025
G1 X-73.867 Y-208.249
X-78.04 Y-203.248
G2 X-78.091 Y-203.165 I0.249 J0.208
G1 X-78.315 Y-202.625
G2 X-77.715 Y-202.375 I0.3 J0.125
X-77.69 Y-202.5 I-0.3 J-0.125
G1 Z-12
Y-204.491
G2 X-78.009 Y-204.81 I-0.319
G1 X-81.995
G2 X-82.31 Y-204.495 J0.315
G1 Y-168.509
G2 X-81.991 Y-168.19 I0.319
G1 X-78.009
G2 X-77.69 Y-168.509 J-0.319
G1 Y-202.5
G3 X-75.903 Y-205.614 I3.606
G2 X-73.551 Y-208.327 I-2.81 J-4.811
G3 X-72.725 Y-209.5 I2.941 J1.195
G2 X-72.717 Y-209.783 I-0.13 J-0.145
X-73 Y-209.775 I-0.138 J0.138
G3 X-75.368 Y-208.715 I-2.368 J-2.115
G1 X-84.632
G3 X-87 Y-209.775 J-3.175
G2 X-87.283 Y-209.783 I-0.145 J0.13
X-87.275 Y-209.5 I0.138 J0.138
G3 X-86.215 Y-207.132 I-2.115 J2.368
G1 Y-165.868
G3 X-87.275 Y-163.5 I-3.175
G2 X-87.283 Y-163.217 I0.13 J0.145
X-87 Y-163.225 I0.138 J-0.138
G3 X-84.632 Y-164.285 I2.368 J2.115
G1 X-75.368
G3 X-73 Y-163.225 J3.175
G2 X-72.717 Y-163.217 I0.145 J-0.13
X-72.725 Y-163.5 I-0.138 J-0.138
G3 X-73.785 Y-165.868 I2.115 J-2.368
G1 Y-207.132
G3 X-73.551 Y-208.327 I3.175
G2 X-73.653 Y-208.407 I-0.062 J-0.025
G1 X-73.867 Y-208.249
X-78.04 Y-203.248
G2 X-78.091 Y-203.165 I0.249 J0.208
G1 X-78.315 Y-202.625
G2 X-77.715 Y-202.375 I0.3 J0.125
X-77.69 Y-202.5 I-0.3 J-0.125
G1 Z-15.25
Y-204.491
G2 X-78.009 Y-204.81 I-0.319
G1 X-81.995
G2 X-82.31 Y-204.495 J0.315
G1 Y-168.509
G2 X-81.991 Y-168.19 I0.319
G1 X-78.009
G2 X-77.69 Y-168.509 J-0.319
G1 Y-202.5
G3 X-75.903 Y-205.614 I3.606
G2 X-73.551 Y-208.327 I-2.81 J-4.811
G3 X-72.725 Y-209.5 I2.941 J1.195
G2 X-72.717 Y-209.783 I-0.13 J-0.145
X-73 Y-209.775 I-0.138 J0.138
G3 X-75.368 Y-208.715 I-2.368 J-2.115
G1 X-84.632
G3 X-87 Y-209.775 J-3.175
G2 X-87.283 Y-209.783 I-0.145 J0.13
X-87.275 Y-209.5 I0.138 J0.138
G3 X-86.215 Y-207.132 I-2.115 J2.368
G1 Y-165.868
G3 X-87.275 Y-163.5 I-3.175
G2 X-87.283 Y-163.217 I0.13 J0.145
X-87 Y-163.225 I0.138 J-0.138
G3 X-84.632 Y-164.285 I2.368 J2.115
G1 X-75.368
G3 X-73 Y-163.225 J3.175
G2 X-72.717 Y-163.217 I0.145 J-0.13
X-72.725 Y-163.5 I-0.138 J-0.138
G3 X-73.785 Y-165.868 I2.115 J-2.368
G1 Y-207.132
G3 X-73.551 Y-208.327 I3.175
G2 X-73.653 Y-208.407 I-0.062 J-0.025
G1 X-73.867 Y-208.249
X-78.04 Y-203.248
G2 X-78.091 Y-203.165 I0.249 J0.208
G1 X-78.315 Y-202.625
G2 X-77.715 Y-202.375 I0.3 J0.125
X-77.69 Y-202.5 I-0.3 J-0.125
G1 Z-18.5
Y-204.491
G2 X-78.009 Y-204.81 I-0.319
G1 X-81.995
G2 X-82.31 Y-204.495 J0.315
G1 Y-168.509
G2 X-81.991 Y-168.19 I0.319
G1 X-78.009
G2 X-77.69 Y-168.509 J-0.319
G1 Y-202.5
G3 X-75.903 Y-205.614 I3.606
G2 X-73.551 Y-208.327 I-2.81 J-4.811
G3 X-72.725 Y-209.5 I2.941 J1.195
G2 X-72.717 Y-209.783 I-0.13 J-0.145
X-73 Y-209.775 I-0.138 J0.138
G3 X-75.368 Y-208.715 I-2.368 J-2.115
G1 X-84.632
G3 X-87 Y-209.775 J-3.175
G2 X-87.283 Y-209.783 I-0.145 J0.13
X-87.275 Y-209.5 I0.138 J0.138
G3 X-86.215 Y-207.132 I-2.115 J2.368
G1 Y-165.868
G3 X-87.275 Y-163.5 I-3.175
G2 X-87.283 Y-163.217 I0.13 J0.145
X-87 Y-163.225 I0.138 J-0.138
G3 X-84.632 Y-164.285 I2.368 J2.115
G1 X-75.368
G3 X-73 Y-163.225 J3.175
G2 X-72.717 Y-163.217 I0.145 J-0.13
X-72.725 Y-163.5 I-0.138 J-0.138
G3 X-73.785 Y-165.868 I2.115 J-2.368
G1 Y-207.132
G3 X-73.551 Y-208.327 I3.175
G0 Z7
X82.31 Y-202.5
G1 Z-6 F500
Y-204.491
G2 X81.991 Y-204.81 I-0.319
G1 X78.009
G2 X77.69 Y-204.491 J0.319
G1 Y-168.509
G2 X78.009 Y-168.19 I0.319
G1 X81.991
G2 X82.31 Y-168.509 J-0.319
G1 Y-202.5
G3 X84.097 Y-205.614 I3.606
G2 X86.449 Y-208.327 I-2.81 J-4.811
G3 X87.275 Y-209.5 I2.941 J1.195
G2 X87.283 Y-209.783 I-0.13 J-0.145
X87 Y-209.775 I-0.138 J0.138
G3 X84.632 Y-208.715 I-2.368 J-2.115
G1 X75.368
G3 X73 Y-209.775 J-3.175
G2 X72.717 Y-209.783 I-0.145 J0.13
X72.725 Y-209.5 I0.138 J0.138
G3 X73.785 Y-207.132 I-2.115 J2.368
G1 Y-165.868
G3 X72.725 Y-163.5 I-3.175
G2 X72.717 Y-163.217 I0.13 J0.145
X73 Y-163.225 I0.138 J-0.138
G3 X75.368 Y-164.285 I2.368 J2.115
G1 X84.632
G3 X87 Y-163.225 J3.175
G2 X87.283 Y-163.217 I0.145 J-0.13
X87.275 Y-163.5 I-0.138 J-0.138
G3 X86.215 Y-165.868 I2.115 J-2.368
G1 Y-207.132
G3 X86.449 Y-208.327 I3.175
G2 X86.089 Y-208.5 I-0.185 J-0.075
G1 X82.685 Y-202.403
G3 X82.31 Y-202.5 I-0.175 J-0.097
G1 Z-12
Y-204.491
G2 X81.991 Y-204.81 I-0.319
G1 X78.009
G2 X77.69 Y-204.491 J0.319
G1 Y-168.509
G2 X78.009 Y-168.19 I0.319
G1 X81.991
G2 X82.31 Y-168.509 J-0.319
G1 Y-202.5
G3 X84.097 Y-205.614 I3.606
G2 X86.449 Y-208.327 I-2.81 J-4.811
G3 X87.275 Y-209.5 I2.941 J1.195
G2 X87.283 Y-209.783 I-0.13 J-0.145
X87 Y-209.775 I-0.138 J0.138
G3 X84.632 Y-208.715 I-2.368 J-2.115
G1 X75.368
G3 X73 Y-209.775 J-3.175
G2 X72.717 Y-209.783 I-0.145 J0.13
X72.725 Y-209.5 I0.138 J0.138
G3 X73.785 Y-207.132 I-2.115 J2.368
G1 Y-165.868
G3 X72.725 Y-163.5 I-3.175
G2 X72.717 Y-163.217 I0.13 J0.145
X73 Y-163.225 I0.138 J-0.138
G3 X75.368 Y-164.285 I2.368 J2.115
G1 X84.632
G3 X87 Y-163.225 J3.175
G2 X87.283 Y-163.217 I0.145 J-0.13
X87.275 Y-163.5 I-0.138 J-0.138
G3 X86.215 Y-165.868 I2.115 J-2.368
G1 Y-207.132
G3 X86.449 Y-208.327 I3.175
G2 X86.089 Y-208.5 I-0.185 J-0.075
G1 X82.685 Y-202.403
G3 X82.31 Y-202.5 I-0.175 J-0.097
G1 Z-15.25
Y-204.491
G2 X81.991 Y-204.81 I-0.319
G1 X78.009
G2 X77.69 Y-204.491 J0.319
G1 Y-168.509
G2 X78.009 Y-168.19 I0.319
G1 X81.991
G2 X82.31 Y-168.509 J-0.319
G1 Y-202.5
G3 X84.097 Y-205.614 I3.606
G2 X86.449 Y-208.327 I-2.81 J-4.811
G3 X87.275 Y-209.5 I2.941 J1.195
G2 X87.283 Y-209.783 I-0.13 J-0.145
X87 Y-209.775 I-0.138 J0.138
G3 X84.632 Y-208.715 I-2.368 J-2.115
G1 X75.368
G3 X73 Y-209.775 J-3.175
G2 X72.717 Y-209.783 I-0.145 J0.13
X72.725 Y-209.5 I0.138 J0.138
G3 X73.785 Y-207.132 I-2.115 J2.368
G1 Y-165.868
G3 X72.725 Y-163.5 I-3.175
G2 X72.717 Y-163.217 I0.13 J0.145
X73 Y-163.225 I0.138 J-0.138
G3 X75.368 Y-164.285 I2.368 J2.115
G1 X84.632
G3 X87 Y-163.225 J3.175
G2 X87.283 Y-163.217 I0.145 J-0.13
X87.275 Y-163.5 I-0.138 J-0.138
G3 X86.215 Y-165.868 I2.115 J-2.368
G1 Y-207.132
G3 X86.449 Y-208.327 I3.175
G2 X86.089 Y-208.5 I-0.185 J-0.075
G1 X82.685 Y-202.403
G3 X82.31 Y-202.5 I-0.175 J-0.097
G1 Z-18.5
Y-204.491
G2 X81.991 Y-204.81 I-0.319
G1 X78.009
G2 X77.69 Y-204.491 J0.319
G1 Y-168.509
G2 X78.009 Y-168.19 I0.319
G1 X81.991
G2 X82.31 Y-168.509 J-0.319
G1 Y-202.5
G3 X84.097 Y-205.614 I3.606
G2 X86.449 Y-208.327 I-2.81 J-4.811
G3 X87.275 Y-209.5 I2.941 J1.195
G2 X87.283 Y-209.783 I-0.13 J-0.145
X87 Y-209.775 I-0.138 J0.138
G3 X84.632 Y-208.715 I-2.368 J-2.115
G1 X75.368
G3 X73 Y-209.775 J-3.175
G2 X72.717 Y-209.783 I-0.145 J0.13
X72.725 Y-209.5 I0.138 J0.138
G3 X73.785 Y-207.132 I-2.115 J2.368
G1 Y-165.868
G3 X72.725 Y-163.5 I-3.175
G2 X72.717 Y-163.217 I0.13 J0.145
X73 Y-163.225 I0.138 J-0.138
G3 X75.368 Y-164.285 I2.368 J2.115
G1 X84.632
G3 X87 Y-163.225 J3.175
G2 X87.283 Y-163.217 I0.145 J-0.13
X87.275 Y-163.5 I-0.138 J-0.138
G3 X86.215 Y-165.868 I2.115 J-2.368
G1 Y-207.132
G3 X86.449 Y-208.327 I3.175
G0 Z7
X129 Y-129.81
G1 Z-6 F500
X127.005
G2 X126.69 Y-129.495 J0.315
G1 Y-125.509
G2 X127.009 Y-125.19 I0.319
G1 X152.991
G2 X153.31 Y-125.509 J-0.319
G1 Y-129.491
G2 X152.991 Y-129.81 I-0.319
G1 X129
G3 X125.886 Y-131.597 J-3.606
G2 X123.173 Y-133.949 I-4.811 J2.81
G3 X122 Y-134.775 I1.195 J-2.941
G2 X121.717 Y-134.783 I-0.145 J0.13
X121.725 Y-134.5 I0.138 J0.138
G3 X122.785 Y-132.132 I-2.115 J2.368
G1 Y-122.868
G3 X121.725 Y-120.5 I-3.175
G2 X121.717 Y-120.217 I0.13 J0.145
X122 Y-120.225 I0.138 J-0.138
G3 X124.368 Y-121.285 I2.368 J2.115
G1 X155.632
G3 X158 Y-120.225 J3.175
G2 X158.283 Y-120.217 I0.145 J-0.13
X158.275 Y-120.5 I-0.138 J-0.138
G3 X157.215 Y-122.868 I2.115 J-2.368
G1 Y-132.132
G3 X158.275 Y-134.5 I3.175
G2 X158.283 Y-134.783 I-0.13 J-0.145
X158 Y-134.775 I-0.138 J0.138
G3 X155.632 Y-133.715 I-2.368 J-2.115
G1 X124.368
G3 X123.173 Y-133.949 J-3.175
G2 X123 Y-133.589 I-0.075 J0.185
G1 X129.097 Y-130.185
G3 X129 Y-129.81 I-0.097 J0.175
G1 Z-12
X127.005
G2 X126.69 Y-129.495 J0.315
G1 Y-125.509
G2 X127.009 Y-125.19 I0.319
G1 X152.991
G2 X153.31 Y-125.509 J-0.319
G1 Y-129.491
G2 X152.991 Y-129.81 I-0.319
G1 X129
G3 X125.886 Y-131.597 J-3.606
G2 X123.173 Y-133.949 I-4.811 J2.81
G3 X122 Y-134.775 I1.195 J-2.941
G2 X121.717 Y-134.783 I-0.145 J0.13
X121.725 Y-134.5 I0.138 J0.138
G3 X122.785 Y-132.132 I-2.115 J2.368
G1 Y-122.868
G3 X121.725 Y-120.5 I-3.175
G2 X121.717 Y-120.217 I0.13 J0.145
X122 Y-120.225 I0.138 J-0.138
G3 X124.368 Y-121.285 I2.368 J2.115
G1 X155.632
G3 X158 Y-120.225 J3.175
G2 X158.283 Y-120.217 I0.145 J-0.13
X158.275 Y-120.5 I-0.138 J-0.138
G3 X157.215 Y-122.868 I2.115 J-2.368
G1 Y-132.132
G3 X158.275 Y-134.5 I3.175
G2 X158.283 Y-134.783 I-0.13 J-0.145
X158 Y-134.775 I-0.138 J0.138
G3 X155.632 Y-133.715 I-2.368 J-2.115
G1 X124.368
G3 X123.173 Y-133.949 J-3.175
G2 X123 Y-133.589 I-0.075 J0.185
G1 X129.097 Y-130.185
G3 X129 Y-129.81 I-0.097 J0.175
G1 Z-15.25
X127.005
G2 X126.69 Y-129.495 J0.315
G1 Y-125.509
G2 X127.009 Y-125.19 I0.319
G1 X152.991
G2 X153.31 Y-125.509 J-0.319
G1 Y-129.491
G2 X152.991 Y-129.81 I-0.319
G1 X129
G3 X125.886 Y-131.597 J-3.606
G2 X123.173 Y-133.949 I-4.811 J2.81
G3 X122 Y-134.775 I1.195 J-2.941
G2 X121.717 Y-134.783 I-0.145 J0.13
X121.725 Y-134.5 I0.138 J0.138
G3 X122.785 Y-132.132 I-2.115 J2.368
G1 Y-122.868
G3 X121.725 Y-120.5 I-3.175
G2 X121.717 Y-120.217 I0.13 J0.145
X122 Y-120.225 I0.138 J-0.138
G3 X124.368 Y-121.285 I2.368 J2.115
G1 X155.632
G3 X158 Y-120.225 J3.175
G2 X158.283 Y-120.217 I0.145 J-0.13
X158.275 Y-120.5 I-0.138 J-0.138
G3 X157.215 Y-122.868 I2.115 J-2.368
G1 Y-132.132
G3 X158.275 Y-134.5 I3.175
G2 X158.283 Y-134.783 I-0.13 J-0.145
X158 Y-134.775 I-0.138 J0.138
G3 X155.632 Y-133.715 I-2.368 J-2.115
G1 X124.368
G3 X123.173 Y-133.949 J-3.175
G2 X123 Y-133.589 I-0.075 J0.185
G1 X129.097 Y-130.185
G3 X129 Y-129.81 I-0.097 J0.175
G1 Z-18.5
X127.005
G2 X126.69 Y-129.495 J0.315
G1 Y-125.509
G2 X127.009 Y-125.19 I0.319
G1 X152.991
G2 X153.31 Y-125.509 J-0.319
G1 Y-129.491
G2 X152.991 Y-129.81 I-0.319
G1 X129
G3 X125.886 Y-131.597 J-3.606
G2 X123.173 Y-133.949 I-4.811 J2.81
G3 X122 Y-134.775 I1.195 J-2.941
G2 X121.717 Y-134.783 I-0.145 J0.13
X121.725 Y-134.5 I0.138 J0.138
G3 X122.785 Y-132.132 I-2.115 J2.368
G1 Y-122.868
G3 X121.725 Y-120.5 I-3.175
G2 X121.717 Y-120.217 I0.13 J0.145
X122 Y-120.225 I0.138 J-0.138
G3 X124.368 Y-121.285 I2.368 J2.115
G1 X155.632
G3 X158 Y-120.225 J3.175
G2 X158.283 Y-120.217 I0.145 J-0.13
X158.275 Y-120.5 I-0.138 J-0.138
G3 X157.215 Y-122.868 I2.115 J-2.368
G1 Y-132.132
G3 X158.275 Y-134.5 I3.175
G2 X158.283 Y-134.783 I-0.13 J-0.145
X158 Y-134.775 I-0.138 J0.138
G3 X155.632 Y-133.715 I-2.368 J-2.115
G1 X124.368
G3 X123.173 Y-133.949 J-3.175
G0 Z7
X-310 Y-82.69
G1 Z-6 F500
X-308.009
G2 X-307.69 Y-83.009 J-0.319
G1 Y-108.991
G2 X-308.009 Y-109.31 I-0.319
G1 X-311.991
G2 X-312.31 Y-108.991 J0.319
G1 Y-83.009
G2 X-311.991 Y-82.69 I0.319
G1 X-310
G3 X-306.886 Y-80.903 J3.606
G2 X-304.173 Y-78.551 I4.811 J-2.81
G3 X-303 Y-77.725 I-1.195 J2.941
G2 X-302.717 Y-77.717 I0.145 J-0.13
X-302.725 Y-78 I-0.138 J-0.138
G3 X-303.785 Y-80.368 I2.115 J-2.368
G1 Y-111.632
G3 X-302.725 Y-114 I3.175
G2 X-302.717 Y-114.283 I-0.13 J-0.145
X-303 Y-114.275 I-0.138 J0.138
G3 X-305.368 Y-113.215 I-2.368 J-2.115
G1 X-314.632
G3 X-317 Y-114.275 J-3.175
G2 X-317.34 Y-114.145 I-0.145 J0.13
X-317.275 Y-114 I0.195
G3 X-316.215 Y-111.632 I-2.115 J2.368
G1 Y-80.368
G3 X-317.275 Y-78 I-3.175
G2 X-317.145 Y-77.66 I0.13 J0.145
X-317 Y-77.725 J-0.195
G3 X-314.632 Y-78.785 I2.368 J2.115
G1 X-305.368
G3 X-304.173 Y-78.551 J3.175
G2 X-304 Y-78.911 I0.075 J-0.185
G1 X-310.098 Y-82.315
G3 X-310 Y-82.69 I0.098 J-0.175
G1 Z-12
X-308.009
G2 X-307.69 Y-83.009 J-0.319
G1 Y-108.991
G2 X-308.009 Y-109.31 I-0.319
G1 X-311.991
G2 X-312.31 Y-108.991 J0.319
G1 Y-83.009
G2 X-311.991 Y-82.69 I0.319
G1 X-310
G3 X-306.886 Y-80.903 J3.606
G2 X-304.173 Y-78.551 I4.811 J-2.81
G3 X-303 Y-77.725 I-1.195 J2.941
G2 X-302.717 Y-77.717 I0.145 J-0.13
X-302.725 Y-78 I-0.138 J-0.138
G3 X-303.785 Y-80.368 I2.115 J-2.368
G1 Y-111.632
G3 X-302.725 Y-114 I3.175
G2 X-302.717 Y-114.283 I-0.13 J-0.145
X-303 Y-114.275 I-0.138 J0.138
G3 X-305.368 Y-113.215 I-2.368 J-2.115
G1 X-314.632
G3 X-317 Y-114.275 J-3.175
G2 X-317.34 Y-114.145 I-0.145 J0.13
X-317.275 Y-114 I0.195
G3 X-316.215 Y-111.632 I-2.115 J2.368
G1 Y-80.368
G3 X-317.275 Y-78 I-3.175
G2 X-317.145 Y-77.66 I0.13 J0.145
X-317 Y-77.725 J-0.195
G3 X-314.632 Y-78.785 I2.368 J2.115
G1 X-305.368
G3 X-304.173 Y-78.551 J3.175
G2 X-304 Y-78.911 I0.075 J-0.185
G1 X-310.098 Y-82.315
G3 X-310 Y-82.69 I0.098 J-0.175
G1 Z-15.25
X-308.009
G2 X-307.69 Y-83.009 J-0.319
G1 Y-108.991
G2 X-308.009 Y-109.31 I-0.319
G1 X-311.991
G2 X-312.31 Y-108.991 J0.319
G1 Y-83.009
G2 X-311.991 Y-82.69 I0.319
G1 X-310
G3 X-306.886 Y-80.903 J3.606
G2 X-304.173 Y-78.551 I4.811 J-2.81
G3 X-303 Y-77.725 I-1.195 J2.941
G2 X-302.717 Y-77.717 I0.145 J-0.13
X-302.725 Y-78 I-0.138 J-0.138
G3 X-303.785 Y-80.368 I2.115 J-2.368
G1 Y-111.632
G3 X-302.725 Y-114 I3.175
G2 X-302.717 Y-114.283 I-0.13 J-0.145
X-303 Y-114.275 I-0.138 J0.138
G3 X-305.368 Y-113.215 I-2.368 J-2.115
G1 X-314.632
G3 X-317 Y-114.275 J-3.175
G2 X-317.34 Y-114.145 I-0.145 J0.13
X-317.275 Y-114 I0.195
G3 X-316.215 Y-111.632 I-2.115 J2.368
G1 Y-80.368
G3 X-317.275 Y-78 I-3.175
G2 X-317.145 Y-77.66 I0.13 J0.145
X-317 Y-77.725 J-0.195
G3 X-314.632 Y-78.785 I2.368 J2.115
G1 X-305.368
G3 X-304.173 Y-78.551 J3.175
G2 X-304 Y-78.911 I0.075 J-0.185
G1 X-310.098 Y-82.315
G3 X-310 Y-82.69 I0.098 J-0.175
G1 Z-18.5
X-308.009
G2 X-307.69 Y-83.009 J-0.319
G1 Y-108.991
G2 X-308.009 Y-109.31 I-0.319
G1 X-311.991
G2 X-312.31 Y-108.991 J0.319
G1 Y-83.009
G2 X-311.991 Y-82.69 I0.319
G1 X-310
G3 X-306.886 Y-80.903 J3.606
G2 X-304.173 Y-78.551 I4.811 J-2.81
G3 X-303 Y-77.725 I-1.195 J2.941
G2 X-302.717 Y-77.717 I0.145 J-0.13
X-302.725 Y-78 I-0.138 J-0.138
G3 X-303.785 Y-80.368 I2.115 J-2.368
G1 Y-111.632
G3 X-302.725 Y-114 I3.175
G2 X-302.717 Y-114.283 I-0.13 J-0.145
X-303 Y-114.275 I-0.138 J0.138
G3 X-305.368 Y-113.215 I-2.368 J-2.115
G1 X-314.632
G3 X-317 Y-114.275 J-3.175
G2 X-317.34 Y-114.145 I-0.145 J0.13
X-317.275 Y-114 I0.195
G3 X-316.215 Y-111.632 I-2.115 J2.368
G1 Y-80.368
G3 X-317.275 Y-78 I-3.175
G2 X-317.145 Y-77.66 I0.13 J0.145
X-317 Y-77.725 J-0.195
G3 X-314.632 Y-78.785 I2.368 J2.115
G1 X-305.368
G3 X-304.173 Y-78.551 J3.175
G0 Z7
X-310 Y18.19
G1 Z-6 F500
X-311.995
G2 X-312.31 Y18.505 J0.315
G1 Y44.491
G2 X-311.991 Y44.81 I0.319
G1 X-308.009
G2 X-307.69 Y44.491 J-0.319
G1 Y18.509
G2 X-308.009 Y18.19 I-0.319
G1 X-310
G3 X-313.114 Y16.403 J-3.606
G2 X-315.827 Y14.051 I-4.811 J2.81
G3 X-317 Y13.225 I1.195 J-2.941
G2 X-317.283 Y13.217 I-0.145 J0.13
X-317.275 Y13.5 I0.138 J0.138
G3 X-316.215 Y15.868 I-2.115 J2.368
G1 Y47.132
G3 X-317.275 Y49.5 I-3.175
G2 X-317.145 Y49.84 I0.13 J0.145
X-317 Y49.775 J-0.195
G3 X-314.632 Y48.715 I2.368 J2.115
G1 X-305.368
G3 X-303 Y49.775 J3.175
G2 X-302.717 Y49.783 I0.145 J-0.13
X-302.725 Y49.5 I-0.138 J-0.138
G3 X-303.785 Y47.132 I2.115 J-2.368
G1 Y15.868
G3 X-302.725 Y13.5 I3.175
G2 X-302.855 Y13.16 I-0.13 J-0.145
X-303 Y13.225 J0.195
G3 X-305.368 Y14.285 I-2.368 J-2.115
G1 X-314.632
G3 X-315.827 Y14.051 J-3.175
G2 X-315.907 Y14.153 I-0.025 J0.062
G1 X-315.749 Y14.367
X-310.748 Y18.54
G2 X-310.665 Y18.591 I0.208 J-0.249
G1 X-310.125 Y18.815
G2 X-309.675 Y18.515 I0.125 J-0.3
X-310 Y18.19 I-0.325
G1 Z-12
X-311.995
G2 X-312.31 Y18.505 J0.315
G1 Y44.491
G2 X-311.991 Y44.81 I0.319
G1 X-308.009
G2 X-307.69 Y44.491 J-0.319
G1 Y18.509
G2 X-308.009 Y18.19 I-0.319
G1 X-310
G3 X-313.114 Y16.403 J-3.606
G2 X-315.827 Y14.051 I-4.811 J2.81
G3 X-317 Y13.225 I1.195 J-2.941
G2 X-317.283 Y13.217 I-0.145 J0.13
X-317.275 Y13.5 I0.138 J0.138
G3 X-316.215 Y15.868 I-2.115 J2.368
G1 Y47.132
G3 X-317.275 Y49.5 I-3.175
G2 X-317.145 Y49.84 I0.13 J0.145
X-317 Y49.775 J-0.195
G3 X-314.632 Y48.715 I2.368 J2.115
G1 X-305.368
G3 X-303 Y49.775 J3.175
G2 X-302.717 Y49.783 I0.145 J-0.13
X-302.725 Y49.5 I-0.138 J-0.138
G3 X-303.785 Y47.132 I2.115 J-2.368
G1 Y15.868
G3 X-302.725 Y13.5 I3.175
G2 X-302.855 Y13.16 I-0.13 J-0.145
X-303 Y13.225 J0.195
G3 X-305.368 Y14.285 I-2.368 J-2.115
G1 X-314.632
G3 X-315.827 Y14.051 J-3.175
G2 X-315.907 Y14.153 I-0.025 J0.062
G1 X-315.749 Y14.367
X-310.748 Y18.54
G2 X-310.665 Y18.591 I0.208 J-0.249
G1 X-310.125 Y18.815
G2 X-309.675 Y18.515 I0.125 J-0.3
X-310 Y18.19 I-0.325
G1 Z-15.25
X-311.995
G2 X-312.31 Y18.505 J0.315
G1 Y44.491
G2 X-311.991 Y44.81 I0.319
G1 X-308.009
G2 X-307.69 Y44.491 J-0.319
G1 Y18.509
G2 X-308.009 Y18.19 I-0.319
G1 X-310
G3 X-313.114 Y16.403 J-3.606
G2 X-315.827 Y14.051 I-4.811 J2.81
G3 X-317 Y13.225 I1.195 J-2.941
G2 X-317.283 Y13.217 I-0.145 J0.13
X-317.275 Y13.5 I0.138 J0.138
G3 X-316.215 Y15.868 I-2.115 J2.368
G1 Y47.132
G3 X-317.275 Y49.5 I-3.175
G2 X-317.145 Y49.84 I0.13 J0.145
X-317 Y49.775 J-0.195
G3 X-314.632 Y48.715 I2.368 J2.115
G1 X-305.368
G3 X-303 Y49.775 J3.175
G2 X-302.717 Y49.783 I0.145 J-0.13
X-302.725 Y49.5 I-0.138 J-0.138
G3 X-303.785 Y47.132 I2.115 J-2.368
G1 Y15.868
G3 X-302.725 Y13.5 I3.175
G2 X-302.855 Y13.16 I-0.13 J-0.145
X-303 Y13.225 J0.195
G3 X-305.368 Y14.285 I-2.368 J-2.115
G1 X-314.632
G3 X-315.827 Y14.051 J-3.175
G2 X-315.907 Y14.153 I-0.025 J0.062
G1 X-315.749 Y14.367
X-310.748 Y18.54
G2 X-310.665 Y18.591 I0.208 J-0.249
G1 X-310.125 Y18.815
G2 X-309.675 Y18.515 I0.125 J-0.3
X-310 Y18.19 I-0.325
G1 Z-18.5
X-311.995
G2 X-312.31 Y18.505 J0.315
G1 Y44.491
G2 X-311.991 Y44.81 I0.319
G1 X-308.009
G2 X-307.69 Y44.491 J-0.319
G1 Y18.509
G2 X-308.009 Y18.19 I-0.319
G1 X-310
G3 X-313.114 Y16.403 J-3.606
G2 X-315.827 Y14.051 I-4.811 J2.81
G3 X-317 Y13.225 I1.195 J-2.941
G2 X-317.283 Y13.217 I-0.145 J0.13
X-317.275 Y13.5 I0.138 J0.138
G3 X-316.215 Y15.868 I-2.115 J2.368
G1 Y47.132
G3 X-317.275 Y49.5 I-3.175
G2 X-317.145 Y49.84 I0.13 J0.145
X-317 Y49.775 J-0.195
G3 X-314.632 Y48.715 I2.368 J2.115
G1 X-305.368
G3 X-303 Y49.775 J3.175
G2 X-302.717 Y49.783 I0.145 J-0.13
X-302.725 Y49.5 I-0.138 J-0.138
G3 X-303.785 Y47.132 I2.115 J-2.368
G1 Y15.868
G3 X-302.725 Y13.5 I3.175
G2 X-302.855 Y13.16 I-0.13 J-0.145
X-303 Y13.225 J0.195
G3 X-305.368 Y14.285 I-2.368 J-2.115
G1 X-314.632
G3 X-315.827 Y14.051 J-3.175
G0 Z7
X-470 Y44.81
G1 Z-6 F500
X-468.009
G2 X-467.69 Y44.491 J-0.319
G1 Y18.509
G2 X-468.009 Y18.19 I-0.319
G1 X-471.995
G2 X-472.31 Y18.505 J0.315
G1 Y44.491
G2 X-471.991 Y44.81 I0.319
G1 X-470
G3 X-466.886 Y46.597 J3.606
G2 X-464.173 Y48.949 I4.811 J-2.81
G3 X-463 Y49.775 I-1.195 J2.941
G2 X-462.717 Y49.783 I0.145 J-0.13
X-462.725 Y49.5 I-0.138 J-0.138
G3 X-463.785 Y47.132 I2.115 J-2.368
G1 Y15.868
G3 X-462.725 Y13.5 I3.175
G2 X-462.855 Y13.16 I-0.13 J-0.145
X-463 Y13.225 J0.195
G3 X-465.368 Y14.285 I-2.368 J-2.115
G1 X-474.632
G3 X-477 Y13.225 J-3.175
G2 X-477.283 Y13.217 I-0.145 J0.13
X-477.275 Y13.5 I0.138 J0.138
G3 X-476.215 Y15.868 I-2.115 J2.368
G1 Y47.132
G3 X-477.275 Y49.5 I-3.175
G2 X-477.145 Y49.84 I0.13 J0.145
X-477 Y49.775 J-0.195
G3 X-474.632 Y48.715 I2.368 J2.115
G1 X-465.368
G3 X-464.173 Y48.949 J3.175
G2 X-464.093 Y48.847 I0.025 J-0.062
G1 X-464.251 Y48.633
X-469.252 Y44.46
G2 X-469.335 Y44.409 I-0.208 J0.249
G1 X-469.875 Y44.185
G2 X-470.325 Y44.485 I-0.125 J0.3
X-470 Y44.81 I0.325
G1 Z-12
X-468.009
G2 X-467.69 Y44.491 J-0.319
G1 Y18.509
G2 X-468.009 Y18.19 I-0.319
G1 X-471.995
G2 X-472.31 Y18.505 J0.315
G1 Y44.491
G2 X-471.991 Y44.81 I0.319
G1 X-470
G3 X-466.886 Y46.597 J3.606
G2 X-464.173 Y48.949 I4.811 J-2.81
G3 X-463 Y49.775 I-1.195 J2.941
G2 X-462.717 Y49.783 I0.145 J-0.13
X-462.725 Y49.5 I-0.138 J-0.138
G3 X-463.785 Y47.132 I2.115 J-2.368
G1 Y15.868
G3 X-462.725 Y13.5 I3.175
G2 X-462.855 Y13.16 I-0.13 J-0.145
X-463 Y13.225 J0.195
G3 X-465.368 Y14.285 I-2.368 J-2.115
G1 X-474.632
G3 X-477 Y13.225 J-3.175
G2 X-477.283 Y13.217 I-0.145 J0.13
X-477.275 Y13.5 I0.138 J0.138
G3 X-476.215 Y15.868 I-2.115 J2.368
G1 Y47.132
G3 X-477.275 Y49.5 I-3.175
G2 X-477.145 Y49.84 I0.13 J0.145
X-477 Y49.775 J-0.195
G3 X-474.632 Y48.715 I2.368 J2.115
G1 X-465.368
G3 X-464.173 Y48.949 J3.175
G2 X-464.093 Y48.847 I0.025 J-0.062
G1 X-464.251 Y48.633
X-469.252 Y44.46
G2 X-469.335 Y44.409 I-0.208 J0.249
G1 X-469.875 Y44.185
G2 X-470.325 Y44.485 I-0.125 J0.3
X-470 Y44.81 I0.325
G1 Z-15.25
X-468.009
G2 X-467.69 Y44.491 J-0.319
G1 Y18.509
G2 X-468.009 Y18.19 I-0.319
G1 X-471.995
G2 X-472.31 Y18.505 J0.315
G1 Y44.491
G2 X-471.991 Y44.81 I0.319
G1 X-470
G3 X-466.886 Y46.597 J3.606
G2 X-464.173 Y48.949 I4.811 J-2.81
G3 X-463 Y49.775 I-1.195 J2.941
G2 X-462.717 Y49.783 I0.145 J-0.13
X-462.725 Y49.5 I-0.138 J-0.138
G3 X-463.785 Y47.132 I2.115 J-2.368
G1 Y15.868
G3 X-462.725 Y13.5 I3.175
G2 X-462.855 Y13.16 I-0.13 J-0.145
X-463 Y13.225 J0.195
G3 X-465.368 Y14.285 I-2.368 J-2.115
G1 X-474.632
G3 X-477 Y13.225 J-3.175
G2 X-477.283 Y13.217 I-0.145 J0.13
X-477.275 Y13.5 I0.138 J0.138
G3 X-476.215 Y15.868 I-2.115 J2.368
G1 Y47.132
G3 X-477.275 Y49.5 I-3.175
G2 X-477.145 Y49.84 I0.13 J0.145
X-477 Y49.775 J-0.195
G3 X-474.632 Y48.715 I2.368 J2.115
G1 X-465.368
G3 X-464.173 Y48.949 J3.175
G2 X-464.093 Y48.847 I0.025 J-0.062
G1 X-464.251 Y48.633
X-469.252 Y44.46
G2 X-469.335 Y44.409 I-0.208 J0.249
G1 X-469.875 Y44.185
G2 X-470.325 Y44.485 I-0.125 J0.3
X-470 Y44.81 I0.325
G1 Z-18.5
X-468.009
G2 X-467.69 Y44.491 J-0.319
G1 Y18.509
G2 X-468.009 Y18.19 I-0.319
G1 X-471.995
G2 X-472.31 Y18.505 J0.315
G1 Y44.491
G2 X-471.991 Y44.81 I0.319
G1 X-470
G3 X-466.886 Y46.597 J3.606
G2 X-464.173 Y48.949 I4.811 J-2.81
G3 X-463 Y49.775 I-1.195 J2.941
G2 X-462.717 Y49.783 I0.145 J-0.13
X-462.725 Y49.5 I-0.138 J-0.138
G3 X-463.785 Y47.132 I2.115 J-2.368
G1 Y15.868
G3 X-462.725 Y13.5 I3.175
G2 X-462.855 Y13.16 I-0.13 J-0.145
X-463 Y13.225 J0.195
G3 X-465.368 Y14.285 I-2.368 J-2.115
G1 X-474.632
G3 X-477 Y13.225 J-3.175
G2 X-477.283 Y13.217 I-0.145 J0.13
X-477.275 Y13.5 I0.138 J0.138
G3 X-476.215 Y15.868 I-2.115 J2.368
G1 Y47.132
G3 X-477.275 Y49.5 I-3.175
G2 X-477.145 Y49.84 I0.13 J0.145
X-477 Y49.775 J-0.195
G3 X-474.632 Y48.715 I2.368 J2.115
G1 X-465.368
G3 X-464.173 Y48.949 J3.175
G0 Z7
X-470 Y-109.31
G1 Z-6 F500
X-471.991
G2 X-472.31 Y-108.991 J0.319
G1 Y-83.009
G2 X-471.991 Y-82.69 I0.319
G1 X-468.009
G2 X-467.69 Y-83.009 J-0.319
G1 Y-108.991
G2 X-468.009 Y-109.31 I-0.319
G1 X-470
G3 X-473.114 Y-111.097 J-3.606
G2 X-475.827 Y-113.449 I-4.811 J2.81
G3 X-477 Y-114.275 I1.195 J-2.941
G2 X-477.34 Y-114.145 I-0.145 J0.13
X-477.275 Y-114 I0.195
G3 X-476.215 Y-111.632 I-2.115 J2.368
G1 Y-80.368
G3 X-477.275 Y-78 I-3.175
G2 X-477.145 Y-77.66 I0.13 J0.145
X-477 Y-77.725 J-0.195
G3 X-474.632 Y-78.785 I2.368 J2.115
G1 X-465.368
G3 X-463 Y-77.725 J3.175
G2 X-462.717 Y-77.717 I0.145 J-0.13
X-462.725 Y-78 I-0.138 J-0.138
G3 X-463.785 Y-80.368 I2.115 J-2.368
G1 Y-111.632
G3 X-462.725 Y-114 I3.175
G2 X-462.717 Y-114.283 I-0.13 J-0.145
X-463 Y-114.275 I-0.138 J0.138
G3 X-465.368 Y-113.215 I-2.368 J-2.115
G1 X-474.632
G3 X-475.827 Y-113.449 J-3.175
G2 X-475.907 Y-113.347 I-0.025 J0.062
G1 X-475.749 Y-113.133
X-470.748 Y-108.96
G2 X-470.665 Y-108.909 I0.208 J-0.249
G1 X-470.125 Y-108.685
G2 X-469.675 Y-108.985 I0.125 J-0.3
X-470 Y-109.31 I-0.325
G1 Z-12
X-471.991
G2 X-472.31 Y-108.991 J0.319
G1 Y-83.009
G2 X-471.991 Y-82.69 I0.319
G1 X-468.009
G2 X-467.69 Y-83.009 J-0.319
G1 Y-108.991
G2 X-468.009 Y-109.31 I-0.319
G1 X-470
G3 X-473.114 Y-111.097 J-3.606
G2 X-475.827 Y-113.449 I-4.811 J2.81
G3 X-477 Y-114.275 I1.195 J-2.941
G2 X-477.34 Y-114.145 I-0.145 J0.13
X-477.275 Y-114 I0.195
G3 X-476.215 Y-111.632 I-2.115 J2.368
G1 Y-80.368
G3 X-477.275 Y-78 I-3.175
G2 X-477.145 Y-77.66 I0.13 J0.145
X-477 Y-77.725 J-0.195
G3 X-474.632 Y-78.785 I2.368 J2.115
G1 X-465.368
G3 X-463 Y-77.725 J3.175
G2 X-462.717 Y-77.717 I0.145 J-0.13
X-462.725 Y-78 I-0.138 J-0.138
G3 X-463.785 Y-80.368 I2.115 J-2.368
G1 Y-111.632
G3 X-462.725 Y-114 I3.175
G2 X-462.717 Y-114.283 I-0.13 J-0.145
X-463 Y-114.275 I-0.138 J0.138
G3 X-465.368 Y-113.215 I-2.368 J-2.115
G1 X-474.632
G3 X-475.827 Y-113.449 J-3.175
G2 X-475.907 Y-113.347 I-0.025 J0.062
G1 X-475.749 Y-113.133
X-470.748 Y-108.96
G2 X-470.665 Y-108.909 I0.208 J-0.249
G1 X-470.125 Y-108.685
G2 X-469.675 Y-108.985 I0.125 J-0.3
X-470 Y-109.31 I-0.325
G1 Z-15.25
X-471.991
G2 X-472.31 Y-108.991 J0.319
G1 Y-83.009
G2 X-471.991 Y-82.69 I0.319
G1 X-468.009
G2 X-467.69 Y-83.009 J-0.319
G1 Y-108.991
G2 X-468.009 Y-109.31 I-0.319
G1 X-470
G3 X-473.114 Y-111.097 J-3.606
G2 X-475.827 Y-113.449 I-4.811 J2.81
G3 X-477 Y-114.275 I1.195 J-2.941
G2 X-477.34 Y-114.145 I-0.145 J0.13
X-477.275 Y-114 I0.195
G3 X-476.215 Y-111.632 I-2.115 J2.368
G1 Y-80.368
G3 X-477.275 Y-78 I-3.175
G2 X-477.145 Y-77.66 I0.13 J0.145
X-477 Y-77.725 J-0.195
G3 X-474.632 Y-78.785 I2.368 J2.115
G1 X-465.368
G3 X-463 Y-77.725 J3.175
G2 X-462.717 Y-77.717 I0.145 J-0.13
X-462.725 Y-78 I-0.138 J-0.138
G3 X-463.785 Y-80.368 I2.115 J-2.368
G1 Y-111.632
G3 X-462.725 Y-114 I3.175
G2 X-462.717 Y-114.283 I-0.13 J-0.145
X-463 Y-114.275 I-0.138 J0.138
G3 X-465.368 Y-113.215 I-2.368 J-2.115
G1 X-474.632
G3 X-475.827 Y-113.449 J-3.175
G2 X-475.907 Y-113.347 I-0.025 J0.062
G1 X-475.749 Y-113.133
X-470.748 Y-108.96
G2 X-470.665 Y-108.909 I0.208 J-0.249
G1 X-470.125 Y-108.685
G2 X-469.675 Y-108.985 I0.125 J-0.3
X-470 Y-109.31 I-0.325
G1 Z-18.5
X-471.991
G2 X-472.31 Y-108.991 J0.319
G1 Y-83.009
G2 X-471.991 Y-82.69 I0.319
G1 X-468.009
G2 X-467.69 Y-83.009 J-0.319
G1 Y-108.991
G2 X-468.009 Y-109.31 I-0.319
G1 X-470
G3 X-473.114 Y-111.097 J-3.606
G2 X-475.827 Y-113.449 I-4.811 J2.81
G3 X-477 Y-114.275 I1.195 J-2.941
G2 X-477.34 Y-114.145 I-0.145 J0.13
X-477.275 Y-114 I0.195
G3 X-476.215 Y-111.632 I-2.115 J2.368
G1 Y-80.368
G3 X-477.275 Y-78 I-3.175
G2 X-477.145 Y-77.66 I0.13 J0.145
X-477 Y-77.725 J-0.195
G3 X-474.632 Y-78.785 I2.368 J2.115
G1 X-465.368
G3 X-463 Y-77.725 J3.175
G2 X-462.717 Y-77.717 I0.145 J-0.13
X-462.725 Y-78 I-0.138 J-0.138
G3 X-463.785 Y-80.368 I2.115 J-2.368
G1 Y-111.632
G3 X-462.725 Y-114 I3.175
G2 X-462.717 Y-114.283 I-0.13 J-0.145
X-463 Y-114.275 I-0.138 J0.138
G3 X-465.368 Y-113.215 I-2.368 J-2.115
G1 X-474.632
G3 X-475.827 Y-113.449 J-3.175
G0 Z7
X-467.69 Y-234.5
G1 Z-6 F500
Y-236.491
G2 X-468.009 Y-236.81 I-0.319
G1 X-471.991
G2 X-472.31 Y-236.491 J0.319
G1 Y-210.509
G2 X-471.991 Y-210.19 I0.319
G1 X-468.009
G2 X-467.69 Y-210.509 J-0.319
G1 Y-234.5
G3 X-465.903 Y-237.614 I3.606
G2 X-463.551 Y-240.327 I-2.81 J-4.811
G3 X-462.725 Y-241.5 I2.941 J1.195
G2 X-462.717 Y-241.783 I-0.13 J-0.145
X-463 Y-241.775 I-0.138 J0.138
G3 X-465.368 Y-240.715 I-2.368 J-2.115
G1 X-474.632
G3 X-477 Y-241.775 J-3.175
G2 X-477.34 Y-241.645 I-0.145 J0.13
X-477.275 Y-241.5 I0.195
G3 X-476.215 Y-239.132 I-2.115 J2.368
G1 Y-207.868
G3 X-477.275 Y-205.5 I-3.175
G2 X-477.283 Y-205.217 I0.13 J0.145
X-477 Y-205.225 I0.138 J-0.138
G3 X-474.632 Y-206.285 I2.368 J2.115
G1 X-465.368
G3 X-463 Y-205.225 J3.175
G2 X-462.66 Y-205.355 I0.145 J-0.13
X-462.725 Y-205.5 I-0.195
G3 X-463.785 Y-207.868 I2.115 J-2.368
G1 Y-239.132
G3 X-463.551 Y-240.327 I3.175
G2 X-463.653 Y-240.407 I-0.062 J-0.025
G1 X-463.867 Y-240.249
X-468.04 Y-235.248
G2 X-468.091 Y-235.165 I0.249 J0.208
G1 X-468.315 Y-234.625
G2 X-467.715 Y-234.375 I0.3 J0.125
X-467.69 Y-234.5 I-0.3 J-0.125
G1 Z-12
Y-236.491
G2 X-468.009 Y-236.81 I-0.319
G1 X-471.991
G2 X-472.31 Y-236.491 J0.319
G1 Y-210.509
G2 X-471.991 Y-210.19 I0.319
G1 X-468.009
G2 X-467.69 Y-210.509 J-0.319
G1 Y-234.5
G3 X-465.903 Y-237.614 I3.606
G2 X-463.551 Y-240.327 I-2.81 J-4.811
G3 X-462.725 Y-241.5 I2.941 J1.195
G2 X-462.717 Y-241.783 I-0.13 J-0.145
X-463 Y-241.775 I-0.138 J0.138
G3 X-465.368 Y-240.715 I-2.368 J-2.115
G1 X-474.632
G3 X-477 Y-241.775 J-3.175
G2 X-477.34 Y-241.645 I-0.145 J0.13
X-477.275 Y-241.5 I0.195
G3 X-476.215 Y-239.132 I-2.115 J2.368
G1 Y-207.868
G3 X-477.275 Y-205.5 I-3.175
G2 X-477.283 Y-205.217 I0.13 J0.145
X-477 Y-205.225 I0.138 J-0.138
G3 X-474.632 Y-206.285 I2.368 J2.115
G1 X-465.368
G3 X-463 Y-205.225 J3.175
G2 X-462.66 Y-205.355 I0.145 J-0.13
X-462.725 Y-205.5 I-0.195
G3 X-463.785 Y-207.868 I2.115 J-2.368
G1 Y-239.132
G3 X-463.551 Y-240.327 I3.175
G2 X-463.653 Y-240.407 I-0.062 J-0.025
G1 X-463.867 Y-240.249
X-468.04 Y-235.248
G2 X-468.091 Y-235.165 I0.249 J0.208
G1 X-468.315 Y-234.625
G2 X-467.715 Y-234.375 I0.3 J0.125
X-467.69 Y-234.5 I-0.3 J-0.125
G1 Z-15.25
Y-236.491
G2 X-468.009 Y-236.81 I-0.319
G1 X-471.991
G2 X-472.31 Y-236.491 J0.319
G1 Y-210.509
G2 X-471.991 Y-210.19 I0.319
G1 X-468.009
G2 X-467.69 Y-210.509 J-0.319
G1 Y-234.5
G3 X-465.903 Y-237.614 I3.606
G2 X-463.551 Y-240.327 I-2.81 J-4.811
G3 X-462.725 Y-241.5 I2.941 J1.195
G2 X-462.717 Y-241.783 I-0.13 J-0.145
X-463 Y-241.775 I-0.138 J0.138
G3 X-465.368 Y-240.715 I-2.368 J-2.115
G1 X-474.632
G3 X-477 Y-241.775 J-3.175
G2 X-477.34 Y-241.645 I-0.145 J0.13
X-477.275 Y-241.5 I0.195
G3 X-476.215 Y-239.132 I-2.115 J2.368
G1 Y-207.868
G3 X-477.275 Y-205.5 I-3.175
G2 X-477.283 Y-205.217 I0.13 J0.145
X-477 Y-205.225 I0.138 J-0.138
G3 X-474.632 Y-206.285 I2.368 J2.115
G1 X-465.368
G3 X-463 Y-205.225 J3.175
G2 X-462.66 Y-205.355 I0.145 J-0.13
X-462.725 Y-205.5 I-0.195
G3 X-463.785 Y-207.868 I2.115 J-2.368
G1 Y-239.132
G3 X-463.551 Y-240.327 I3.175
G2 X-463.653 Y-240.407 I-0.062 J-0.025
G1 X-463.867 Y-240.249
X-468.04 Y-235.248
G2 X-468.091 Y-235.165 I0.249 J0.208
G1 X-468.315 Y-234.625
G2 X-467.715 Y-234.375 I0.3 J0.125
X-467.69 Y-234.5 I-0.3 J-0.125
G1 Z-18.5
Y-236.491
G2 X-468.009 Y-236.81 I-0.319
G1 X-471.991
G2 X-472.31 Y-236.491 J0.319
G1 Y-210.509
G2 X-471.991 Y-210.19 I0.319
G1 X-468.009
G2 X-467.69 Y-210.509 J-0.319
G1 Y-234.5
G3 X-465.903 Y-237.614 I3.606
G2 X-463.551 Y-240.327 I-2.81 J-4.811
G3 X-462.725 Y-241.5 I2.941 J1.195
G2 X-462.717 Y-241.783 I-0.13 J-0.145
X-463 Y-241.775 I-0.138 J0.138
G3 X-465.368 Y-240.715 I-2.368 J-2.115
G1 X-474.632
G3 X-477 Y-241.775 J-3.175
G2 X-477.34 Y-241.645 I-0.145 J0.13
X-477.275 Y-241.5 I0.195
G3 X-476.215 Y-239.132 I-2.115 J2.368
G1 Y-207.868
G3 X-477.275 Y-205.5 I-3.175
G2 X-477.283 Y-205.217 I0.13 J0.145
X-477 Y-205.225 I0.138 J-0.138
G3 X-474.632 Y-206.285 I2.368 J2.115
G1 X-465.368
G3 X-463 Y-205.225 J3.175
G2 X-462.66 Y-205.355 I0.145 J-0.13
X-462.725 Y-205.5 I-0.195
G3 X-463.785 Y-207.868 I2.115 J-2.368
G1 Y-239.132
G3 X-463.551 Y-240.327 I3.175
G0 Z7
X-312.31 Y-212.5
G1 Z-6 F500
Y-210.509
G2 X-311.991 Y-210.19 I0.319
G1 X-308.009
G2 X-307.69 Y-210.509 J-0.319
G1 Y-236.491
G2 X-308.009 Y-236.81 I-0.319
G1 X-311.991
G2 X-312.31 Y-236.491 J0.319
G1 Y-212.5
G3 X-314.097 Y-209.386 I-3.606
G2 X-316.449 Y-206.673 I2.81 J4.811
G3 X-317.275 Y-205.5 I-2.941 J-1.195
G2 X-317.283 Y-205.217 I0.13 J0.145
X-317 Y-205.225 I0.138 J-0.138
G3 X-314.632 Y-206.285 I2.368 J2.115
G1 X-305.368
G3 X-303 Y-205.225 J3.175
G2 X-302.66 Y-205.355 I0.145 J-0.13
X-302.725 Y-205.5 I-0.195
G3 X-303.785 Y-207.868 I2.115 J-2.368
G1 Y-239.132
G3 X-302.725 Y-241.5 I3.175
G2 X-302.717 Y-241.783 I-0.13 J-0.145
X-303 Y-241.775 I-0.138 J0.138
G3 X-305.368 Y-240.715 I-2.368 J-2.115
G1 X-314.632
G3 X-317 Y-241.775 J-3.175
G2 X-317.34 Y-241.645 I-0.145 J0.13
X-317.275 Y-241.5 I0.195
G3 X-316.215 Y-239.132 I-2.115 J2.368
G1 Y-207.868
G3 X-316.449 Y-206.673 I-3.175
G2 X-316.347 Y-206.593 I0.062 J0.025
G1 X-316.133 Y-206.751
X-311.96 Y-211.752
G2 X-311.909 Y-211.835 I-0.249 J-0.208
G1 X-311.685 Y-212.375
G2 X-312.285 Y-212.625 I-0.3 J-0.125
X-312.31 Y-212.5 I0.3 J0.125
G1 Z-12
Y-210.509
G2 X-311.991 Y-210.19 I0.319
G1 X-308.009
G2 X-307.69 Y-210.509 J-0.319
G1 Y-236.491
G2 X-308.009 Y-236.81 I-0.319
G1 X-311.991
G2 X-312.31 Y-236.491 J0.319
G1 Y-212.5
G3 X-314.097 Y-209.386 I-3.606
G2 X-316.449 Y-206.673 I2.81 J4.811
G3 X-317.275 Y-205.5 I-2.941 J-1.195
G2 X-317.283 Y-205.217 I0.13 J0.145
X-317 Y-205.225 I0.138 J-0.138
G3 X-314.632 Y-206.285 I2.368 J2.115
G1 X-305.368
G3 X-303 Y-205.225 J3.175
G2 X-302.66 Y-205.355 I0.145 J-0.13
X-302.725 Y-205.5 I-0.195
G3 X-303.785 Y-207.868 I2.115 J-2.368
G1 Y-239.132
G3 X-302.725 Y-241.5 I3.175
G2 X-302.717 Y-241.783 I-0.13 J-0.145
X-303 Y-241.775 I-0.138 J0.138
G3 X-305.368 Y-240.715 I-2.368 J-2.115
G1 X-314.632
G3 X-317 Y-241.775 J-3.175
G2 X-317.34 Y-241.645 I-0.145 J0.13
X-317.275 Y-241.5 I0.195
G3 X-316.215 Y-239.132 I-2.115 J2.368
G1 Y-207.868
G3 X-316.449 Y-206.673 I-3.175
G2 X-316.347 Y-206.593 I0.062 J0.025
G1 X-316.133 Y-206.751
X-311.96 Y-211.752
G2 X-311.909 Y-211.835 I-0.249 J-0.208
G1 X-311.685 Y-212.375
G2 X-312.285 Y-212.625 I-0.3 J-0.125
X-312.31 Y-212.5 I0.3 J0.125
G1 Z-15.25
Y-210.509
G2 X-311.991 Y-210.19 I0.319
G1 X-308.009
G2 X-307.69 Y-210.509 J-0.319
G1 Y-236.491
G2 X-308.009 Y-236.81 I-0.319
G1 X-311.991
G2 X-312.31 Y-236.491 J0.319
G1 Y-212.5
G3 X-314.097 Y-209.386 I-3.606
G2 X-316.449 Y-206.673 I2.81 J4.811
G3 X-317.275 Y-205.5 I-2.941 J-1.195
G2 X-317.283 Y-205.217 I0.13 J0.145
X-317 Y-205.225 I0.138 J-0.138
G3 X-314.632 Y-206.285 I2.368 J2.115
G1 X-305.368
G3 X-303 Y-205.225 J3.175
G2 X-302.66 Y-205.355 I0.145 J-0.13
X-302.725 Y-205.5 I-0.195
G3 X-303.785 Y-207.868 I2.115 J-2.368
G1 Y-239.132
G3 X-302.725 Y-241.5 I3.175
G2 X-302.717 Y-241.783 I-0.13 J-0.145
X-303 Y-241.775 I-0.138 J0.138
G3 X-305.368 Y-240.715 I-2.368 J-2.115
G1 X-314.632
G3 X-317 Y-241.775 J-3.175
G2 X-317.34 Y-241.645 I-0.145 J0.13
X-317.275 Y-241.5 I0.195
G3 X-316.215 Y-239.132 I-2.115 J2.368
G1 Y-207.868
G3 X-316.449 Y-206.673 I-3.175
G2 X-316.347 Y-206.593 I0.062 J0.025
G1 X-316.133 Y-206.751
X-311.96 Y-211.752
G2 X-311.909 Y-211.835 I-0.249 J-0.208
G1 X-311.685 Y-212.375
G2 X-312.285 Y-212.625 I-0.3 J-0.125
X-312.31 Y-212.5 I0.3 J0.125
G1 Z-18.5
Y-210.509
G2 X-311.991 Y-210.19 I0.319
G1 X-308.009
G2 X-307.69 Y-210.509 J-0.319
G1 Y-236.491
G2 X-308.009 Y-236.81 I-0.319
G1 X-311.991
G2 X-312.31 Y-236.491 J0.319
G1 Y-212.5
G3 X-314.097 Y-209.386 I-3.606
G2 X-316.449 Y-206.673 I2.81 J4.811
G3 X-317.275 Y-205.5 I-2.941 J-1.195
G2 X-317.283 Y-205.217 I0.13 J0.145
X-317 Y-205.225 I0.138 J-0.138
G3 X-314.632 Y-206.285 I2.368 J2.115
G1 X-305.368
G3 X-303 Y-205.225 J3.175
G2 X-302.66 Y-205.355 I0.145 J-0.13
X-302.725 Y-205.5 I-0.195
G3 X-303.785 Y-207.868 I2.115 J-2.368
G1 Y-239.132
G3 X-302.725 Y-241.5 I3.175
G2 X-302.717 Y-241.783 I-0.13 J-0.145
X-303 Y-241.775 I-0.138 J0.138
G3 X-305.368 Y-240.715 I-2.368 J-2.115
G1 X-314.632
G3 X-317 Y-241.775 J-3.175
G2 X-317.34 Y-241.645 I-0.145 J0.13
X-317.275 Y-241.5 I0.195
G3 X-316.215 Y-239.132 I-2.115 J2.368
G1 Y-207.868
G3 X-316.449 Y-206.673 I-3.175
G0 Z7
X-409.5 Y222.89
G1 Z-6 F500
X-411.491
G2 X-411.81 Y223.209 J0.319
G1 Y227.191
G2 X-411.491 Y227.51 I0.319
G1 X-368.509
G2 X-368.19 Y227.191 J-0.319
G1 Y223.209
G2 X-368.509 Y222.89 I-0.319
G1 X-409.5
G3 X-412.614 Y221.103 J-3.606
G2 X-415.327 Y218.751 I-4.811 J2.81
G3 X-416.5 Y217.925 I1.195 J-2.941
G2 X-416.84 Y218.055 I-0.145 J0.13
X-416.775 Y218.2 I0.195
G3 X-415.715 Y220.568 I-2.115 J2.368
G1 Y229.832
G3 X-416.775 Y232.2 I-3.175
G2 X-416.783 Y232.483 I0.13 J0.145
X-416.5 Y232.475 I0.138 J-0.138
G3 X-414.132 Y231.415 I2.368 J2.115
G1 X-365.868
G3 X-363.5 Y232.475 J3.175
G2 X-363.16 Y232.345 I0.145 J-0.13
X-363.225 Y232.2 I-0.195
G3 X-364.285 Y229.832 I2.115 J-2.368
G1 Y220.568
G3 X-363.225 Y218.2 I3.175
G2 X-363.355 Y217.86 I-0.13 J-0.145
X-363.5 Y217.925 J0.195
G3 X-365.868 Y218.985 I-2.368 J-2.115
G1 X-414.132
G3 X-415.327 Y218.751 J-3.175
G2 X-415.5 Y219.111 I-0.075 J0.185
G1 X-409.402 Y222.515
G3 X-409.5 Y222.89 I-0.098 J0.175
G1 Z-12
X-411.491
G2 X-411.81 Y223.209 J0.319
G1 Y227.191
G2 X-411.491 Y227.51 I0.319
G1 X-368.509
G2 X-368.19 Y227.191 J-0.319
G1 Y223.209
G2 X-368.509 Y222.89 I-0.319
G1 X-409.5
G3 X-412.614 Y221.103 J-3.606
G2 X-415.327 Y218.751 I-4.811 J2.81
G3 X-416.5 Y217.925 I1.195 J-2.941
G2 X-416.84 Y218.055 I-0.145 J0.13
X-416.775 Y218.2 I0.195
G3 X-415.715 Y220.568 I-2.115 J2.368
G1 Y229.832
G3 X-416.775 Y232.2 I-3.175
G2 X-416.783 Y232.483 I0.13 J0.145
X-416.5 Y232.475 I0.138 J-0.138
G3 X-414.132 Y231.415 I2.368 J2.115
G1 X-365.868
G3 X-363.5 Y232.475 J3.175
G2 X-363.16 Y232.345 I0.145 J-0.13
X-363.225 Y232.2 I-0.195
G3 X-364.285 Y229.832 I2.115 J-2.368
G1 Y220.568
G3 X-363.225 Y218.2 I3.175
G2 X-363.355 Y217.86 I-0.13 J-0.145
X-363.5 Y217.925 J0.195
G3 X-365.868 Y218.985 I-2.368 J-2.115
G1 X-414.132
G3 X-415.327 Y218.751 J-3.175
G2 X-415.5 Y219.111 I-0.075 J0.185
G1 X-409.402 Y222.515
G3 X-409.5 Y222.89 I-0.098 J0.175
G1 Z-15.25
X-411.491
G2 X-411.81 Y223.209 J0.319
G1 Y227.191
G2 X-411.491 Y227.51 I0.319
G1 X-368.509
G2 X-368.19 Y227.191 J-0.319
G1 Y223.209
G2 X-368.509 Y222.89 I-0.319
G1 X-409.5
G3 X-412.614 Y221.103 J-3.606
G2 X-415.327 Y218.751 I-4.811 J2.81
G3 X-416.5 Y217.925 I1.195 J-2.941
G2 X-416.84 Y218.055 I-0.145 J0.13
X-416.775 Y218.2 I0.195
G3 X-415.715 Y220.568 I-2.115 J2.368
G1 Y229.832
G3 X-416.775 Y232.2 I-3.175
G2 X-416.783 Y232.483 I0.13 J0.145
X-416.5 Y232.475 I0.138 J-0.138
G3 X-414.132 Y231.415 I2.368 J2.115
G1 X-365.868
G3 X-363.5 Y232.475 J3.175
G2 X-363.16 Y232.345 I0.145 J-0.13
X-363.225 Y232.2 I-0.195
G3 X-364.285 Y229.832 I2.115 J-2.368
G1 Y220.568
G3 X-363.225 Y218.2 I3.175
G2 X-363.355 Y217.86 I-0.13 J-0.145
X-363.5 Y217.925 J0.195
G3 X-365.868 Y218.985 I-2.368 J-2.115
G1 X-414.132
G3 X-415.327 Y218.751 J-3.175
G2 X-415.5 Y219.111 I-0.075 J0.185
G1 X-409.402 Y222.515
G3 X-409.5 Y222.89 I-0.098 J0.175
G1 Z-18.5
X-411.491
G2 X-411.81 Y223.209 J0.319
G1 Y227.191
G2 X-411.491 Y227.51 I0.319
G1 X-368.509
G2 X-368.19 Y227.191 J-0.319
G1 Y223.209
G2 X-368.509 Y222.89 I-0.319
G1 X-409.5
G3 X-412.614 Y221.103 J-3.606
G2 X-415.327 Y218.751 I-4.811 J2.81
G3 X-416.5 Y217.925 I1.195 J-2.941
G2 X-416.84 Y218.055 I-0.145 J0.13
X-416.775 Y218.2 I0.195
G3 X-415.715 Y220.568 I-2.115 J2.368
G1 Y229.832
G3 X-416.775 Y232.2 I-3.175
G2 X-416.783 Y232.483 I0.13 J0.145
X-416.5 Y232.475 I0.138 J-0.138
G3 X-414.132 Y231.415 I2.368 J2.115
G1 X-365.868
G3 X-363.5 Y232.475 J3.175
G2 X-363.16 Y232.345 I0.145 J-0.13
X-363.225 Y232.2 I-0.195
G3 X-364.285 Y229.832 I2.115 J-2.368
G1 Y220.568
G3 X-363.225 Y218.2 I3.175
G2 X-363.355 Y217.86 I-0.13 J-0.145
X-363.5 Y217.925 J0.195
G3 X-365.868 Y218.985 I-2.368 J-2.115
G1 X-414.132
G3 X-415.327 Y218.751 J-3.175
G0 Z7

(2D Contour4)
M9
X165.137 Y193.578
G1 Z5 F500
Z-4.625
X164.726 Y193.094
G2 X163.831 Y193.02 I-0.484 J0.411
G3 X0 Y253.175 I-163.831 J-193.02
X-35.321 Y250.7 I-0.007 J-253.176
X-253.175 Y0 I35.321 J-250.699
X253.175 I253.175
X154.502 Y200.566 I-253.175
G2 X154.386 Y201.457 I0.388 J0.503
G1 X154.774 Y201.96
G0 Z5
X204.878 Y362.54
G1 Z-4.625 F500
X204.37 Y362.158
G2 X203.481 Y362.284 I-0.382 J0.508
G3 X144.2 Y391.875 I-59.281 J-44.584
G1 X120.55
G3 X88.742 Y381.935 J-55.863
G2 X80.55 Y379.375 I-8.192 J11.827
G1 X74.2
X71.025
Y349.375
X56.2
X53.025
Y286.025
X71.025
Y259.2
Y256.025
X80.55
G2 X88.742 Y253.465 J-14.387
G3 X120.55 Y243.525 I31.808 J45.923
G1 X144.2
G3 X216.7 Y302.025 J74.175
G1 X232.091
X235.266
Y316.112
Y333.375
X216.7
G3 X195.526 Y371.25 I-72.5 J-15.675
G2 X195.507 Y372.148 I0.439 J0.458
G1 X195.946 Y372.607
G0 Z5
X177.029 Y343.185
G1 Z-4.625 F500
X177.537 Y343.566
G2 X178.426 Y343.44 I0.382 J-0.508
X187 Y319.177 I-34.226 J-25.741
G1 X187.051 Y317.699
X187 Y316.222
G2 X101.4 Y319.177 I-42.8 J1.478
X184.21 Y332.971 I42.8 J-1.478
X183.843 Y332.151 I-0.593 J-0.226
G1 X183.25 Y331.925
X177.029 Y343.185
Z-9.25
X177.537 Y343.566
G2 X178.426 Y343.44 I0.382 J-0.508
X187 Y319.177 I-34.226 J-25.741
G1 X187.051 Y317.699
X187 Y316.222
G2 X101.4 Y319.177 I-42.8 J1.478
X184.21 Y332.971 I42.8 J-1.478
X183.843 Y332.151 I-0.593 J-0.226
G1 X183.25 Y331.925
X177.029 Y343.185
Z-13.875
X177.537 Y343.566
G2 X178.426 Y343.44 I0.382 J-0.508
X187 Y319.177 I-34.226 J-25.741
G1 X187.051 Y317.699
X187 Y316.222
G2 X101.4 Y319.177 I-42.8 J1.478
X184.21 Y332.971 I42.8 J-1.478
X183.843 Y332.151 I-0.593 J-0.226
G1 X183.25 Y331.925
X177.029 Y343.185
Z-18.5
X177.537 Y343.566
G2 X178.426 Y343.44 I0.382 J-0.508
X187 Y319.177 I-34.226 J-25.741
G1 X187.051 Y317.699
X187 Y316.222
G2 X153.099 Y275.809 I-42.8 J1.478
G1 Z-15.5
G2 X136.752 Y275.527 I-8.899 J41.891
G1 Z-18.5
G2 X119.702 Y352.826 I7.448 J42.173
X133.156 Y359.076 I24.498 J-35.127
G1 Z-15.5
G2 X149.467 Y360.2 I11.044 J-41.377
G1 Z-18.5
G2 X184.21 Y332.971 I-5.267 J-42.5
X183.843 Y332.151 I-0.593 J-0.226
G1 X183.25 Y331.925
G0 Z5
X336.411 Y281.841
G1 Z-4.625 F500
X335.931 Y281.425
G2 X335.035 Y281.49 I-0.415 J0.48
G3 X294.606 Y305.469 I-56.104 J-48.521
G1 Y320.86
Y324.035
X280.519
X263.256
Y305.469
G3 X204.756 Y232.969 I15.675 J-72.5
G1 Y209.319
G3 X214.696 Y177.511 I55.863
G2 X217.256 Y169.319 I-11.827 J-8.192
G1 Y162.969
Y159.794
X247.256
Y144.969
Y141.794
X310.606
Y159.794
X337.431
X340.606
Y169.319
G2 X343.166 Y177.511 I14.388
G3 X353.106 Y209.319 I-45.922 J31.808
G1 Y232.969
G3 X326.487 Y289.894 I-74.175
G2 X326.407 Y290.788 I0.407 J0.487
G1 X326.814 Y291.275
X336.411 Y281.841
Z-9.25
X335.931 Y281.425
G2 X335.035 Y281.49 I-0.415 J0.48
G3 X294.606 Y305.469 I-56.104 J-48.521
G1 Y320.86
Y324.035
X280.519
X263.256
Y305.469
G3 X204.756 Y232.969 I15.675 J-72.5
G1 Y209.319
G3 X214.696 Y177.511 I55.863
G2 X217.256 Y169.319 I-11.827 J-8.192
G1 Y162.969
Y159.794
X247.256
Y144.969
Y141.794
X310.606
Y159.794
X337.431
X340.606
Y169.319
G2 X343.166 Y177.511 I14.388
G3 X353.106 Y209.319 I-45.922 J31.808
G1 Y232.969
G3 X326.487 Y289.894 I-74.175
G2 X326.407 Y290.788 I0.407 J0.487
G1 X326.814 Y291.275
X336.411 Y281.841
Z-13.875
X335.931 Y281.425
G2 X335.035 Y281.49 I-0.415 J0.48
G3 X294.606 Y305.469 I-56.104 J-48.521
G1 Y320.86
Y324.035
X280.519
X263.256
Y305.469
G3 X204.756 Y232.969 I15.675 J-72.5
G1 Y209.319
G3 X214.696 Y177.511 I55.863
G2 X217.256 Y169.319 I-11.827 J-8.192
G1 Y162.969
Y159.794
X247.256
Y144.969
Y141.794
X310.606
Y159.794
X337.431
X340.606
Y169.319
G2 X343.166 Y177.511 I14.388
G3 X353.106 Y209.319 I-45.922 J31.808
G1 Y232.969
G3 X326.487 Y289.894 I-74.175
G2 X326.407 Y290.788 I0.407 J0.487
G1 X326.814 Y291.275
X336.411 Y281.841
Z-18.5
X335.931 Y281.425
G2 X335.035 Y281.49 I-0.415 J0.48
G3 X294.606 Y305.469 I-56.104 J-48.521
G1 Y324.035
X263.256
Y305.469
G3 X204.756 Y232.969 I15.675 J-72.5
G1 Y230.15
Z-15.5
Y213.8
Z-18.5
Y209.319
G3 X214.696 Y177.511 I55.863
G2 X217.256 Y169.319 I-11.827 J-8.192
G1 Y162.969
Y159.794
X247.256
Y141.794
X270.596
Z-15.5
X286.946
Z-18.5
X310.606
Y159.794
X340.606
Y169.319
G2 X343.166 Y177.511 I14.388
G3 X353.106 Y209.319 I-45.922 J31.808
G1 Y214.973
Z-15.5
Y231.323
Z-18.5
Y232.969
G3 X326.487 Y289.894 I-74.175
G2 X326.407 Y290.788 I0.407 J0.487
G1 X326.814 Y291.275
G0 Z5
X309.947 Y260.633
G1 Z-4.625 F500
X310.428 Y261.048
G2 X311.323 Y260.983 I0.415 J-0.48
X246.54 Y204.955 I-32.392 J-28.014
X277.454 Y275.769 I32.392 J28.014
G1 X278.931 Y275.82
X280.409 Y275.769
G2 X317.807 Y250.932 I-1.478 J-42.8
X317.497 Y250.09 I-0.576 J-0.266
G1 X316.921 Y249.823
X309.947 Y260.633
Z-9.25
X310.428 Y261.048
G2 X311.323 Y260.983 I0.415 J-0.48
X246.54 Y204.955 I-32.392 J-28.014
X277.454 Y275.769 I32.392 J28.014
G1 X278.931 Y275.82
X280.409 Y275.769
G2 X317.807 Y250.932 I-1.478 J-42.8
X317.497 Y250.09 I-0.576 J-0.266
G1 X316.921 Y249.823
X309.947 Y260.633
Z-13.875
X310.428 Y261.048
G2 X311.323 Y260.983 I0.415 J-0.48
X246.54 Y204.955 I-32.392 J-28.014
X277.454 Y275.769 I32.392 J28.014
G1 X278.931 Y275.82
X280.409 Y275.769
G2 X317.807 Y250.932 I-1.478 J-42.8
X317.497 Y250.09 I-0.576 J-0.266
G1 X316.921 Y249.823
X309.947 Y260.633
Z-18.5
X310.428 Y261.048
G2 X311.323 Y260.983 I0.415 J-0.48
X321.289 Y239.285 I-32.392 J-28.014
G1 Z-15.5
G2 X320.569 Y222.951 I-42.357 J-6.316
G1 Z-18.5
G2 X312.285 Y206.107 I-41.637 J10.018
X243.805 Y208.471 I-33.353 J26.862
X237.598 Y221.762 I35.127 J24.498
G1 Z-15.5
G2 X236.411 Y238.069 I41.333 J11.207
G1 Z-18.5
G2 X277.454 Y275.769 I42.521 J-5.1
G1 X278.931 Y275.82
X280.409 Y275.769
G2 X317.807 Y250.932 I-1.478 J-42.8
X317.497 Y250.09 I-0.576 J-0.266
G1 X316.921 Y249.823
G0 Z5
X231.906 Y-210.276
G1 Z-4.625 F500
X232.535 Y-210.365
G2 X233.073 Y-211.084 I-0.09 J-0.629
G1 X229.288 Y-237.582
X229.256 Y-237.805
Y-271.206
X242.375
X243.69
X244.62 Y-270.276
G2 X245.186 I0.283 J-0.283
Y-270.842 I-0.283 J-0.283
G1 X244.256 Y-271.772
Y-289.206
X300.606
Y-273.087
Y-271.772
X299.676 Y-270.842
G2 X299.959 Y-270.159 I0.283 J0.283
X300.242 Y-270.276 J-0.4
G1 X301.172 Y-271.206
X325.606
Y-248.087
Y-246.772
X324.676 Y-245.842
G2 X325.242 Y-245.276 I0.283 J0.283
G1 X326.172 Y-246.206
X343.606
Y-199.856
X327.487
X326.172
X325.242 Y-200.786
G2 X324.676 Y-200.22 I-0.283 J0.283
G1 X325.606 Y-199.29
Y-120.587
Y-119.272
X324.676 Y-118.342
G2 X325.242 Y-117.776 I0.283 J0.283
G1 X326.172 Y-118.706
X343.606
Y-75.531
Y-72.356
X327.487
X326.172
X325.242 Y-73.286
G2 X324.559 Y-73.003 I-0.283 J0.283
X324.676 Y-72.72 I0.4
G1 X325.606 Y-71.79
Y6.913
Y8.228
X324.676 Y9.158
G2 X325.242 Y9.724 I0.283 J0.283
G1 X326.172 Y8.794
X343.606
Y51.969
Y55.144
X327.487
X326.172
X325.242 Y54.214
G2 X324.676 Y54.78 I-0.283 J0.283
G1 X325.606 Y55.71
Y80.144
X277.431
X274.677
X274.288 Y77.418
X233.073 Y-211.084
X231.376 Y-222.963
G2 X230.658 Y-223.502 I-0.629 J0.09
G1 X230.029 Y-223.412
X231.906 Y-210.276
Z-9.25
X232.535 Y-210.365
G2 X233.073 Y-211.084 I-0.09 J-0.629
G1 X229.288 Y-237.582
X229.256 Y-237.805
Y-271.206
X242.375
X243.69
X244.62 Y-270.276
G2 X245.186 I0.283 J-0.283
Y-270.842 I-0.283 J-0.283
G1 X244.256 Y-271.772
Y-289.206
X300.606
Y-273.087
Y-271.772
X299.676 Y-270.842
G2 X299.959 Y-270.159 I0.283 J0.283
X300.242 Y-270.276 J-0.4
G1 X301.172 Y-271.206
X325.606
Y-248.087
Y-246.772
X324.676 Y-245.842
G2 X325.242 Y-245.276 I0.283 J0.283
G1 X326.172 Y-246.206
X343.606
Y-199.856
X327.487
X326.172
X325.242 Y-200.786
G2 X324.676 Y-200.22 I-0.283 J0.283
G1 X325.606 Y-199.29
Y-120.587
Y-119.272
X324.676 Y-118.342
G2 X325.242 Y-117.776 I0.283 J0.283
G1 X326.172 Y-118.706
X343.606
Y-75.531
Y-72.356
X327.487
X326.172
X325.242 Y-73.286
G2 X324.559 Y-73.003 I-0.283 J0.283
X324.676 Y-72.72 I0.4
G1 X325.606 Y-71.79
Y6.913
Y8.228
X324.676 Y9.158
G2 X325.242 Y9.724 I0.283 J0.283
G1 X326.172 Y8.794
X343.606
Y51.969
Y55.144
X327.487
X326.172
X325.242 Y54.214
G2 X324.676 Y54.78 I-0.283 J0.283
G1 X325.606 Y55.71
Y80.144
X277.431
X274.677
X274.288 Y77.418
X233.073 Y-211.084
X231.376 Y-222.963
G2 X230.658 Y-223.502 I-0.629 J0.09
G1 X230.029 Y-223.412
X231.906 Y-210.276
Z-13.875
X232.535 Y-210.365
G2 X233.073 Y-211.084 I-0.09 J-0.629
G1 X229.288 Y-237.582
X229.256 Y-237.805
Y-271.206
X242.375
X243.69
X244.62 Y-270.276
G2 X245.186 I0.283 J-0.283
Y-270.842 I-0.283 J-0.283
G1 X244.256 Y-271.772
Y-289.206
X300.606
Y-273.087
Y-271.772
X299.676 Y-270.842
G2 X299.959 Y-270.159 I0.283 J0.283
X300.242 Y-270.276 J-0.4
G1 X301.172 Y-271.206
X325.606
Y-248.087
Y-246.772
X324.676 Y-245.842
G2 X325.242 Y-245.276 I0.283 J0.283
G1 X326.172 Y-246.206
X343.606
Y-199.856
X327.487
X326.172
X325.242 Y-200.786
G2 X324.676 Y-200.22 I-0.283 J0.283
G1 X325.606 Y-199.29
Y-120.587
Y-119.272
X324.676 Y-118.342
G2 X325.242 Y-117.776 I0.283 J0.283
G1 X326.172 Y-118.706
X343.606
Y-75.531
Y-72.356
X327.487
X326.172
X325.242 Y-73.286
G2 X324.559 Y-73.003 I-0.283 J0.283
X324.676 Y-72.72 I0.4
G1 X325.606 Y-71.79
Y6.913
Y8.228
X324.676 Y9.158
G2 X325.242 Y9.724 I0.283 J0.283
G1 X326.172 Y8.794
X343.606
Y51.969
Y55.144
X327.487
X326.172
X325.242 Y54.214
G2 X324.676 Y54.78 I-0.283 J0.283
G1 X325.606 Y55.71
Y80.144
X277.431
X274.677
X274.288 Y77.418
X233.073 Y-211.084
X231.376 Y-222.963
G2 X230.658 Y-223.502 I-0.629 J0.09
G1 X230.029 Y-223.412
X231.906 Y-210.276
Z-18.5
X232.535 Y-210.365
G2 X233.073 Y-211.084 I-0.09 J-0.629
G1 X229.256 Y-237.805
Y-271.206
X242.375
X243.69
X244.62 Y-270.276
G2 X245.186 I0.283 J-0.283
Y-270.842 I-0.283 J-0.283
G1 X244.256 Y-271.772
Y-289.206
X264.171
Z-15.5
X280.521
Z-18.5
X300.606
Y-271.772
X299.676 Y-270.842
G2 X300.242 Y-270.276 I0.283 J0.283
G1 X301.172 Y-271.206
X325.606
Y-248.087
Y-246.772
X324.676 Y-245.842
G2 Y-245.276 I0.283 J0.283
X325.242 I0.283 J-0.283
G1 X326.172 Y-246.206
X343.606
Y-199.856
X327.487
X326.172
X325.242 Y-200.786
G2 X324.676 Y-200.22 I-0.283 J0.283
G1 X325.606 Y-199.29
Y-120.587
Y-119.272
X324.676 Y-118.342
G2 Y-117.776 I0.283 J0.283
X325.242 I0.283 J-0.283
G1 X326.172 Y-118.706
X343.606
Y-109.045
Z-15.5
Y-92.695
Z-18.5
Y-72.356
X327.487
X326.172
X325.242 Y-73.286
G2 X324.676 I-0.283 J0.283
Y-72.72 I0.283 J0.283
G1 X325.606 Y-71.79
Y6.913
Y8.228
X324.676 Y9.158
G2 X325.242 Y9.724 I0.283 J0.283
G1 X326.172 Y8.794
X343.606
Y55.144
X327.487
X326.172
X325.242 Y54.214
G2 X324.676 I-0.283 J0.283
Y54.78 I0.283 J0.283
G1 X325.606 Y55.71
Y80.144
X308.436
Z-15.5
X292.086
Z-18.5
X274.677
X274.288 Y77.418
X231.376 Y-222.963
G2 X230.658 Y-223.502 I-0.629 J0.09
G1 X230.029 Y-223.412
G0 Z5
X35.466 Y42.766
G1 Z-4.625 F500
X35.877 Y43.25
G2 X36.772 Y43.323 I0.484 J-0.411
X56.622 Y-4.796 I-36.772 J-43.323
G3 X59.034 Y-20.779 I34.693 J-2.938
G2 X57.809 Y-35.473 I-15.177 J-6.133
G3 X54.12 Y-41.906 I106.631 J-65.431
X37.37 Y-90.427 I143.222 J-76.594
G2 X17.843 Y-106.825 I-19.527 J3.427
G1 X-17.843
G2 X-37.37 Y-90.427 J19.825
G3 X-54.12 Y-41.906 I-159.972 J-28.073
X-57.809 Y-35.473 I-110.32 J-58.998
G2 X-59.034 Y-20.779 I13.952 J8.561
G3 X-56.622 Y-4.796 I-32.282 J13.045
G2 X45.036 Y34.653 I56.622 J4.796
X44.92 Y33.763 I-0.503 J-0.387
G1 X44.417 Y33.375
X35.466 Y42.766
Z-9.25
X35.877 Y43.25
G2 X36.772 Y43.323 I0.484 J-0.411
X56.622 Y-4.796 I-36.772 J-43.323
G3 X59.034 Y-20.779 I34.693 J-2.938
G2 X57.809 Y-35.473 I-15.177 J-6.133
G3 X54.12 Y-41.906 I106.631 J-65.431
X37.37 Y-90.427 I143.222 J-76.594
G2 X17.843 Y-106.825 I-19.527 J3.427
G1 X-17.843
G2 X-37.37 Y-90.427 J19.825
G3 X-54.12 Y-41.906 I-159.972 J-28.073
X-57.809 Y-35.473 I-110.32 J-58.998
G2 X-59.034 Y-20.779 I13.952 J8.561
G3 X-56.622 Y-4.796 I-32.282 J13.045
G2 X45.036 Y34.653 I56.622 J4.796
X44.92 Y33.763 I-0.503 J-0.387
G1 X44.417 Y33.375
X35.466 Y42.766
Z-13.875
X35.877 Y43.25
G2 X36.772 Y43.323 I0.484 J-0.411
X56.622 Y-4.796 I-36.772 J-43.323
G3 X59.034 Y-20.779 I34.693 J-2.938
G2 X57.809 Y-35.473 I-15.177 J-6.133
G3 X54.12 Y-41.906 I106.631 J-65.431
X37.37 Y-90.427 I143.222 J-76.594
G2 X17.843 Y-106.825 I-19.527 J3.427
G1 X-17.843
G2 X-37.37 Y-90.427 J19.825
G3 X-54.12 Y-41.906 I-159.972 J-28.073
X-57.809 Y-35.473 I-110.32 J-58.998
G2 X-59.034 Y-20.779 I13.952 J8.561
G3 X-56.622 Y-4.796 I-32.282 J13.045
G2 X45.036 Y34.653 I56.622 J4.796
X44.92 Y33.763 I-0.503 J-0.387
G1 X44.417 Y33.375
X35.466 Y42.766
Z-18.5
X35.877 Y43.25
G2 X36.772 Y43.323 I0.484 J-0.411
X44.164 Y35.758 I-36.772 J-43.323
G1 Z-15.5
G2 X52.517 Y21.703 I-44.164 J-35.758
G1 Z-18.5
G2 X56.622 Y-4.796 I-52.517 J-21.703
G3 X59.034 Y-20.779 I34.693 J-2.938
G2 X57.809 Y-35.473 I-15.177 J-6.133
G3 X54.12 Y-41.906 I106.631 J-65.431
X37.37 Y-90.427 I143.222 J-76.594
G2 X17.843 Y-106.825 I-19.527 J3.427
G1 X9.297
Z-15.5
X-7.053
Z-18.5
X-17.843
G2 X-37.37 Y-90.427 J19.825
G3 X-54.12 Y-41.906 I-159.972 J-28.073
X-57.809 Y-35.473 I-110.32 J-58.998
G2 X-59.034 Y-20.779 I13.952 J8.561
G3 X-56.622 Y-4.796 I-32.282 J13.045
G2 X-53.358 Y19.546 I56.622 J4.796
G1 Z-15.5
G2 X-45.584 Y33.929 I53.358 J-19.546
G1 Z-18.5
G2 X44.164 Y35.758 I45.584 J-33.929
G1 Z-15.5
G2 X45.036 Y34.653 I-44.164 J-35.758
X44.92 Y33.763 I-0.503 J-0.387
G1 X44.417 Y33.375
G0 Z5
X-8.336 Y277.305
G1 Z-4.625 F500
X-8.426 Y277.933
G2 X-7.887 Y278.652 I0.629 J0.09
G1 X43.949 Y286.057
X46.675 Y286.446
Y337.375
X23.556
X22.241
X21.311 Y336.445
G2 X20.745 Y337.011 I-0.283 J0.283
G1 X21.675 Y337.941
Y355.375
X-21.5
X-24.675
Y339.256
Y337.941
X-23.745 Y337.011
G2 X-24.311 Y336.445 I-0.283 J-0.283
G1 X-25.241 Y337.375
X-103.944
X-105.259
X-106.189 Y336.445
G2 X-106.755 Y337.011 I-0.283 J0.283
G1 X-105.825 Y337.941
Y355.375
X-152.175
Y339.256
Y337.941
X-151.245 Y337.011
G2 X-151.811 Y336.445 I-0.283 J-0.283
G1 X-152.741 Y337.375
X-231.444
X-232.759
X-233.689 Y336.445
G2 X-234.372 Y336.728 I-0.283 J0.283
X-234.255 Y337.011 I0.4
G1 X-233.325 Y337.941
Y355.375
X-279.675
Y339.256
Y337.941
X-278.745 Y337.011
G2 X-279.028 Y336.328 I-0.283 J-0.283
X-279.311 Y336.445 J0.4
G1 X-280.241 Y337.375
X-304.675
Y314.256
Y312.941
X-303.745 Y312.011
G2 X-304.311 Y311.445 I-0.283 J-0.283
G1 X-305.241 Y312.375
X-322.675
Y256.025
X-306.556
X-305.241
X-304.311 Y256.955
G2 X-303.745 Y256.389 I0.283 J-0.283
G1 X-304.675 Y255.459
Y241.025
X-271.5
X-271.274
X-271.051 Y241.057
X-7.887 Y278.652
X3.992 Y280.349
G2 X4.711 Y279.81 I0.09 J-0.629
G1 X4.8 Y279.181
G0 Z5
X204.878 Y362.54
G1 Z0.375 F500
Z-9.25
X204.37 Y362.158
G2 X203.481 Y362.284 I-0.382 J0.508
G3 X144.2 Y391.875 I-59.281 J-44.584
G1 X120.55
G3 X88.742 Y381.935 J-55.863
G2 X80.55 Y379.375 I-8.192 J11.827
G1 X74.2
X71.025
Y349.375
X56.2
X53.025
Y286.025
X71.025
Y259.2
Y256.025
X80.55
G2 X88.742 Y253.465 J-14.387
G3 X120.55 Y243.525 I31.808 J45.923
G1 X144.2
G3 X216.7 Y302.025 J74.175
G1 X232.091
X235.266
Y316.112
Y333.375
X216.7
G3 X195.526 Y371.25 I-72.5 J-15.675
G2 X195.507 Y372.148 I0.439 J0.458
G1 X195.946 Y372.607
G0 Z5
X-452.945 Y274.833
G1 Z-4.625 F500
X-452.31
G2 X-451.675 Y274.198 J-0.635
G1 Y244.2
G2 X-460.5 Y235.375 I-8.825
G1 X-490
X-493.175
Y99.2
Y96.025
X-286.825
Y235.375
X-319.5
G2 X-328.325 Y244.2 J8.825
G1 Y302.2
Y305.375
X-364.285
Y288.328
Y287.001
X-363.341 Y286.069
G2 Y286.041 I-0.014 J-0.014
X-363.369 I-0.014 J0.014
G1 X-364.301 Y286.985
X-414.372
X-415.699
X-416.631 Y286.041
G2 X-416.665 Y286.055 I-0.014 J0.014
X-416.659 Y286.069 I0.02
G1 X-415.715 Y287.001
Y305.375
X-451.675
Y262.198
G2 X-452.31 Y261.563 I-0.635
G1 X-452.945
G0 Z5
X-8.336 Y277.305
G1 Z0.375 F500
Z-9.25
X-8.426 Y277.933
G2 X-7.887 Y278.652 I0.629 J0.09
G1 X43.949 Y286.057
X46.675 Y286.446
Y337.375
X23.556
X22.241
X21.311 Y336.445
G2 X20.745 Y337.011 I-0.283 J0.283
G1 X21.675 Y337.941
Y355.375
X-21.5
X-24.675
Y339.256
Y337.941
X-23.745 Y337.011
G2 X-24.311 Y336.445 I-0.283 J-0.283
G1 X-25.241 Y337.375
X-103.944
X-105.259
X-106.189 Y336.445
G2 X-106.755 Y337.011 I-0.283 J0.283
G1 X-105.825 Y337.941
Y355.375
X-152.175
Y339.256
Y337.941
X-151.245 Y337.011
G2 X-151.811 Y336.445 I-0.283 J-0.283
G1 X-152.741 Y337.375
X-231.444
X-232.759
X-233.689 Y336.445
G2 X-234.372 Y336.728 I-0.283 J0.283
X-234.255 Y337.011 I0.4
G1 X-233.325 Y337.941
Y355.375
X-279.675
Y339.256
Y337.941
X-278.745 Y337.011
G2 X-279.028 Y336.328 I-0.283 J-0.283
X-279.311 Y336.445 J0.4
G1 X-280.241 Y337.375
X-304.675
Y314.256
Y312.941
X-303.745 Y312.011
G2 X-304.311 Y311.445 I-0.283 J-0.283
G1 X-305.241 Y312.375
X-322.675
Y256.025
X-306.556
X-305.241
X-304.311 Y256.955
G2 X-303.745 Y256.389 I0.283 J-0.283
G1 X-304.675 Y255.459
Y241.025
X-271.5
X-271.274
X-271.051 Y241.057
X-7.887 Y278.652
X3.992 Y280.349
G2 X4.711 Y279.81 I0.09 J-0.629
G1 X4.8 Y279.181
G0 Z5
X204.878 Y362.54
G1 Z-4.25 F500
Z-13.875
X204.37 Y362.158
G2 X203.481 Y362.284 I-0.382 J0.508
G3 X144.2 Y391.875 I-59.281 J-44.584
G1 X120.55
G3 X88.742 Y381.935 J-55.863
G2 X80.55 Y379.375 I-8.192 J11.827
G1 X74.2
X71.025
Y349.375
X56.2
X53.025
Y286.025
X71.025
Y259.2
Y256.025
X80.55
G2 X88.742 Y253.465 J-14.387
G3 X120.55 Y243.525 I31.808 J45.923
G1 X144.2
G3 X216.7 Y302.025 J74.175
G1 X232.091
X235.266
Y316.112
Y333.375
X216.7
G3 X195.526 Y371.25 I-72.5 J-15.675
G2 X195.507 Y372.148 I0.439 J0.458
G1 X195.946 Y372.607
G0 Z5
X-211.9 Y-222.92
G1 Z-4.625 F500
X-212.518 Y-223.065
G2 X-213.281 Y-222.591 I-0.145 J0.618
G1 X-285.909 Y87.225
X-286.483 Y89.675
X-289
X-290
X-491
X-493.517
X-494.091 Y87.225
X-573.091 Y-249.775
X-573.175 Y-250.133
Y-271.675
X-553.175
Y-286.5
Y-289.675
X-506.825
Y-271.675
X-431.1
X-427.925
Y-233.5
G2 X-408.1 Y-213.675 I19.825
G1 X-371.9
G2 X-352.075 Y-233.5 J-19.825
G1 Y-268.5
Y-271.675
X-273.175
Y-286.5
Y-289.675
X-226.825
Y-271.675
X-210
X-206.825
Y-250.5
Y-250.133
X-206.909 Y-249.775
X-213.281 Y-222.591
X-216.02 Y-210.908
G2 X-215.547 Y-210.145 I0.618 J0.145
G1 X-214.929 Y-210
X-211.9 Y-222.92
Z-9.25
X-212.518 Y-223.065
G2 X-213.281 Y-222.591 I-0.145 J0.618
G1 X-285.909 Y87.225
X-286.483 Y89.675
X-289
X-290
X-491
X-493.517
X-494.091 Y87.225
X-573.091 Y-249.775
X-573.175 Y-250.133
Y-271.675
X-553.175
Y-286.5
Y-289.675
X-506.825
Y-271.675
X-431.1
X-427.925
Y-233.5
G2 X-408.1 Y-213.675 I19.825
G1 X-371.9
G2 X-352.075 Y-233.5 J-19.825
G1 Y-268.5
Y-271.675
X-273.175
Y-286.5
Y-289.675
X-226.825
Y-271.675
X-210
X-206.825
Y-250.5
Y-250.133
X-206.909 Y-249.775
X-213.281 Y-222.591
X-216.02 Y-210.908
G2 X-215.547 Y-210.145 I0.618 J0.145
G1 X-214.929 Y-210
G0 Z5
X-263.148 Y-122.122
G1 Z-4.625 F500
X-262.53 Y-121.977
G2 X-261.767 Y-122.451 I0.145 J-0.618
G1 X-234.134 Y-240.325
X-285.825
Y-19.822
X-261.767 Y-122.451
X-259.028 Y-134.134
G2 X-259.501 Y-134.897 I-0.618 J-0.145
G1 X-260.119 Y-135.042
X-263.148 Y-122.122
Z-9.25
X-262.53 Y-121.977
G2 X-261.767 Y-122.451 I0.145 J-0.618
G1 X-234.134 Y-240.325
X-285.825
Y-19.822
X-261.767 Y-122.451
X-259.028 Y-134.134
G2 X-259.501 Y-134.897 I-0.618 J-0.145
G1 X-260.119 Y-135.042
X-263.148 Y-122.122
Z-13.875
X-262.53 Y-121.977
G2 X-261.767 Y-122.451 I0.145 J-0.618
G1 X-234.134 Y-240.325
X-285.825
Y-19.822
X-261.767 Y-122.451
X-259.028 Y-134.134
G2 X-259.501 Y-134.897 I-0.618 J-0.145
G1 X-260.119 Y-135.042
X-263.148 Y-122.122
Z-18.5
X-262.53 Y-121.977
G2 X-261.767 Y-122.451 I0.145 J-0.618
G1 X-234.134 Y-240.325
X-285.825
Y-19.822
X-261.767 Y-122.451
X-259.028 Y-134.134
G2 X-259.501 Y-134.897 I-0.618 J-0.145
G1 X-260.119 Y-135.042
G0 Z5
X165.137 Y193.578
G1 Z0.375 F500
Z-9.25
X164.726 Y193.094
G2 X163.831 Y193.02 I-0.484 J0.411
G3 X0 Y253.175 I-163.831 J-193.02
X-35.321 Y250.7 I-0.007 J-253.176
X-253.175 Y0 I35.321 J-250.699
X253.175 I253.175
X154.502 Y200.566 I-253.175
G2 X154.386 Y201.457 I0.388 J0.503
G1 X154.774 Y201.96
X165.137 Y193.578
Z-13.875
X164.726 Y193.094
G2 X163.831 Y193.02 I-0.484 J0.411
G3 X0 Y253.175 I-163.831 J-193.02
X-35.321 Y250.7 I-0.007 J-253.176
X-253.175 Y0 I35.321 J-250.699
X253.175 I253.175
X154.502 Y200.566 I-253.175
G2 X154.386 Y201.457 I0.388 J0.503
G1 X154.774 Y201.96
G0 Z5
X-452.945 Y274.833
G1 Z0.375 F500
Z-9.25
X-452.31
G2 X-451.675 Y274.198 J-0.635
G1 Y244.2
G2 X-460.5 Y235.375 I-8.825
G1 X-490
X-493.175
Y99.2
Y96.025
X-286.825
Y235.375
X-319.5
G2 X-328.325 Y244.2 J8.825
G1 Y302.2
Y305.375
X-364.285
Y288.328
Y287.001
X-363.341 Y286.069
G2 Y286.041 I-0.014 J-0.014
X-363.369 I-0.014 J0.014
G1 X-364.301 Y286.985
X-414.372
X-415.699
X-416.631 Y286.041
G2 X-416.665 Y286.055 I-0.014 J0.014
X-416.659 Y286.069 I0.02
G1 X-415.715 Y287.001
Y305.375
X-451.675
Y262.198
G2 X-452.31 Y261.563 I-0.635
G1 X-452.945
Y274.833
Z-13.875
X-452.31
G2 X-451.675 Y274.198 J-0.635
G1 Y244.2
G2 X-460.5 Y235.375 I-8.825
G1 X-490
X-493.175
Y99.2
Y96.025
X-286.825
Y235.375
X-319.5
G2 X-328.325 Y244.2 J8.825
G1 Y302.2
Y305.375
X-364.285
Y288.328
Y287.001
X-363.341 Y286.069
G2 Y286.041 I-0.014 J-0.014
X-363.369 I-0.014 J0.014
G1 X-364.301 Y286.985
X-414.372
X-415.699
X-416.631 Y286.041
G2 X-416.665 Y286.055 I-0.014 J0.014
X-416.659 Y286.069 I0.02
G1 X-415.715 Y287.001
Y305.375
X-451.675
Y262.198
G2 X-452.31 Y261.563 I-0.635
G1 X-452.945
G0 Z5
X-8.336 Y277.305
G1 Z-4.25 F500
Z-13.875
X-8.426 Y277.933
G2 X-7.887 Y278.652 I0.629 J0.09
G1 X43.949 Y286.057
X46.675 Y286.446
Y337.375
X23.556
X22.241
X21.311 Y336.445
G2 X20.745 Y337.011 I-0.283 J0.283
G1 X21.675 Y337.941
Y355.375
X-21.5
X-24.675
Y339.256
Y337.941
X-23.745 Y337.011
G2 X-24.311 Y336.445 I-0.283 J-0.283
G1 X-25.241 Y337.375
X-103.944
X-105.259
X-106.189 Y336.445
G2 X-106.755 Y337.011 I-0.283 J0.283
G1 X-105.825 Y337.941
Y355.375
X-152.175
Y339.256
Y337.941
X-151.245 Y337.011
G2 X-151.811 Y336.445 I-0.283 J-0.283
G1 X-152.741 Y337.375
X-231.444
X-232.759
X-233.689 Y336.445
G2 X-234.372 Y336.728 I-0.283 J0.283
X-234.255 Y337.011 I0.4
G1 X-233.325 Y337.941
Y355.375
X-279.675
Y339.256
Y337.941
X-278.745 Y337.011
G2 X-279.028 Y336.328 I-0.283 J-0.283
X-279.311 Y336.445 J0.4
G1 X-280.241 Y337.375
X-304.675
Y314.256
Y312.941
X-303.745 Y312.011
G2 X-304.311 Y311.445 I-0.283 J-0.283
G1 X-305.241 Y312.375
X-322.675
Y256.025
X-306.556
X-305.241
X-304.311 Y256.955
G2 X-303.745 Y256.389 I0.283 J-0.283
G1 X-304.675 Y255.459
Y241.025
X-271.5
X-271.274
X-271.051 Y241.057
X-7.887 Y278.652
X3.992 Y280.349
G2 X4.711 Y279.81 I0.09 J-0.629
G1 X4.8 Y279.181
X-8.336 Y277.305
Z-18.5
X-8.426 Y277.933
G2 X-7.887 Y278.652 I0.629 J0.09
G1 X46.675 Y286.446
Y337.375
X23.556
X22.241
X21.311 Y336.445
G2 X20.745 Y337.011 I-0.283 J0.283
G1 X21.675 Y337.941
Y355.375
X3.339
Z-15.5
X-13.011
Z-18.5
X-24.675
Y339.256
Y337.941
X-23.745 Y337.011
G2 X-24.311 Y336.445 I-0.283 J-0.283
G1 X-25.241 Y337.375
X-103.944
X-105.259
X-106.189 Y336.445
G2 X-106.755 Y337.011 I-0.283 J0.283
G1 X-105.825 Y337.941
Y355.375
X-152.175
Y339.256
Y337.941
X-151.245 Y337.011
G2 X-151.811 Y336.445 I-0.283 J-0.283
G1 X-152.741 Y337.375
X-231.444
X-232.759
X-233.689 Y336.445
G2 X-234.255 Y337.011 I-0.283 J0.283
G1 X-233.325 Y337.941
Y355.375
X-247.943
Z-15.5
X-264.293
Z-18.5
X-279.675
Y339.256
Y337.941
X-278.745 Y337.011
G2 Y336.445 I-0.283 J-0.283
X-279.311 I-0.283 J0.283
G1 X-280.241 Y337.375
X-304.675
Y314.256
Y312.941
X-303.745 Y312.011
G2 Y311.445 I-0.283 J-0.283
X-304.311 I-0.283 J0.283
G1 X-305.241 Y312.375
X-322.675
Y256.025
X-306.556
X-305.241
X-304.311 Y256.955
G2 X-303.745 I0.283 J-0.283
Y256.389 I-0.283 J-0.283
G1 X-304.675 Y255.459
Y241.025
X-271.274
X-271.051 Y241.057
X-117.234 Y263.031
Z-15.5
X-101.048 Y265.343
Z-18.5
X3.992 Y280.349
G2 X4.711 Y279.81 I0.09 J-0.629
G1 X4.8 Y279.181
G0 Z5
X204.878 Y362.54
G1 Z-8.875 F500
Z-18.5
X204.37 Y362.158
G2 X203.481 Y362.284 I-0.382 J0.508
G3 X144.2 Y391.875 I-59.281 J-44.584
G1 X141.367
Z-15.5
X125.017
Z-18.5
X120.55
G3 X88.742 Y381.935 J-55.863
G2 X80.55 Y379.375 I-8.192 J11.827
G1 X74.2
X71.025
Y349.375
X53.025
Y286.025
X71.025
Y282.378
Z-15.5
Y266.028
Z-18.5
Y256.025
X80.55
G2 X88.742 Y253.465 J-14.387
G3 X120.55 Y243.525 I31.808 J45.923
G1 X125.318
Z-15.5
X141.668
Z-18.5
X144.2
G3 X216.7 Y302.025 J74.175
G1 X235.266
Y333.375
X216.7
G3 X195.526 Y371.25 I-72.5 J-15.675
G2 X195.507 Y372.148 I0.439 J0.458
G1 X195.946 Y372.607
G0 Z5
X-211.9 Y-222.92
G1 Z-4.25 F500
Z-13.875
X-212.518 Y-223.065
G2 X-213.281 Y-222.591 I-0.145 J0.618
G1 X-285.909 Y87.225
X-286.483 Y89.675
X-289
X-290
X-491
X-493.517
X-494.091 Y87.225
X-573.091 Y-249.775
X-573.175 Y-250.133
Y-271.675
X-553.175
Y-286.5
Y-289.675
X-506.825
Y-271.675
X-431.1
X-427.925
Y-233.5
G2 X-408.1 Y-213.675 I19.825
G1 X-371.9
G2 X-352.075 Y-233.5 J-19.825
G1 Y-268.5
Y-271.675
X-273.175
Y-286.5
Y-289.675
X-226.825
Y-271.675
X-210
X-206.825
Y-250.5
Y-250.133
X-206.909 Y-249.775
X-213.281 Y-222.591
X-216.02 Y-210.908
G2 X-215.547 Y-210.145 I0.618 J0.145
G1 X-214.929 Y-210
X-211.9 Y-222.92
Z-18.5
X-212.518 Y-223.065
G2 X-213.281 Y-222.591 I-0.145 J0.618
G1 X-275.154 Y41.345
Z-15.5
X-278.885 Y57.263
Z-18.5
X-286.483 Y89.675
X-290
X-493.517
X-502.103 Y53.049
Z-15.5
X-505.834 Y37.131
Z-18.5
X-573.175 Y-250.133
Y-271.675
X-553.175
Y-289.675
X-506.825
Y-271.675
X-473.376
Z-15.5
X-457.026
Z-18.5
X-427.925
Y-233.5
G2 X-408.1 Y-213.675 I19.825
G1 X-371.9
G2 X-352.075 Y-233.5 J-19.825
G1 Y-271.675
X-320.068
Z-15.5
X-303.718
Z-18.5
X-273.175
Y-289.675
X-226.825
Y-271.675
X-206.825
Y-250.133
X-206.909 Y-249.775
X-216.02 Y-210.908
G2 X-215.547 Y-210.145 I0.618 J0.145
G1 X-214.929 Y-210
G0 Z5
X165.137 Y193.578
G1 Z-8.875 F500
Z-18.5
X164.726 Y193.094
G2 X163.831 Y193.02 I-0.484 J0.411
G3 X4.344 Y253.138 I-163.831 J-193.02
G1 Z-15.5
G3 X0 Y253.175 I-4.344 J-253.138
X-12.004 Y252.891 I-0.007 J-253.176
G1 Z-18.5
G3 X-35.321 Y250.7 I11.997 J-252.891
X-253.175 Y0 I35.321 J-250.699
X-175.394 Y-182.577 I253.175
G1 Z-15.5
G3 X-163.244 Y-193.517 I175.394 J182.577
G1 Z-18.5
G3 X161.462 Y-195.006 I163.244 J193.517
G1 Z-15.5
G3 X173.713 Y-184.178 I-161.462 J195.006
G1 Z-18.5
G3 X154.502 Y200.566 I-173.713 J184.178
G2 X154.386 Y201.457 I0.388 J0.503
G1 X154.774 Y201.96
G0 Z5
X-452.945 Y274.833
G1 Z-8.875 F500
Z-18.5
X-452.31
G2 X-451.675 Y274.198 J-0.635
G1 Y244.2
G2 X-460.5 Y235.375 I-8.825
G1 X-493.175
Y220.34
Z-15.5
Y203.99
Z-18.5
Y126.919
Z-15.5
Y110.569
Z-18.5
Y96.025
X-286.825
Y104.842
Z-15.5
Y121.192
Z-18.5
Y209.053
Z-15.5
Y225.403
Z-18.5
Y235.375
X-319.5
G2 X-328.325 Y244.2 J8.825
G1 Y305.375
X-364.285
Y288.328
Y287.001
X-363.341 Y286.069
G2 Y286.041 I-0.014 J-0.014
X-363.369 I-0.014 J0.014
G1 X-364.301 Y286.985
X-414.372
X-415.699
X-416.631 Y286.041
G2 X-416.659 I-0.014 J0.014
Y286.069 I0.014 J0.014
G1 X-415.715 Y287.001
Y305.375
X-451.675
Y262.198
G2 X-452.31 Y261.563 I-0.635
G1 X-452.945
G0 Z5
X-512.428 Y-103.252
G1 Z-4.625 F500
X-513.047 Y-103.107
G2 X-513.52 Y-102.344 I0.145 J0.618
G1 X-494.175 Y-19.822
Y-240.325
X-545.866
X-513.52 Y-102.344
X-510.781 Y-90.66
G2 X-510.018 Y-90.187 I0.618 J-0.145
G1 X-509.4 Y-90.332
X-512.428 Y-103.252
Z-9.25
X-513.047 Y-103.107
G2 X-513.52 Y-102.344 I0.145 J0.618
G1 X-494.175 Y-19.822
Y-240.325
X-545.866
X-513.52 Y-102.344
X-510.781 Y-90.66
G2 X-510.018 Y-90.187 I0.618 J-0.145
G1 X-509.4 Y-90.332
X-512.428 Y-103.252
Z-13.875
X-513.047 Y-103.107
G2 X-513.52 Y-102.344 I0.145 J0.618
G1 X-494.175 Y-19.822
Y-240.325
X-545.866
X-513.52 Y-102.344
X-510.781 Y-90.66
G2 X-510.018 Y-90.187 I0.618 J-0.145
G1 X-509.4 Y-90.332
X-512.428 Y-103.252
Z-18.5
X-513.047 Y-103.107
G2 X-513.52 Y-102.344 I0.145 J0.618
G1 X-494.175 Y-19.822
Y-240.325
X-545.866
X-513.52 Y-102.344
X-510.781 Y-90.66
G2 X-510.018 Y-90.187 I0.618 J-0.145
G1 X-509.4 Y-90.332
G0 Z5
M9
G28 G91 Z0
G28 X0 Y0
M30
%
