(METICULOUSSLED_PLYWOODDUSTCHUTE_0750PLY)
(34 PLYWOOD PART FOR THE METICULOUS Z-AXIS PLYWOOD DUST CHUTE. T1 = 14 1 FLUTE FLAT END MILL, T5 = 316 DRILL. PROGRAMMED 2242019 BY BRYAN MAYNARD.)
(T1  D=6.35 CR=0 - ZMIN=-19 - FLAT END MILL)
(T5  D=4.762 CR=0 TAPER=118DEG - ZMIN=-21 - DRILL)
G0 G40 G90 G17
G21

(DRILL1)
T5 M6
M3 S10000
G0 X0 Y82.35
G0 Z8
G0 Z6
G1 Z-21 F1000.
G0 Z6
G0 X-71.317 Y41.175
G1 Z-21 F1000.
G0 Z6
G0 Y-41.175
G1 Z-21 F1000.
G0 Z6
G0 X0 Y-82.35
G1 Z-21 F1000.
G0 Z6
G0 Z8
G0 Z8

(2D POCKET1)
M5
T1 M6
M3 S12000
G0 X11.35 Y-55.906
G0 Z8
G0 Z6
G1 Z1 F800.
G1 Z0
G1 X11.343 Y-55.907 Z-0.217
G1 X11.321 Y-55.91 Z-0.432
G1 X11.285 Y-55.916 Z-0.646
G1 X11.234 Y-55.923 Z-0.857
G1 X11.169 Y-55.932 Z-1.063
G1 X11.09 Y-55.943 Z-1.265
G1 X10.998 Y-55.956 Z-1.461
G1 X10.893 Y-55.97 Z-1.65
G1 X10.775 Y-55.987 Z-1.831
G1 X10.645 Y-56.005 Z-2.004
G1 X10.504 Y-56.025 Z-2.167
G1 X10.352 Y-56.046 Z-2.32
G1 X10.19 Y-56.069 Z-2.463
G1 X10.019 Y-56.093 Z-2.594
G1 X9.84 Y-56.118 Z-2.713
G1 X9.653 Y-56.144 Z-2.819
G1 X9.459 Y-56.171 Z-2.912
G1 X9.259 Y-56.199 Z-2.992
G1 X9.054 Y-56.228 Z-3.057
G1 X8.846 Y-56.257 Z-3.109
G1 X8.634 Y-56.286 Z-3.145
G1 X8.421 Y-56.316 Z-3.168
G1 X8.206 Y-56.346 Z-3.175
G1 X7.892 Y-56.39
G2 X-37.368 Y-42.962 I-7.892 J56.39
G2 X-56.94 Y0 I37.369 J42.962
G2 X-37.366 Y42.964 I56.94 J0
G2 X7.897 Y56.39 I37.366 J-42.964
G1 X7.922 Y56.386
G1 X8.136 Y56.356 Z-3.168
G1 X8.35 Y56.326 Z-3.145
G1 X8.561 Y56.297 Z-3.109
G1 X8.77 Y56.267 Z-3.057
G1 X8.975 Y56.239 Z-2.992
G1 X9.174 Y56.211 Z-2.912
G1 X9.368 Y56.184 Z-2.819
G1 X9.555 Y56.157 Z-2.713
G1 X9.735 Y56.132 Z-2.594
G1 X9.906 Y56.108 Z-2.463
G1 X10.068 Y56.086 Z-2.32
G1 X10.22 Y56.064 Z-2.167
G1 X10.361 Y56.045 Z-2.004
G1 X10.49 Y56.026 Z-1.831
G1 X10.608 Y56.01 Z-1.65
G1 X10.713 Y55.995 Z-1.461
G1 X10.806 Y55.982 Z-1.265
G1 X10.884 Y55.971 Z-1.063
G1 X10.949 Y55.962 Z-0.857
G1 X11 Y55.955 Z-0.646
G1 X11.037 Y55.95 Z-0.432
G1 X11.059 Y55.947 Z-0.217
G1 X11.066 Y55.946 Z0
G0 Z6
G0 X31.634 Y-53.069
G1 Z0 F600.
G1 X31.627 Y-53.072 Z-0.217 F800.
G1 X31.608 Y-53.082 Z-0.432
G1 X31.575 Y-53.099 Z-0.646
G1 X31.529 Y-53.123 Z-0.857
G1 X31.471 Y-53.153 Z-1.063
G1 X31.401 Y-53.19 Z-1.265
G1 X31.318 Y-53.233 Z-1.461
G1 X31.224 Y-53.282 Z-1.65
G1 X31.119 Y-53.337 Z-1.831
G1 X31.002 Y-53.398 Z-2.004
G1 X30.876 Y-53.464 Z-2.167
G1 X30.74 Y-53.535 Z-2.32
G1 X30.595 Y-53.61 Z-2.463
G1 X30.442 Y-53.69 Z-2.594
G1 X30.281 Y-53.774 Z-2.713
G1 X30.114 Y-53.862 Z-2.819
G1 X29.94 Y-53.952 Z-2.912
G1 X29.761 Y-54.045 Z-2.992
G1 X29.578 Y-54.141 Z-3.057
G1 X29.392 Y-54.238 Z-3.109
G1 X29.202 Y-54.337 Z-3.145
G1 X29.011 Y-54.437 Z-3.168
G1 X28.819 Y-54.537 Z-3.175
G1 X28.53 Y-54.688
G2 X-54.688 Y-28.53 I-28.53 J54.688
G2 X-61.682 Y0 I54.688 J28.53
G2 X0 Y61.682 I61.682 J0
G2 X28.532 Y54.687 I0 J-61.682
G1 X28.554 Y54.675
G1 X28.746 Y54.575 Z-3.168
G1 X28.937 Y54.475 Z-3.145
G1 X29.127 Y54.376 Z-3.109
G1 X29.314 Y54.279 Z-3.057
G1 X29.497 Y54.183 Z-2.992
G1 X29.676 Y54.09 Z-2.912
G1 X29.849 Y54 Z-2.819
G1 X30.017 Y53.912 Z-2.713
G1 X30.178 Y53.828 Z-2.594
G1 X30.331 Y53.748 Z-2.463
G1 X30.476 Y53.673 Z-2.32
G1 X30.611 Y53.602 Z-2.167
G1 X30.738 Y53.536 Z-2.004
G1 X30.854 Y53.475 Z-1.831
G1 X30.959 Y53.42 Z-1.65
G1 X31.054 Y53.371 Z-1.461
G1 X31.136 Y53.328 Z-1.265
G1 X31.207 Y53.291 Z-1.063
G1 X31.265 Y53.261 Z-0.857
G1 X31.31 Y53.237 Z-0.646
G1 X31.343 Y53.22 Z-0.432
G1 X31.363 Y53.21 Z-0.217
G1 X31.369 Y53.207 Z0
G0 Z6
G0 X40.613 Y-52.17
G1 Z-0.317 F600.
G1 X40.607 Y-52.175 Z-0.531 F800.
G1 X40.59 Y-52.192 Z-0.743
G1 X40.561 Y-52.219 Z-0.953
G1 X40.52 Y-52.257 Z-1.16
G1 X40.469 Y-52.305 Z-1.361
G1 X40.407 Y-52.364 Z-1.557
G1 X40.334 Y-52.433 Z-1.746
G1 X40.252 Y-52.511 Z-1.927
G1 X40.159 Y-52.598 Z-2.099
G1 X40.058 Y-52.693 Z-2.261
G1 X39.948 Y-52.797 Z-2.412
G1 X39.83 Y-52.908 Z-2.552
G1 X39.705 Y-53.026 Z-2.678
G1 X39.574 Y-53.151 Z-2.792
G1 X39.437 Y-53.28 Z-2.892
G1 X39.294 Y-53.415 Z-2.977
G1 X39.147 Y-53.553 Z-3.048
G1 X38.997 Y-53.695 Z-3.103
G1 X38.845 Y-53.839 Z-3.143
G1 X38.69 Y-53.985 Z-3.167
G1 X38.535 Y-54.132 Z-3.175
G1 X38.529 Y-54.137
G2 X38.141 Y-54.449 I-2.18 J2.309
G1 X37.513 Y-54.879
G2 X-54.879 Y-37.513 I-37.513 J54.879
G2 X-66.475 Y0 I54.879 J37.513
G2 X0 Y66.475 I66.475 J0
G2 X37.513 Y54.879 I0 J-66.475
G1 X38.145 Y54.447
G2 X38.533 Y54.134 I-1.792 J-2.621
G1 X38.551 Y54.117
G1 X38.709 Y53.968 Z-3.168
G1 X38.866 Y53.82 Z-3.145
G1 X39.021 Y53.674 Z-3.109
G1 X39.174 Y53.529 Z-3.057
G1 X39.325 Y53.387 Z-2.992
G1 X39.471 Y53.249 Z-2.912
G1 X39.614 Y53.114 Z-2.819
G1 X39.751 Y52.985 Z-2.713
G1 X39.883 Y52.86 Z-2.594
G1 X40.008 Y52.742 Z-2.463
G1 X40.127 Y52.629 Z-2.32
G1 X40.239 Y52.524 Z-2.167
G1 X40.342 Y52.426 Z-2.004
G1 X40.438 Y52.336 Z-1.831
G1 X40.524 Y52.255 Z-1.65
G1 X40.601 Y52.182 Z-1.461
G1 X40.669 Y52.118 Z-1.265
G1 X40.727 Y52.063 Z-1.063
G1 X40.774 Y52.018 Z-0.857
G1 X40.812 Y51.983 Z-0.646
G1 X40.839 Y51.958 Z-0.432
G1 X40.855 Y51.942 Z-0.217
G1 X40.86 Y51.937 Z0
G0 Z8

(BORE2)
G0 X0.398 Y65.555
G0 Z8
G0 Z-1.175
G1 Z-2.54 F200.
G1 Y65.547 Z-2.639
G1 Y65.524 Z-2.736
G1 Y65.486 Z-2.828
G1 Y65.434 Z-2.913
G1 Y65.369 Z-2.989
G1 Y65.293 Z-3.054
G1 Y65.208 Z-3.106
G1 Y65.116 Z-3.144
G1 Y65.019 Z-3.167
G1 Y64.92 Z-3.175
G1 Y64.603
G2 X0 Y64.205 I-0.398 J0
G1 X-0.112 Y64.213 Z-3.198
G1 X-0.223 Y64.237 Z-3.22
G1 X-0.328 Y64.276 Z-3.243
G1 X-0.427 Y64.33 Z-3.265
G1 X-0.518 Y64.397 Z-3.288
G1 X-0.598 Y64.476 Z-3.31
G1 X-0.666 Y64.566 Z-3.333
G1 X-0.721 Y64.664 Z-3.356
G1 X-0.761 Y64.769 Z-3.378
G1 X-0.786 Y64.879 Z-3.401
G1 X-0.795 Y64.992 Z-3.423
G1 X-0.788 Y65.104 Z-3.446
G1 X-0.766 Y65.214 Z-3.468
G1 X-0.728 Y65.32 Z-3.491
G1 X-0.675 Y65.42 Z-3.514
G1 X-0.609 Y65.511 Z-3.536
G1 X-0.53 Y65.592 Z-3.559
G1 X-0.441 Y65.661 Z-3.581
G1 X-0.343 Y65.717 Z-3.604
G1 X-0.239 Y65.758 Z-3.626
G1 X-0.129 Y65.784 Z-3.649
G1 X-0.017 Y65.795 Z-3.672
G1 X0.096 Y65.789 Z-3.694
G1 X0.206 Y65.768 Z-3.717
G1 X0.313 Y65.731 Z-3.739
G1 X0.413 Y65.679 Z-3.762
G1 X0.505 Y65.614 Z-3.784
G1 X0.587 Y65.537 Z-3.807
G1 X0.656 Y65.448 Z-3.83
G1 X0.713 Y65.351 Z-3.852
G1 X0.756 Y65.247 Z-3.875
G1 X0.783 Y65.137 Z-3.897
G1 X0.795 Y65.025 Z-3.92
G1 X0.79 Y64.913 Z-3.942
G1 X0.77 Y64.802 Z-3.965
G1 X0.734 Y64.695 Z-3.988
G1 X0.684 Y64.594 Z-4.01
G1 X0.62 Y64.502 Z-4.033
G1 X0.543 Y64.419 Z-4.055
G1 X0.455 Y64.348 Z-4.078
G1 X0.359 Y64.291 Z-4.101
G1 X0.255 Y64.247 Z-4.123
G1 X0.146 Y64.218 Z-4.146
G1 X0.034 Y64.206 Z-4.168
G1 X-0.079 Y64.209 Z-4.191
G1 X-0.19 Y64.228 Z-4.213
G1 X-0.297 Y64.263 Z-4.236
G1 X-0.398 Y64.312 Z-4.259
G1 X-0.492 Y64.375 Z-4.281
G1 X-0.575 Y64.451 Z-4.304
G1 X-0.647 Y64.538 Z-4.326
G1 X-0.706 Y64.634 Z-4.349
G1 X-0.75 Y64.737 Z-4.371
G1 X-0.78 Y64.846 Z-4.394
G1 X-0.794 Y64.958 Z-4.417
G1 X-0.792 Y65.07 Z-4.439
G1 X-0.774 Y65.182 Z-4.462
G1 X-0.741 Y65.289 Z-4.484
G1 X-0.692 Y65.391 Z-4.507
G1 X-0.63 Y65.485 Z-4.529
G1 X-0.555 Y65.569 Z-4.552
G1 X-0.469 Y65.642 Z-4.575
G1 X-0.374 Y65.702 Z-4.597
G1 X-0.271 Y65.747 Z-4.62
G1 X-0.162 Y65.778 Z-4.642
G1 X-0.051 Y65.793 Z-4.665
G1 X0.062 Z-4.687
G1 X0.173 Y65.776 Z-4.71
G1 X0.281 Y65.744 Z-4.733
G1 X0.384 Y65.696 Z-4.755
G1 X0.478 Y65.635 Z-4.778
G1 X0.563 Y65.561 Z-4.8
G1 X0.637 Y65.476 Z-4.823
G1 X0.698 Y65.381 Z-4.845
G1 X0.745 Y65.279 Z-4.868
G1 X0.776 Y65.171 Z-4.891
G1 X0.793 Y65.059 Z-4.913
G1 Y64.946 Z-4.936
G1 X0.778 Y64.835 Z-4.958
G1 X0.747 Y64.727 Z-4.981
G1 X0.7 Y64.624 Z-5.003
G1 X0.64 Y64.529 Z-5.026
G1 X0.567 Y64.443 Z-5.049
G1 X0.483 Y64.368 Z-5.071
G1 X0.389 Y64.306 Z-5.094
G1 X0.287 Y64.258 Z-5.116
G1 X0.179 Y64.225 Z-5.139
G1 X0.068 Y64.208 Z-5.161
G1 X-0.045 Y64.206 Z-5.184
G1 X-0.157 Y64.221 Z-5.207
G1 X-0.265 Y64.251 Z-5.229
G1 X-0.369 Y64.296 Z-5.252
G1 X-0.465 Y64.355 Z-5.274
G1 X-0.551 Y64.427 Z-5.297
G1 X-0.627 Y64.511 Z-5.319
G1 X-0.689 Y64.604 Z-5.342
G1 X-0.738 Y64.706 Z-5.365
G1 X-0.773 Y64.813 Z-5.387
G1 X-0.791 Y64.924 Z-5.41
G1 X-0.794 Y65.037 Z-5.432
G1 X-0.781 Y65.149 Z-5.455
G1 X-0.752 Y65.257 Z-5.477
G1 X-0.708 Y65.361 Z-5.5
G1 X-0.65 Y65.458 Z-5.523
G1 X-0.579 Y65.545 Z-5.545
G1 X-0.496 Y65.621 Z-5.568
G1 X-0.403 Y65.685 Z-5.59
G1 X-0.302 Y65.735 Z-5.613
G1 X-0.195 Y65.771 Z-5.635
G1 X-0.084 Y65.791 Z-5.658
G1 X0.028 Y65.794 Z-5.681
G1 X0.14 Y65.783 Z-5.703
G1 X0.249 Y65.755 Z-5.726
G1 X0.354 Y65.712 Z-5.748
G1 X0.451 Y65.655 Z-5.771
G1 X0.539 Y65.585 Z-5.794
G1 X0.616 Y65.503 Z-5.816
G1 X0.681 Y65.41 Z-5.839
G1 X0.732 Y65.31 Z-5.861
G1 X0.769 Y65.203 Z-5.884
G1 X0.79 Y65.093 Z-5.906
G1 X0.795 Y64.98 Z-5.929
G1 X0.784 Y64.868 Z-5.952
G1 X0.757 Y64.759 Z-5.974
G1 X0.716 Y64.654 Z-5.997
G1 X0.66 Y64.556 Z-6.019
G1 X0.59 Y64.467 Z-6.042
G1 X0.509 Y64.389 Z-6.064
G1 X0.418 Y64.324 Z-6.087
G1 X0.318 Y64.271 Z-6.11
G1 X0.212 Y64.234 Z-6.132
G1 X0.101 Y64.211 Z-6.155
G1 X-0.011 Y64.205 Z-6.177
G1 X-0.124 Y64.215 Z-6.2
G1 X-0.233 Y64.24 Z-6.222
G1 X-0.338 Y64.281 Z-6.245
G1 X-0.437 Y64.336 Z-6.268
G1 X-0.526 Y64.404 Z-6.29
G1 X-0.605 Y64.484 Z-6.313
G1 X-0.672 Y64.575 Z-6.335
G1 X-0.725 Y64.674 Z-6.358
G1 X-0.764 Y64.78 Z-6.38
G1 X-0.787 Y64.89 Z-6.403
G1 X-0.795 Y65.003 Z-6.426
G1 X-0.787 Y65.115 Z-6.448
G1 X-0.762 Y65.225 Z-6.471
G1 X-0.723 Y65.331 Z-6.493
G1 X-0.669 Y65.43 Z-6.516
G1 X-0.601 Y65.52 Z-6.538
G1 X-0.522 Y65.6 Z-6.561
G1 X-0.432 Y65.667 Z-6.584
G1 X-0.333 Y65.722 Z-6.606
G1 X-0.228 Y65.762 Z-6.629
G1 X-0.118 Y65.786 Z-6.651
G1 X-0.006 Y65.795 Z-6.674
G1 X0.107 Y65.788 Z-6.696
G1 X0.217 Y65.765 Z-6.719
G1 X0.323 Y65.726 Z-6.742
G1 X0.422 Y65.673 Z-6.764
G1 X0.513 Y65.607 Z-6.787
G1 X0.594 Y65.528 Z-6.809
G1 X0.663 Y65.439 Z-6.832
G1 X0.718 Y65.341 Z-6.854
G1 X0.759 Y65.236 Z-6.877
G1 X0.785 Y65.126 Z-6.9
G1 X0.795 Y65.014 Z-6.922
G1 X0.789 Y64.902 Z-6.945
G1 X0.767 Y64.791 Z-6.967
G1 X0.73 Y64.685 Z-6.99
G1 X0.678 Y64.585 Z-7.012
G1 X0.612 Y64.493 Z-7.035
G1 X0.535 Y64.412 Z-7.058
G1 X0.446 Y64.342 Z-7.08
G1 X0.349 Y64.285 Z-7.103
G1 X0.244 Y64.243 Z-7.125
G1 X0.135 Y64.216 Z-7.148
G1 X0.023 Y64.205 Z-7.17
G1 X-0.09 Y64.21 Z-7.193
G1 X-0.201 Y64.231 Z-7.216
G1 X-0.307 Y64.267 Z-7.238
G1 X-0.408 Y64.318 Z-7.261
G1 X-0.5 Y64.382 Z-7.283
G1 X-0.583 Y64.459 Z-7.306
G1 X-0.653 Y64.547 Z-7.328
G1 X-0.711 Y64.644 Z-7.351
G1 X-0.754 Y64.748 Z-7.374
G1 X-0.782 Y64.857 Z-7.396
G1 X-0.794 Y64.969 Z-7.419
G1 X-0.791 Y65.082 Z-7.441
G1 X-0.771 Y65.193 Z-7.464
G1 X-0.736 Y65.3 Z-7.487
G1 X-0.687 Y65.401 Z-7.509
G1 X-0.623 Y65.494 Z-7.532
G1 X-0.547 Y65.577 Z-7.554
G1 X-0.46 Y65.648 Z-7.577
G1 X-0.364 Y65.707 Z-7.599
G1 X-0.26 Y65.751 Z-7.622
G1 X-0.151 Y65.78 Z-7.645
G1 X-0.039 Y65.794 Z-7.667
G1 X0.073 Y65.792 Z-7.69
G1 X0.184 Y65.773 Z-7.712
G1 X0.292 Y65.74 Z-7.735
G1 X0.393 Y65.691 Z-7.757
G1 X0.487 Y65.628 Z-7.78
G1 X0.571 Y65.553 Z-7.803
G1 X0.643 Y65.467 Z-7.825
G1 X0.703 Y65.371 Z-7.848
G1 X0.748 Y65.268 Z-7.87
G1 X0.779 Y65.16 Z-7.893
G1 X0.794 Y65.048 Z-7.915
G1 X0.792 Y64.935 Z-7.938
G1 X0.775 Y64.824 Z-7.961
G1 X0.743 Y64.716 Z-7.983
G1 X0.695 Y64.614 Z-8.006
G1 X0.633 Y64.52 Z-8.028
G1 X0.559 Y64.435 Z-8.051
G1 X0.474 Y64.362 Z-8.073
G1 X0.379 Y64.301 Z-8.096
G1 X0.276 Y64.254 Z-8.119
G1 X0.168 Y64.223 Z-8.141
G1 X0.056 Y64.207 Z-8.164
G1 X-0.056 Z-8.186
G1 X-0.168 Y64.223 Z-8.209
G1 X-0.276 Y64.254 Z-8.231
G1 X-0.379 Y64.301 Z-8.254
G1 X-0.474 Y64.362 Z-8.277
G1 X-0.559 Y64.435 Z-8.299
G1 X-0.633 Y64.52 Z-8.322
G1 X-0.695 Y64.614 Z-8.344
G1 X-0.743 Y64.716 Z-8.367
G1 X-0.775 Y64.824 Z-8.389
G1 X-0.792 Y64.935 Z-8.412
G1 X-0.794 Y65.048 Z-8.435
G1 X-0.779 Y65.16 Z-8.457
G1 X-0.748 Y65.268 Z-8.48
G1 X-0.703 Y65.371 Z-8.502
G1 X-0.643 Y65.467 Z-8.525
G1 X-0.571 Y65.553 Z-8.547
G1 X-0.487 Y65.628 Z-8.57
G1 X-0.393 Y65.691 Z-8.593
G1 X-0.292 Y65.74 Z-8.615
G1 X-0.184 Y65.773 Z-8.638
G1 X-0.073 Y65.792 Z-8.66
G1 X0.039 Y65.794 Z-8.683
G1 X0.151 Y65.78 Z-8.705
G1 X0.26 Y65.751 Z-8.728
G1 X0.364 Y65.707 Z-8.751
G1 X0.46 Y65.648 Z-8.773
G1 X0.547 Y65.577 Z-8.796
G1 X0.623 Y65.494 Z-8.818
G1 X0.687 Y65.401 Z-8.841
G1 X0.736 Y65.3 Z-8.863
G1 X0.771 Y65.193 Z-8.886
G1 X0.791 Y65.082 Z-8.909
G1 X0.794 Y64.969 Z-8.931
G1 X0.782 Y64.857 Z-8.954
G1 X0.754 Y64.748 Z-8.976
G1 X0.711 Y64.644 Z-8.999
G1 X0.653 Y64.547 Z-9.022
G1 X0.583 Y64.459 Z-9.044
G1 X0.5 Y64.382 Z-9.067
G1 X0.408 Y64.318 Z-9.089
G1 X0.307 Y64.267 Z-9.112
G1 X0.201 Y64.231 Z-9.134
G1 X0.09 Y64.21 Z-9.157
G1 X-0.023 Y64.205 Z-9.18
G1 X-0.135 Y64.216 Z-9.202
G1 X-0.244 Y64.243 Z-9.225
G1 X-0.349 Y64.285 Z-9.247
G1 X-0.446 Y64.342 Z-9.27
G1 X-0.535 Y64.412 Z-9.292
G1 X-0.612 Y64.493 Z-9.315
G1 X-0.678 Y64.585 Z-9.338
G1 X-0.73 Y64.685 Z-9.36
G1 X-0.767 Y64.791 Z-9.383
G1 X-0.789 Y64.902 Z-9.405
G1 X-0.795 Y65.014 Z-9.428
G1 X-0.785 Y65.126 Z-9.45
G1 X-0.759 Y65.236 Z-9.473
G1 X-0.718 Y65.341 Z-9.496
G1 X-0.663 Y65.439 Z-9.518
G1 X-0.594 Y65.528 Z-9.541
G1 X-0.513 Y65.607 Z-9.563
G1 X-0.422 Y65.673 Z-9.586
G1 X-0.323 Y65.726 Z-9.608
G1 X-0.217 Y65.765 Z-9.631
G1 X-0.107 Y65.788 Z-9.654
G1 X0.006 Y65.795 Z-9.676
G1 X0.118 Y65.786 Z-9.699
G1 X0.228 Y65.762 Z-9.721
G1 X0.333 Y65.722 Z-9.744
G1 X0.432 Y65.667 Z-9.766
G1 X0.522 Y65.6 Z-9.789
G1 X0.601 Y65.52 Z-9.812
G1 X0.669 Y65.43 Z-9.834
G1 X0.723 Y65.331 Z-9.857
G1 X0.762 Y65.225 Z-9.879
G1 X0.787 Y65.115 Z-9.902
G1 X0.795 Y65.003 Z-9.924
G1 X0.787 Y64.89 Z-9.947
G1 X0.764 Y64.78 Z-9.97
G1 X0.725 Y64.674 Z-9.992
G1 X0.672 Y64.575 Z-10.015
G1 X0.605 Y64.484 Z-10.037
G1 X0.526 Y64.404 Z-10.06
G1 X0.437 Y64.336 Z-10.082
G1 X0.338 Y64.281 Z-10.105
G1 X0.233 Y64.24 Z-10.128
G1 X0.124 Y64.215 Z-10.15
G1 X0.011 Y64.205 Z-10.173
G1 X-0.101 Y64.211 Z-10.195
G1 X-0.212 Y64.234 Z-10.218
G1 X-0.318 Y64.271 Z-10.24
G1 X-0.418 Y64.324 Z-10.263
G1 X-0.509 Y64.389 Z-10.286
G1 X-0.59 Y64.467 Z-10.308
G1 X-0.66 Y64.556 Z-10.331
G1 X-0.716 Y64.654 Z-10.353
G1 X-0.757 Y64.759 Z-10.376
G1 X-0.784 Y64.868 Z-10.398
G1 X-0.795 Y64.98 Z-10.421
G1 X-0.79 Y65.093 Z-10.444
G1 X-0.769 Y65.203 Z-10.466
G1 X-0.732 Y65.31 Z-10.489
G1 X-0.681 Y65.41 Z-10.511
G1 X-0.616 Y65.503 Z-10.534
G1 X-0.539 Y65.585 Z-10.556
G1 X-0.451 Y65.655 Z-10.579
G1 X-0.354 Y65.712 Z-10.602
G1 X-0.249 Y65.755 Z-10.624
G1 X-0.14 Y65.783 Z-10.647
G1 X-0.028 Y65.794 Z-10.669
G1 X0.084 Y65.791 Z-10.692
G1 X0.195 Y65.771 Z-10.715
G1 X0.302 Y65.735 Z-10.737
G1 X0.403 Y65.685 Z-10.76
G1 X0.496 Y65.621 Z-10.782
G1 X0.579 Y65.545 Z-10.805
G1 X0.65 Y65.458 Z-10.827
G1 X0.708 Y65.361 Z-10.85
G1 X0.752 Y65.257 Z-10.873
G1 X0.781 Y65.149 Z-10.895
G1 X0.794 Y65.037 Z-10.918
G1 X0.791 Y64.924 Z-10.94
G1 X0.773 Y64.813 Z-10.963
G1 X0.738 Y64.706 Z-10.985
G1 X0.689 Y64.604 Z-11.008
G1 X0.627 Y64.511 Z-11.031
G1 X0.551 Y64.427 Z-11.053
G1 X0.465 Y64.355 Z-11.076
G1 X0.369 Y64.296 Z-11.098
G1 X0.265 Y64.251 Z-11.121
G1 X0.157 Y64.221 Z-11.143
G1 X0.045 Y64.206 Z-11.166
G1 X-0.068 Y64.208 Z-11.189
G1 X-0.179 Y64.225 Z-11.211
G1 X-0.287 Y64.258 Z-11.234
G1 X-0.389 Y64.306 Z-11.256
G1 X-0.483 Y64.368 Z-11.279
G1 X-0.567 Y64.443 Z-11.301
G1 X-0.64 Y64.529 Z-11.324
G1 X-0.7 Y64.624 Z-11.347
G1 X-0.747 Y64.727 Z-11.369
G1 X-0.778 Y64.835 Z-11.392
G1 X-0.793 Y64.946 Z-11.414
G1 Y65.059 Z-11.437
G1 X-0.776 Y65.171 Z-11.459
G1 X-0.745 Y65.279 Z-11.482
G1 X-0.698 Y65.381 Z-11.505
G1 X-0.637 Y65.476 Z-11.527
G1 X-0.563 Y65.561 Z-11.55
G1 X-0.478 Y65.635 Z-11.572
G1 X-0.384 Y65.696 Z-11.595
G1 X-0.281 Y65.744 Z-11.617
G1 X-0.173 Y65.776 Z-11.64
G1 X-0.062 Y65.793 Z-11.663
G1 X0.051 Z-11.685
G1 X0.162 Y65.778 Z-11.708
G1 X0.271 Y65.747 Z-11.73
G1 X0.374 Y65.702 Z-11.753
G1 X0.469 Y65.642 Z-11.775
G1 X0.555 Y65.569 Z-11.798
G1 X0.63 Y65.485 Z-11.821
G1 X0.692 Y65.391 Z-11.843
G1 X0.741 Y65.289 Z-11.866
G1 X0.774 Y65.182 Z-11.888
G1 X0.792 Y65.07 Z-11.911
G1 X0.794 Y64.958 Z-11.933
G1 X0.78 Y64.846 Z-11.956
G1 X0.75 Y64.737 Z-11.979
G1 X0.706 Y64.634 Z-12.001
G1 X0.647 Y64.538 Z-12.024
G1 X0.575 Y64.451 Z-12.046
G1 X0.492 Y64.375 Z-12.069
G1 X0.398 Y64.312 Z-12.091
G1 X0.297 Y64.263 Z-12.114
G1 X0.19 Y64.228 Z-12.137
G1 X0.079 Y64.209 Z-12.159
G1 X-0.034 Y64.206 Z-12.182
G1 X-0.146 Y64.218 Z-12.204
G1 X-0.255 Y64.247 Z-12.227
G1 X-0.359 Y64.291 Z-12.249
G1 X-0.455 Y64.348 Z-12.272
G1 X-0.543 Y64.419 Z-12.295
G1 X-0.62 Y64.502 Z-12.317
G1 X-0.684 Y64.594 Z-12.34
G1 X-0.734 Y64.695 Z-12.362
G1 X-0.77 Y64.802 Z-12.385
G1 X-0.79 Y64.913 Z-12.408
G1 X-0.795 Y65.025 Z-12.43
G1 X-0.783 Y65.137 Z-12.453
G1 X-0.756 Y65.247 Z-12.475
G1 X-0.713 Y65.351 Z-12.498
G1 X-0.656 Y65.448 Z-12.52
G1 X-0.587 Y65.537 Z-12.543
G1 X-0.505 Y65.614 Z-12.566
G1 X-0.413 Y65.679 Z-12.588
G1 X-0.313 Y65.731 Z-12.611
G1 X-0.206 Y65.768 Z-12.633
G1 X-0.096 Y65.789 Z-12.656
G1 X0.017 Y65.795 Z-12.678
G1 X0.129 Y65.784 Z-12.701
G1 X0.239 Y65.758 Z-12.724
G1 X0.343 Y65.717 Z-12.746
G1 X0.441 Y65.661 Z-12.769
G1 X0.53 Y65.592 Z-12.791
G1 X0.609 Y65.511 Z-12.814
G1 X0.675 Y65.42 Z-12.836
G1 X0.728 Y65.32 Z-12.859
G1 X0.766 Y65.214 Z-12.882
G1 X0.788 Y65.104 Z-12.904
G1 X0.795 Y64.992 Z-12.927
G1 X0.786 Y64.879 Z-12.949
G1 X0.761 Y64.769 Z-12.972
G1 X0.721 Y64.664 Z-12.994
G1 X0.666 Y64.566 Z-13.017
G1 X0.598 Y64.476 Z-13.04
G1 X0.518 Y64.397 Z-13.062
G1 X0.427 Y64.33 Z-13.085
G1 X0.328 Y64.276 Z-13.107
G1 X0.223 Y64.237 Z-13.13
G1 X0.112 Y64.213 Z-13.152
G1 X0 Y64.205 Z-13.175
G2 X-0.795 Y65 I0 J0.795
G2 X0 Y65.795 I0.795 J0
G2 X0.795 Y65 I0 J-0.795
G2 X0 Y64.205 I-0.795 J0
G2 X-0.398 Y64.603 I0 J0.397
G1 Y64.92
G1 Y65.019 Z-13.167
G1 Y65.116 Z-13.144
G1 Y65.208 Z-13.106
G1 Y65.293 Z-13.054
G1 Y65.369 Z-12.989
G1 Y65.434 Z-12.913
G1 Y65.486 Z-12.828
G1 Y65.524 Z-12.736
G1 Y65.547 Z-12.639
G1 Y65.555 Z-12.54
G0 Z6
G0 X-64.802 Y0.12
G0 Z-1.81
G1 Z-3.175 F200.
G1 Y-0.198
G2 X-65 Y-0.395 I-0.198 J0
G1 X-65.079 Y-0.387 Z-3.207
G1 X-65.154 Y-0.364 Z-3.239
G1 X-65.224 Y-0.326 Z-3.271
G1 X-65.284 Y-0.274 Z-3.303
G1 X-65.333 Y-0.212 Z-3.335
G1 X-65.369 Y-0.141 Z-3.367
G1 X-65.39 Y-0.065 Z-3.399
G1 X-65.395 Y0.014 Z-3.431
G1 X-65.384 Y0.092 Z-3.463
G1 X-65.358 Y0.167 Z-3.494
G1 X-65.317 Y0.235 Z-3.526
G1 X-65.264 Y0.294 Z-3.558
G1 X-65.2 Y0.34 Z-3.59
G1 X-65.128 Y0.374 Z-3.622
G1 X-65.051 Y0.392 Z-3.654
G1 X-64.972 Y0.394 Z-3.686
G1 X-64.894 Y0.381 Z-3.718
G1 X-64.82 Y0.352 Z-3.75
G1 X-64.754 Y0.309 Z-3.782
G1 X-64.697 Y0.254 Z-3.814
G1 X-64.653 Y0.188 Z-3.846
G1 X-64.622 Y0.115 Z-3.878
G1 X-64.607 Y0.038 Z-3.91
G1 Y-0.042 Z-3.942
G1 X-64.623 Y-0.119 Z-3.974
G1 X-64.655 Y-0.192 Z-4.006
G1 X-64.7 Y-0.257 Z-4.038
G1 X-64.757 Y-0.311 Z-4.07
G1 X-64.824 Y-0.354 Z-4.102
G1 X-64.898 Y-0.382 Z-4.133
G1 X-64.976 Y-0.394 Z-4.165
G1 X-65.055 Y-0.391 Z-4.197
G1 X-65.132 Y-0.372 Z-4.229
G1 X-65.204 Y-0.338 Z-4.261
G1 X-65.267 Y-0.291 Z-4.293
G1 X-65.32 Y-0.232 Z-4.325
G1 X-65.36 Y-0.163 Z-4.357
G1 X-65.385 Y-0.088 Z-4.389
G1 X-65.395 Y-0.01 Z-4.421
G1 X-65.389 Y0.069 Z-4.453
G1 X-65.367 Y0.145 Z-4.485
G1 X-65.331 Y0.216 Z-4.517
G1 X-65.281 Y0.277 Z-4.549
G1 X-65.22 Y0.328 Z-4.581
G1 X-65.151 Y0.365 Z-4.613
G1 X-65.075 Y0.388 Z-4.645
G1 X-64.996 Y0.395 Z-4.677
G1 X-64.917 Y0.386 Z-4.709
G1 X-64.842 Y0.362 Z-4.74
G1 X-64.773 Y0.323 Z-4.772
G1 X-64.713 Y0.271 Z-4.804
G1 X-64.665 Y0.209 Z-4.836
G1 X-64.63 Y0.138 Z-4.868
G1 X-64.61 Y0.061 Z-4.9
G1 X-64.605 Y-0.018 Z-4.932
G1 X-64.617 Y-0.096 Z-4.964
G1 X-64.644 Y-0.171 Z-4.996
G1 X-64.685 Y-0.238 Z-5.028
G1 X-64.739 Y-0.296 Z-5.06
G1 X-64.803 Y-0.342 Z-5.092
G1 X-64.875 Y-0.375 Z-5.124
G1 X-64.953 Y-0.392 Z-5.156
G1 X-65.032 Y-0.394 Z-5.188
G1 X-65.11 Y-0.38 Z-5.22
G1 X-65.183 Y-0.35 Z-5.252
G1 X-65.249 Y-0.307 Z-5.284
G1 X-65.305 Y-0.251 Z-5.316
G1 X-65.349 Y-0.185 Z-5.348
G1 X-65.379 Y-0.111 Z-5.379
G1 X-65.394 Y-0.034 Z-5.411
G1 X-65.392 Y0.045 Z-5.443
G1 X-65.375 Y0.123 Z-5.475
G1 X-65.343 Y0.195 Z-5.507
G1 X-65.298 Y0.26 Z-5.539
G1 X-65.24 Y0.314 Z-5.571
G1 X-65.172 Y0.355 Z-5.603
G1 X-65.098 Y0.383 Z-5.635
G1 X-65.02 Y0.395 Z-5.667
G1 X-64.941 Y0.391 Z-5.699
G1 X-64.864 Y0.371 Z-5.731
G1 X-64.793 Y0.336 Z-5.763
G1 X-64.73 Y0.288 Z-5.795
G1 X-64.678 Y0.229 Z-5.827
G1 X-64.639 Y0.16 Z-5.859
G1 X-64.614 Y0.085 Z-5.891
G1 X-64.605 Y0.006 Z-5.923
G1 X-64.612 Y-0.073 Z-5.955
G1 X-64.634 Y-0.149 Z-5.987
G1 X-64.671 Y-0.219 Z-6.018
G1 X-64.721 Y-0.28 Z-6.05
G1 X-64.783 Y-0.33 Z-6.082
G1 X-64.853 Y-0.367 Z-6.114
G1 X-64.929 Y-0.389 Z-6.146
G1 X-65.008 Y-0.395 Z-6.178
G1 X-65.087 Y-0.385 Z-6.21
G1 X-65.162 Y-0.36 Z-6.242
G1 X-65.23 Y-0.321 Z-6.274
G1 X-65.29 Y-0.269 Z-6.306
G1 X-65.337 Y-0.205 Z-6.338
G1 X-65.372 Y-0.134 Z-6.37
G1 X-65.391 Y-0.057 Z-6.402
G1 X-65.394 Y0.022 Z-6.434
G1 X-65.382 Y0.1 Z-6.466
G1 X-65.355 Y0.174 Z-6.498
G1 X-65.313 Y0.241 Z-6.53
G1 X-65.258 Y0.299 Z-6.562
G1 X-65.193 Y0.344 Z-6.594
G1 X-65.121 Y0.376 Z-6.625
G1 X-65.044 Y0.393 Z-6.657
G1 X-64.964 Z-6.689
G1 X-64.887 Y0.378 Z-6.721
G1 X-64.813 Y0.348 Z-6.753
G1 X-64.748 Y0.304 Z-6.785
G1 X-64.692 Y0.248 Z-6.817
G1 X-64.649 Y0.181 Z-6.849
G1 X-64.62 Y0.108 Z-6.881
G1 X-64.606 Y0.03 Z-6.913
G1 X-64.608 Y-0.049 Z-6.945
G1 X-64.626 Y-0.127 Z-6.977
G1 X-64.659 Y-0.199 Z-7.009
G1 X-64.705 Y-0.263 Z-7.041
G1 X-64.763 Y-0.316 Z-7.073
G1 X-64.831 Y-0.357 Z-7.105
G1 X-64.906 Y-0.384 Z-7.137
G1 X-64.984 Y-0.395 Z-7.169
G1 X-65.063 Y-0.39 Z-7.201
G1 X-65.14 Y-0.369 Z-7.233
G1 X-65.211 Y-0.334 Z-7.264
G1 X-65.273 Y-0.286 Z-7.296
G1 X-65.324 Y-0.225 Z-7.328
G1 X-65.363 Y-0.156 Z-7.36
G1 X-65.387 Y-0.081 Z-7.392
G1 X-65.395 Y-0.002 Z-7.424
G1 X-65.387 Y0.077 Z-7.456
G1 X-65.364 Y0.153 Z-7.488
G1 X-65.327 Y0.222 Z-7.52
G1 X-65.276 Y0.283 Z-7.552
G1 X-65.214 Y0.332 Z-7.584
G1 X-65.143 Y0.368 Z-7.616
G1 X-65.067 Y0.389 Z-7.648
G1 X-64.988 Y0.395 Z-7.68
G1 X-64.91 Y0.385 Z-7.712
G1 X-64.835 Y0.359 Z-7.744
G1 X-64.767 Y0.319 Z-7.776
G1 X-64.708 Y0.266 Z-7.808
G1 X-64.661 Y0.202 Z-7.84
G1 X-64.627 Y0.13 Z-7.871
G1 X-64.609 Y0.053 Z-7.903
G1 X-64.606 Y-0.026 Z-7.935
G1 X-64.619 Y-0.104 Z-7.967
G1 X-64.647 Y-0.178 Z-7.999
G1 X-64.69 Y-0.245 Z-8.031
G1 X-64.745 Y-0.301 Z-8.063
G1 X-64.81 Y-0.346 Z-8.095
G1 X-64.883 Y-0.377 Z-8.127
G1 X-64.96 Y-0.393 Z-8.159
G1 X-65.04 Z-8.191
G1 X-65.117 Y-0.377 Z-8.223
G1 X-65.19 Y-0.346 Z-8.255
G1 X-65.255 Y-0.301 Z-8.287
G1 X-65.31 Y-0.245 Z-8.319
G1 X-65.353 Y-0.178 Z-8.351
G1 X-65.381 Y-0.104 Z-8.383
G1 X-65.394 Y-0.026 Z-8.415
G1 X-65.391 Y0.053 Z-8.447
G1 X-65.373 Y0.13 Z-8.479
G1 X-65.339 Y0.202 Z-8.51
G1 X-65.292 Y0.266 Z-8.542
G1 X-65.233 Y0.319 Z-8.574
G1 X-65.165 Y0.359 Z-8.606
G1 X-65.09 Y0.385 Z-8.638
G1 X-65.012 Y0.395 Z-8.67
G1 X-64.933 Y0.389 Z-8.702
G1 X-64.857 Y0.368 Z-8.734
G1 X-64.786 Y0.332 Z-8.766
G1 X-64.724 Y0.283 Z-8.798
G1 X-64.673 Y0.222 Z-8.83
G1 X-64.636 Y0.153 Z-8.862
G1 X-64.613 Y0.077 Z-8.894
G1 X-64.605 Y-0.002 Z-8.926
G1 X-64.613 Y-0.081 Z-8.958
G1 X-64.637 Y-0.156 Z-8.99
G1 X-64.676 Y-0.225 Z-9.022
G1 X-64.727 Y-0.286 Z-9.054
G1 X-64.789 Y-0.334 Z-9.086
G1 X-64.86 Y-0.369 Z-9.117
G1 X-64.937 Y-0.39 Z-9.149
G1 X-65.016 Y-0.395 Z-9.181
G1 X-65.094 Y-0.384 Z-9.213
G1 X-65.169 Y-0.357 Z-9.245
G1 X-65.237 Y-0.316 Z-9.277
G1 X-65.295 Y-0.263 Z-9.309
G1 X-65.341 Y-0.199 Z-9.341
G1 X-65.374 Y-0.127 Z-9.373
G1 X-65.392 Y-0.049 Z-9.405
G1 X-65.394 Y0.03 Z-9.437
G1 X-65.38 Y0.108 Z-9.469
G1 X-65.351 Y0.181 Z-9.501
G1 X-65.308 Y0.248 Z-9.533
G1 X-65.252 Y0.304 Z-9.565
G1 X-65.187 Y0.348 Z-9.597
G1 X-65.113 Y0.378 Z-9.629
G1 X-65.036 Y0.393 Z-9.661
G1 X-64.956 Z-9.693
G1 X-64.879 Y0.376 Z-9.725
G1 X-64.807 Y0.344 Z-9.756
G1 X-64.742 Y0.299 Z-9.788
G1 X-64.687 Y0.241 Z-9.82
G1 X-64.645 Y0.174 Z-9.852
G1 X-64.618 Y0.1 Z-9.884
G1 X-64.606 Y0.022 Z-9.916
G1 X-64.609 Y-0.057 Z-9.948
G1 X-64.628 Y-0.134 Z-9.98
G1 X-64.663 Y-0.205 Z-10.012
G1 X-64.71 Y-0.269 Z-10.044
G1 X-64.77 Y-0.321 Z-10.076
G1 X-64.838 Y-0.36 Z-10.108
G1 X-64.913 Y-0.385 Z-10.14
G1 X-64.992 Y-0.395 Z-10.172
G1 X-65.071 Y-0.389 Z-10.204
G1 X-65.147 Y-0.367 Z-10.236
G1 X-65.217 Y-0.33 Z-10.268
G1 X-65.279 Y-0.28 Z-10.3
G1 X-65.329 Y-0.219 Z-10.332
G1 X-65.366 Y-0.149 Z-10.363
G1 X-65.388 Y-0.073 Z-10.395
G1 X-65.395 Y0.006 Z-10.427
G1 X-65.386 Y0.085 Z-10.459
G1 X-65.361 Y0.16 Z-10.491
G1 X-65.322 Y0.229 Z-10.523
G1 X-65.27 Y0.288 Z-10.555
G1 X-65.207 Y0.336 Z-10.587
G1 X-65.136 Y0.371 Z-10.619
G1 X-65.059 Y0.391 Z-10.651
G1 X-64.98 Y0.395 Z-10.683
G1 X-64.902 Y0.383 Z-10.715
G1 X-64.828 Y0.355 Z-10.747
G1 X-64.76 Y0.314 Z-10.779
G1 X-64.702 Y0.26 Z-10.811
G1 X-64.657 Y0.195 Z-10.843
G1 X-64.625 Y0.123 Z-10.875
G1 X-64.608 Y0.045 Z-10.907
G1 X-64.606 Y-0.034 Z-10.939
G1 X-64.621 Y-0.111 Z-10.971
G1 X-64.651 Y-0.185 Z-11.002
G1 X-64.695 Y-0.251 Z-11.034
G1 X-64.751 Y-0.307 Z-11.066
G1 X-64.817 Y-0.35 Z-11.098
G1 X-64.89 Y-0.38 Z-11.13
G1 X-64.968 Y-0.394 Z-11.162
G1 X-65.047 Y-0.392 Z-11.194
G1 X-65.125 Y-0.375 Z-11.226
G1 X-65.197 Y-0.342 Z-11.258
G1 X-65.261 Y-0.296 Z-11.29
G1 X-65.315 Y-0.238 Z-11.322
G1 X-65.356 Y-0.171 Z-11.354
G1 X-65.383 Y-0.096 Z-11.386
G1 X-65.395 Y-0.018 Z-11.418
G1 X-65.39 Y0.061 Z-11.45
G1 X-65.37 Y0.138 Z-11.482
G1 X-65.335 Y0.209 Z-11.514
G1 X-65.287 Y0.271 Z-11.546
G1 X-65.227 Y0.323 Z-11.578
G1 X-65.158 Y0.362 Z-11.61
G1 X-65.083 Y0.386 Z-11.641
G1 X-65.004 Y0.395 Z-11.673
G1 X-64.925 Y0.388 Z-11.705
G1 X-64.849 Y0.365 Z-11.737
G1 X-64.78 Y0.328 Z-11.769
G1 X-64.719 Y0.277 Z-11.801
G1 X-64.669 Y0.216 Z-11.833
G1 X-64.633 Y0.145 Z-11.865
G1 X-64.611 Y0.069 Z-11.897
G1 X-64.605 Y-0.01 Z-11.929
G1 X-64.615 Y-0.088 Z-11.961
G1 X-64.64 Y-0.163 Z-11.993
G1 X-64.68 Y-0.232 Z-12.025
G1 X-64.733 Y-0.291 Z-12.057
G1 X-64.796 Y-0.338 Z-12.089
G1 X-64.868 Y-0.372 Z-12.121
G1 X-64.945 Y-0.391 Z-12.153
G1 X-65.024 Y-0.394 Z-12.185
G1 X-65.102 Y-0.382 Z-12.217
G1 X-65.176 Y-0.354 Z-12.248
G1 X-65.243 Y-0.311 Z-12.28
G1 X-65.3 Y-0.257 Z-12.312
G1 X-65.345 Y-0.192 Z-12.344
G1 X-65.377 Y-0.119 Z-12.376
G1 X-65.393 Y-0.042 Z-12.408
G1 Y0.038 Z-12.44
G1 X-65.378 Y0.115 Z-12.472
G1 X-65.347 Y0.188 Z-12.504
G1 X-65.303 Y0.254 Z-12.536
G1 X-65.246 Y0.309 Z-12.568
G1 X-65.18 Y0.352 Z-12.6
G1 X-65.106 Y0.381 Z-12.632
G1 X-65.028 Y0.394 Z-12.664
G1 X-64.949 Y0.392 Z-12.696
G1 X-64.872 Y0.374 Z-12.728
G1 X-64.8 Y0.34 Z-12.76
G1 X-64.736 Y0.294 Z-12.792
G1 X-64.683 Y0.235 Z-12.824
G1 X-64.642 Y0.167 Z-12.856
G1 X-64.616 Y0.092 Z-12.887
G1 X-64.605 Y0.014 Z-12.919
G1 X-64.61 Y-0.065 Z-12.951
G1 X-64.631 Y-0.141 Z-12.983
G1 X-64.667 Y-0.212 Z-13.015
G1 X-64.716 Y-0.274 Z-13.047
G1 X-64.776 Y-0.326 Z-13.079
G1 X-64.846 Y-0.364 Z-13.111
G1 X-64.921 Y-0.387 Z-13.143
G1 X-65 Y-0.395 Z-13.175
G2 X-65.395 Y0 I0 J0.395
G2 X-65 Y0.395 I0.395 J0
G2 X-64.605 Y0 I0 J-0.395
G2 X-65 Y-0.395 I-0.395 J0
G2 X-65.198 Y-0.198 I0 J0.198
G1 Y0.12
G0 Z6
G0 X0.198 Y-64.88
G0 Z-1.81
G1 Z-3.175 F200.
G1 Y-65.198
G2 X0 Y-65.395 I-0.198 J0
G1 X-0.079 Y-65.387 Z-3.207
G1 X-0.154 Y-65.364 Z-3.239
G1 X-0.224 Y-65.326 Z-3.271
G1 X-0.284 Y-65.274 Z-3.303
G1 X-0.333 Y-65.212 Z-3.335
G1 X-0.369 Y-65.141 Z-3.367
G1 X-0.39 Y-65.065 Z-3.399
G1 X-0.395 Y-64.986 Z-3.431
G1 X-0.384 Y-64.908 Z-3.463
G1 X-0.358 Y-64.833 Z-3.494
G1 X-0.317 Y-64.765 Z-3.526
G1 X-0.264 Y-64.706 Z-3.558
G1 X-0.2 Y-64.66 Z-3.59
G1 X-0.128 Y-64.626 Z-3.622
G1 X-0.051 Y-64.608 Z-3.654
G1 X0.028 Y-64.606 Z-3.686
G1 X0.106 Y-64.619 Z-3.718
G1 X0.18 Y-64.648 Z-3.75
G1 X0.246 Y-64.691 Z-3.782
G1 X0.303 Y-64.746 Z-3.814
G1 X0.347 Y-64.812 Z-3.846
G1 X0.378 Y-64.885 Z-3.878
G1 X0.393 Y-64.962 Z-3.91
G1 Y-65.042 Z-3.942
G1 X0.377 Y-65.119 Z-3.974
G1 X0.345 Y-65.192 Z-4.006
G1 X0.3 Y-65.257 Z-4.038
G1 X0.243 Y-65.311 Z-4.07
G1 X0.176 Y-65.354 Z-4.102
G1 X0.102 Y-65.382 Z-4.133
G1 X0.024 Y-65.394 Z-4.165
G1 X-0.055 Y-65.391 Z-4.197
G1 X-0.132 Y-65.372 Z-4.229
G1 X-0.204 Y-65.338 Z-4.261
G1 X-0.267 Y-65.291 Z-4.293
G1 X-0.32 Y-65.232 Z-4.325
G1 X-0.36 Y-65.163 Z-4.357
G1 X-0.385 Y-65.088 Z-4.389
G1 X-0.395 Y-65.01 Z-4.421
G1 X-0.389 Y-64.931 Z-4.453
G1 X-0.367 Y-64.855 Z-4.485
G1 X-0.331 Y-64.784 Z-4.517
G1 X-0.281 Y-64.723 Z-4.549
G1 X-0.22 Y-64.672 Z-4.581
G1 X-0.151 Y-64.635 Z-4.613
G1 X-0.075 Y-64.612 Z-4.645
G1 X0.004 Y-64.605 Z-4.677
G1 X0.083 Y-64.614 Z-4.709
G1 X0.158 Y-64.638 Z-4.74
G1 X0.227 Y-64.677 Z-4.772
G1 X0.287 Y-64.729 Z-4.804
G1 X0.335 Y-64.791 Z-4.836
G1 X0.37 Y-64.862 Z-4.868
G1 X0.39 Y-64.939 Z-4.9
G1 X0.395 Y-65.018 Z-4.932
G1 X0.383 Y-65.096 Z-4.964
G1 X0.356 Y-65.171 Z-4.996
G1 X0.315 Y-65.238 Z-5.028
G1 X0.261 Y-65.296 Z-5.06
G1 X0.197 Y-65.342 Z-5.092
G1 X0.125 Y-65.375 Z-5.124
G1 X0.047 Y-65.392 Z-5.156
G1 X-0.032 Y-65.394 Z-5.188
G1 X-0.11 Y-65.38 Z-5.22
G1 X-0.183 Y-65.35 Z-5.252
G1 X-0.249 Y-65.307 Z-5.284
G1 X-0.305 Y-65.251 Z-5.316
G1 X-0.349 Y-65.185 Z-5.348
G1 X-0.379 Y-65.111 Z-5.379
G1 X-0.394 Y-65.034 Z-5.411
G1 X-0.392 Y-64.955 Z-5.443
G1 X-0.375 Y-64.877 Z-5.475
G1 X-0.343 Y-64.805 Z-5.507
G1 X-0.298 Y-64.74 Z-5.539
G1 X-0.24 Y-64.686 Z-5.571
G1 X-0.172 Y-64.645 Z-5.603
G1 X-0.098 Y-64.617 Z-5.635
G1 X-0.02 Y-64.606 Z-5.667
G1 X0.059 Y-64.609 Z-5.699
G1 X0.136 Y-64.629 Z-5.731
G1 X0.207 Y-64.664 Z-5.763
G1 X0.27 Y-64.712 Z-5.795
G1 X0.322 Y-64.771 Z-5.827
G1 X0.361 Y-64.84 Z-5.859
G1 X0.386 Y-64.915 Z-5.891
G1 X0.395 Y-64.994 Z-5.923
G1 X0.388 Y-65.073 Z-5.955
G1 X0.366 Y-65.149 Z-5.987
G1 X0.329 Y-65.219 Z-6.018
G1 X0.279 Y-65.28 Z-6.05
G1 X0.217 Y-65.33 Z-6.082
G1 X0.147 Y-65.367 Z-6.114
G1 X0.071 Y-65.389 Z-6.146
G1 X-0.008 Y-65.395 Z-6.178
G1 X-0.087 Y-65.385 Z-6.21
G1 X-0.162 Y-65.36 Z-6.242
G1 X-0.23 Y-65.321 Z-6.274
G1 X-0.29 Y-65.269 Z-6.306
G1 X-0.337 Y-65.205 Z-6.338
G1 X-0.372 Y-65.134 Z-6.37
G1 X-0.391 Y-65.057 Z-6.402
G1 X-0.394 Y-64.978 Z-6.434
G1 X-0.382 Y-64.9 Z-6.466
G1 X-0.355 Y-64.826 Z-6.498
G1 X-0.313 Y-64.759 Z-6.53
G1 X-0.258 Y-64.701 Z-6.562
G1 X-0.193 Y-64.656 Z-6.594
G1 X-0.121 Y-64.624 Z-6.625
G1 X-0.044 Y-64.607 Z-6.657
G1 X0.036 Z-6.689
G1 X0.113 Y-64.622 Z-6.721
G1 X0.187 Y-64.652 Z-6.753
G1 X0.252 Y-64.696 Z-6.785
G1 X0.308 Y-64.752 Z-6.817
G1 X0.351 Y-64.819 Z-6.849
G1 X0.38 Y-64.892 Z-6.881
G1 X0.394 Y-64.97 Z-6.913
G1 X0.392 Y-65.049 Z-6.945
G1 X0.374 Y-65.127 Z-6.977
G1 X0.341 Y-65.199 Z-7.009
G1 X0.295 Y-65.263 Z-7.041
G1 X0.237 Y-65.316 Z-7.073
G1 X0.169 Y-65.357 Z-7.105
G1 X0.094 Y-65.384 Z-7.137
G1 X0.016 Y-65.395 Z-7.169
G1 X-0.063 Y-65.39 Z-7.201
G1 X-0.14 Y-65.369 Z-7.233
G1 X-0.211 Y-65.334 Z-7.264
G1 X-0.273 Y-65.286 Z-7.296
G1 X-0.324 Y-65.225 Z-7.328
G1 X-0.363 Y-65.156 Z-7.36
G1 X-0.387 Y-65.081 Z-7.392
G1 X-0.395 Y-65.002 Z-7.424
G1 X-0.387 Y-64.923 Z-7.456
G1 X-0.364 Y-64.847 Z-7.488
G1 X-0.327 Y-64.778 Z-7.52
G1 X-0.276 Y-64.717 Z-7.552
G1 X-0.214 Y-64.668 Z-7.584
G1 X-0.143 Y-64.632 Z-7.616
G1 X-0.067 Y-64.611 Z-7.648
G1 X0.012 Y-64.605 Z-7.68
G1 X0.09 Y-64.615 Z-7.712
G1 X0.165 Y-64.641 Z-7.744
G1 X0.233 Y-64.681 Z-7.776
G1 X0.292 Y-64.734 Z-7.808
G1 X0.339 Y-64.798 Z-7.84
G1 X0.373 Y-64.87 Z-7.871
G1 X0.391 Y-64.947 Z-7.903
G1 X0.394 Y-65.026 Z-7.935
G1 X0.381 Y-65.104 Z-7.967
G1 X0.353 Y-65.178 Z-7.999
G1 X0.31 Y-65.245 Z-8.031
G1 X0.255 Y-65.301 Z-8.063
G1 X0.19 Y-65.346 Z-8.095
G1 X0.117 Y-65.377 Z-8.127
G1 X0.04 Y-65.393 Z-8.159
G1 X-0.04 Z-8.191
G1 X-0.117 Y-65.377 Z-8.223
G1 X-0.19 Y-65.346 Z-8.255
G1 X-0.255 Y-65.301 Z-8.287
G1 X-0.31 Y-65.245 Z-8.319
G1 X-0.353 Y-65.178 Z-8.351
G1 X-0.381 Y-65.104 Z-8.383
G1 X-0.394 Y-65.026 Z-8.415
G1 X-0.391 Y-64.947 Z-8.447
G1 X-0.373 Y-64.87 Z-8.479
G1 X-0.339 Y-64.798 Z-8.51
G1 X-0.292 Y-64.734 Z-8.542
G1 X-0.233 Y-64.681 Z-8.574
G1 X-0.165 Y-64.641 Z-8.606
G1 X-0.09 Y-64.615 Z-8.638
G1 X-0.012 Y-64.605 Z-8.67
G1 X0.067 Y-64.611 Z-8.702
G1 X0.143 Y-64.632 Z-8.734
G1 X0.214 Y-64.668 Z-8.766
G1 X0.276 Y-64.717 Z-8.798
G1 X0.327 Y-64.778 Z-8.83
G1 X0.364 Y-64.847 Z-8.862
G1 X0.387 Y-64.923 Z-8.894
G1 X0.395 Y-65.002 Z-8.926
G1 X0.387 Y-65.081 Z-8.958
G1 X0.363 Y-65.156 Z-8.99
G1 X0.324 Y-65.225 Z-9.022
G1 X0.273 Y-65.286 Z-9.054
G1 X0.211 Y-65.334 Z-9.086
G1 X0.14 Y-65.369 Z-9.117
G1 X0.063 Y-65.39 Z-9.149
G1 X-0.016 Y-65.395 Z-9.181
G1 X-0.094 Y-65.384 Z-9.213
G1 X-0.169 Y-65.357 Z-9.245
G1 X-0.237 Y-65.316 Z-9.277
G1 X-0.295 Y-65.263 Z-9.309
G1 X-0.341 Y-65.199 Z-9.341
G1 X-0.374 Y-65.127 Z-9.373
G1 X-0.392 Y-65.049 Z-9.405
G1 X-0.394 Y-64.97 Z-9.437
G1 X-0.38 Y-64.892 Z-9.469
G1 X-0.351 Y-64.819 Z-9.501
G1 X-0.308 Y-64.752 Z-9.533
G1 X-0.252 Y-64.696 Z-9.565
G1 X-0.187 Y-64.652 Z-9.597
G1 X-0.113 Y-64.622 Z-9.629
G1 X-0.036 Y-64.607 Z-9.661
G1 X0.044 Z-9.693
G1 X0.121 Y-64.624 Z-9.725
G1 X0.193 Y-64.656 Z-9.756
G1 X0.258 Y-64.701 Z-9.788
G1 X0.313 Y-64.759 Z-9.82
G1 X0.355 Y-64.826 Z-9.852
G1 X0.382 Y-64.9 Z-9.884
G1 X0.394 Y-64.978 Z-9.916
G1 X0.391 Y-65.057 Z-9.948
G1 X0.372 Y-65.134 Z-9.98
G1 X0.337 Y-65.205 Z-10.012
G1 X0.29 Y-65.269 Z-10.044
G1 X0.23 Y-65.321 Z-10.076
G1 X0.162 Y-65.36 Z-10.108
G1 X0.087 Y-65.385 Z-10.14
G1 X0.008 Y-65.395 Z-10.172
G1 X-0.071 Y-65.389 Z-10.204
G1 X-0.147 Y-65.367 Z-10.236
G1 X-0.217 Y-65.33 Z-10.268
G1 X-0.279 Y-65.28 Z-10.3
G1 X-0.329 Y-65.219 Z-10.332
G1 X-0.366 Y-65.149 Z-10.363
G1 X-0.388 Y-65.073 Z-10.395
G1 X-0.395 Y-64.994 Z-10.427
G1 X-0.386 Y-64.915 Z-10.459
G1 X-0.361 Y-64.84 Z-10.491
G1 X-0.322 Y-64.771 Z-10.523
G1 X-0.27 Y-64.712 Z-10.555
G1 X-0.207 Y-64.664 Z-10.587
G1 X-0.136 Y-64.629 Z-10.619
G1 X-0.059 Y-64.609 Z-10.651
G1 X0.02 Y-64.606 Z-10.683
G1 X0.098 Y-64.617 Z-10.715
G1 X0.172 Y-64.645 Z-10.747
G1 X0.24 Y-64.686 Z-10.779
G1 X0.298 Y-64.74 Z-10.811
G1 X0.343 Y-64.805 Z-10.843
G1 X0.375 Y-64.877 Z-10.875
G1 X0.392 Y-64.955 Z-10.907
G1 X0.394 Y-65.034 Z-10.939
G1 X0.379 Y-65.111 Z-10.971
G1 X0.349 Y-65.185 Z-11.002
G1 X0.305 Y-65.251 Z-11.034
G1 X0.249 Y-65.307 Z-11.066
G1 X0.183 Y-65.35 Z-11.098
G1 X0.11 Y-65.38 Z-11.13
G1 X0.032 Y-65.394 Z-11.162
G1 X-0.047 Y-65.392 Z-11.194
G1 X-0.125 Y-65.375 Z-11.226
G1 X-0.197 Y-65.342 Z-11.258
G1 X-0.261 Y-65.296 Z-11.29
G1 X-0.315 Y-65.238 Z-11.322
G1 X-0.356 Y-65.171 Z-11.354
G1 X-0.383 Y-65.096 Z-11.386
G1 X-0.395 Y-65.018 Z-11.418
G1 X-0.39 Y-64.939 Z-11.45
G1 X-0.37 Y-64.862 Z-11.482
G1 X-0.335 Y-64.791 Z-11.514
G1 X-0.287 Y-64.729 Z-11.546
G1 X-0.227 Y-64.677 Z-11.578
G1 X-0.158 Y-64.638 Z-11.61
G1 X-0.083 Y-64.614 Z-11.641
G1 X-0.004 Y-64.605 Z-11.673
G1 X0.075 Y-64.612 Z-11.705
G1 X0.151 Y-64.635 Z-11.737
G1 X0.22 Y-64.672 Z-11.769
G1 X0.281 Y-64.723 Z-11.801
G1 X0.331 Y-64.784 Z-11.833
G1 X0.367 Y-64.855 Z-11.865
G1 X0.389 Y-64.931 Z-11.897
G1 X0.395 Y-65.01 Z-11.929
G1 X0.385 Y-65.088 Z-11.961
G1 X0.36 Y-65.163 Z-11.993
G1 X0.32 Y-65.232 Z-12.025
G1 X0.267 Y-65.291 Z-12.057
G1 X0.204 Y-65.338 Z-12.089
G1 X0.132 Y-65.372 Z-12.121
G1 X0.055 Y-65.391 Z-12.153
G1 X-0.024 Y-65.394 Z-12.185
G1 X-0.102 Y-65.382 Z-12.217
G1 X-0.176 Y-65.354 Z-12.248
G1 X-0.243 Y-65.311 Z-12.28
G1 X-0.3 Y-65.257 Z-12.312
G1 X-0.345 Y-65.192 Z-12.344
G1 X-0.377 Y-65.119 Z-12.376
G1 X-0.393 Y-65.042 Z-12.408
G1 Y-64.962 Z-12.44
G1 X-0.378 Y-64.885 Z-12.472
G1 X-0.347 Y-64.812 Z-12.504
G1 X-0.303 Y-64.746 Z-12.536
G1 X-0.246 Y-64.691 Z-12.568
G1 X-0.18 Y-64.648 Z-12.6
G1 X-0.106 Y-64.619 Z-12.632
G1 X-0.028 Y-64.606 Z-12.664
G1 X0.051 Y-64.608 Z-12.696
G1 X0.128 Y-64.626 Z-12.728
G1 X0.2 Y-64.66 Z-12.76
G1 X0.264 Y-64.706 Z-12.792
G1 X0.317 Y-64.765 Z-12.824
G1 X0.358 Y-64.833 Z-12.856
G1 X0.384 Y-64.908 Z-12.887
G1 X0.395 Y-64.986 Z-12.919
G1 X0.39 Y-65.065 Z-12.951
G1 X0.369 Y-65.141 Z-12.983
G1 X0.333 Y-65.212 Z-13.015
G1 X0.284 Y-65.274 Z-13.047
G1 X0.224 Y-65.326 Z-13.079
G1 X0.154 Y-65.364 Z-13.111
G1 X0.079 Y-65.387 Z-13.143
G1 X0 Y-65.395 Z-13.175
G2 X-0.395 Y-65 I0 J0.395
G2 X0 Y-64.605 I0.395 J0
G2 X0.395 Y-65 I0 J-0.395
G2 X0 Y-65.395 I-0.395 J0
G2 X-0.198 Y-65.198 I0 J0.197
G1 Y-64.88
G0 Z8

(2D CONTOUR1)
G0 X-38.543 Y33.641
G0 Z8
G0 Z7
G1 Z-1.575 F600.
G1 X-38.549 Y33.646 Z-1.792
G1 X-38.565 Y33.661 Z-2.007
G1 X-38.592 Y33.686 Z-2.221
G1 X-38.63 Y33.72 Z-2.432
G1 X-38.679 Y33.765 Z-2.638
G1 X-38.738 Y33.818 Z-2.84
G1 X-38.807 Y33.881 Z-3.036
G1 X-38.886 Y33.952 Z-3.225
G1 X-38.974 Y34.032 Z-3.406
G1 X-39.071 Y34.12 Z-3.579
G1 X-39.176 Y34.216 Z-3.742
G1 X-39.29 Y34.319 Z-3.895
G1 X-39.411 Y34.429 Z-4.038
G1 X-39.538 Y34.545 Z-4.169
G1 X-39.673 Y34.667 Z-4.288
G1 X-39.813 Y34.794 Z-4.394
G1 X-39.958 Y34.925 Z-4.487
G1 X-40.107 Y35.061 Z-4.567
G1 X-40.26 Y35.2 Z-4.632
G1 X-40.416 Y35.341 Z-4.684
G1 X-40.574 Y35.485 Z-4.72
G1 X-40.734 Y35.63 Z-4.743
G1 X-40.894 Y35.775 Z-4.75
G1 X-42.005 Y36.784 F800.
G2 X-42.073 Y38.196 I0.672 J0.74
G2 X7.2 Y56.367 I42.073 J-38.196
G3 X39.305 Y54.325 I32.105 J251.357
G1 X67.538
G3 X70.713 Y57.5 I0 J3.175
G3 X69.956 Y59.558 I-3.175 J0
G3 X-59.558 Y69.956 I-69.956 J-59.558
G3 X-91.875 Y0 I59.558 J-69.956
G3 X0 Y-91.875 I91.875 J0
G3 X69.956 Y-59.558 I0 J91.875
G3 X69.597 Y-55.082 I-2.418 J2.058
G3 X67.538 Y-54.325 I-2.058 J-2.418
G1 X39.305
G3 X7.2 Y-56.367 I0 J-253.399
G2 X-37.55 Y-42.651 I-7.2 J56.367
G2 X-56.825 Y0 I37.55 J42.651
G2 X-33.132 Y46.167 I56.825 J0
G2 X-32.387 Y46.341 I0.583 J-0.812
G2 X-31.736 Y45.937 I-0.162 J-0.987
G1 X-30.862 Y44.719
G1 X-30.736 Y44.543 Z-4.743
G1 X-30.61 Y44.367 Z-4.72
G1 X-30.485 Y44.194 Z-4.684
G1 X-30.362 Y44.023 Z-4.632
G1 X-30.242 Y43.855 Z-4.567
G1 X-30.124 Y43.691 Z-4.487
G1 X-30.01 Y43.532 Z-4.394
G1 X-29.9 Y43.378 Z-4.288
G1 X-29.794 Y43.231 Z-4.169
G1 X-29.694 Y43.091 Z-4.038
G1 X-29.598 Y42.958 Z-3.895
G1 X-29.509 Y42.833 Z-3.742
G1 X-29.426 Y42.718 Z-3.579
G1 X-29.35 Y42.611 Z-3.406
G1 X-29.28 Y42.515 Z-3.225
G1 X-29.218 Y42.428 Z-3.036
G1 X-29.164 Y42.353 Z-2.84
G1 X-29.118 Y42.288 Z-2.638
G1 X-29.079 Y42.235 Z-2.432
G1 X-29.049 Y42.193 Z-2.221
G1 X-29.028 Y42.163 Z-2.007
G1 X-29.015 Y42.145 Z-1.792
G1 X-29.011 Y42.139 Z-1.575
G1 X-38.543 Y33.641
G1 Z-6.325 F600.
G1 X-38.549 Y33.646 Z-6.542
G1 X-38.565 Y33.661 Z-6.757
G1 X-38.592 Y33.686 Z-6.971
G1 X-38.63 Y33.72 Z-7.182
G1 X-38.679 Y33.765 Z-7.388
G1 X-38.738 Y33.818 Z-7.59
G1 X-38.807 Y33.881 Z-7.786
G1 X-38.886 Y33.952 Z-7.975
G1 X-38.974 Y34.032 Z-8.156
G1 X-39.071 Y34.12 Z-8.329
G1 X-39.176 Y34.216 Z-8.492
G1 X-39.29 Y34.319 Z-8.645
G1 X-39.411 Y34.429 Z-8.788
G1 X-39.538 Y34.545 Z-8.919
G1 X-39.673 Y34.667 Z-9.038
G1 X-39.813 Y34.794 Z-9.144
G1 X-39.958 Y34.925 Z-9.237
G1 X-40.107 Y35.061 Z-9.317
G1 X-40.26 Y35.2 Z-9.382
G1 X-40.416 Y35.341 Z-9.434
G1 X-40.574 Y35.485 Z-9.47
G1 X-40.734 Y35.63 Z-9.493
G1 X-40.894 Y35.775 Z-9.5
G1 X-42.005 Y36.784 F800.
G2 X-42.073 Y38.196 I0.672 J0.74
G2 X7.2 Y56.367 I42.073 J-38.196
G3 X39.305 Y54.325 I32.105 J251.357
G1 X67.538
G3 X70.713 Y57.5 I0 J3.175
G3 X69.956 Y59.558 I-3.175 J0
G3 X-59.558 Y69.956 I-69.956 J-59.558
G3 X-91.875 Y0 I59.558 J-69.956
G3 X0 Y-91.875 I91.875 J0
G3 X69.956 Y-59.558 I0 J91.875
G3 X69.597 Y-55.082 I-2.418 J2.058
G3 X67.538 Y-54.325 I-2.058 J-2.418
G1 X39.305
G3 X7.2 Y-56.367 I0 J-253.399
G2 X-37.55 Y-42.651 I-7.2 J56.367
G2 X-56.825 Y0 I37.55 J42.651
G2 X-33.132 Y46.167 I56.825 J0
G2 X-32.387 Y46.341 I0.583 J-0.812
G2 X-31.736 Y45.937 I-0.162 J-0.987
G1 X-30.862 Y44.719
G1 X-30.736 Y44.543 Z-9.493
G1 X-30.61 Y44.367 Z-9.47
G1 X-30.485 Y44.194 Z-9.434
G1 X-30.362 Y44.023 Z-9.382
G1 X-30.242 Y43.855 Z-9.317
G1 X-30.124 Y43.691 Z-9.237
G1 X-30.01 Y43.532 Z-9.144
G1 X-29.9 Y43.378 Z-9.038
G1 X-29.794 Y43.231 Z-8.919
G1 X-29.694 Y43.091 Z-8.788
G1 X-29.598 Y42.958 Z-8.645
G1 X-29.509 Y42.833 Z-8.492
G1 X-29.426 Y42.718 Z-8.329
G1 X-29.35 Y42.611 Z-8.156
G1 X-29.28 Y42.515 Z-7.975
G1 X-29.218 Y42.428 Z-7.786
G1 X-29.164 Y42.353 Z-7.59
G1 X-29.118 Y42.288 Z-7.388
G1 X-29.079 Y42.235 Z-7.182
G1 X-29.049 Y42.193 Z-6.971
G1 X-29.028 Y42.163 Z-6.757
G1 X-29.015 Y42.145 Z-6.542
G1 X-29.011 Y42.139 Z-6.325
G1 X-38.543 Y33.641
G1 Z-11.075 F600.
G1 X-38.549 Y33.646 Z-11.292
G1 X-38.565 Y33.661 Z-11.507
G1 X-38.592 Y33.686 Z-11.721
G1 X-38.63 Y33.72 Z-11.932
G1 X-38.679 Y33.765 Z-12.138
G1 X-38.738 Y33.818 Z-12.34
G1 X-38.807 Y33.881 Z-12.536
G1 X-38.886 Y33.952 Z-12.725
G1 X-38.974 Y34.032 Z-12.906
G1 X-39.071 Y34.12 Z-13.079
G1 X-39.176 Y34.216 Z-13.242
G1 X-39.29 Y34.319 Z-13.395
G1 X-39.411 Y34.429 Z-13.538
G1 X-39.538 Y34.545 Z-13.669
G1 X-39.673 Y34.667 Z-13.788
G1 X-39.813 Y34.794 Z-13.894
G1 X-39.958 Y34.925 Z-13.987
G1 X-40.107 Y35.061 Z-14.067
G1 X-40.26 Y35.2 Z-14.132
G1 X-40.416 Y35.341 Z-14.184
G1 X-40.574 Y35.485 Z-14.22
G1 X-40.734 Y35.63 Z-14.243
G1 X-40.894 Y35.775 Z-14.25
G1 X-42.005 Y36.784 F800.
G2 X-42.073 Y38.196 I0.672 J0.74
G2 X7.2 Y56.367 I42.073 J-38.196
G3 X39.305 Y54.325 I32.105 J251.357
G1 X67.538
G3 X70.713 Y57.5 I0 J3.175
G3 X69.956 Y59.558 I-3.175 J0
G3 X-59.558 Y69.956 I-69.956 J-59.558
G3 X-91.875 Y0 I59.558 J-69.956
G3 X0 Y-91.875 I91.875 J0
G3 X69.956 Y-59.558 I0 J91.875
G3 X69.597 Y-55.082 I-2.418 J2.058
G3 X67.538 Y-54.325 I-2.058 J-2.418
G1 X39.305
G3 X7.2 Y-56.367 I0 J-253.399
G2 X-37.55 Y-42.651 I-7.2 J56.367
G2 X-56.825 Y0 I37.55 J42.651
G2 X-33.132 Y46.167 I56.825 J0
G2 X-32.387 Y46.341 I0.583 J-0.812
G2 X-31.736 Y45.937 I-0.162 J-0.987
G1 X-30.862 Y44.719
G1 X-30.736 Y44.543 Z-14.243
G1 X-30.61 Y44.367 Z-14.22
G1 X-30.485 Y44.194 Z-14.184
G1 X-30.362 Y44.023 Z-14.132
G1 X-30.242 Y43.855 Z-14.067
G1 X-30.124 Y43.691 Z-13.987
G1 X-30.01 Y43.532 Z-13.894
G1 X-29.9 Y43.378 Z-13.788
G1 X-29.794 Y43.231 Z-13.669
G1 X-29.694 Y43.091 Z-13.538
G1 X-29.598 Y42.958 Z-13.395
G1 X-29.509 Y42.833 Z-13.242
G1 X-29.426 Y42.718 Z-13.079
G1 X-29.35 Y42.611 Z-12.906
G1 X-29.28 Y42.515 Z-12.725
G1 X-29.218 Y42.428 Z-12.536
G1 X-29.164 Y42.353 Z-12.34
G1 X-29.118 Y42.288 Z-12.138
G1 X-29.079 Y42.235 Z-11.932
G1 X-29.049 Y42.193 Z-11.721
G1 X-29.028 Y42.163 Z-11.507
G1 X-29.015 Y42.145 Z-11.292
G1 X-29.011 Y42.139 Z-11.075
G1 X-38.543 Y33.641
G1 Z-15.825 F600.
G1 X-38.549 Y33.646 Z-16.042
G1 X-38.565 Y33.661 Z-16.257
G1 X-38.592 Y33.686 Z-16.471
G1 X-38.63 Y33.72 Z-16.682
G1 X-38.679 Y33.765 Z-16.888
G1 X-38.738 Y33.818 Z-17.09
G1 X-38.807 Y33.881 Z-17.286
G1 X-38.886 Y33.952 Z-17.475
G1 X-38.974 Y34.032 Z-17.656
G1 X-39.071 Y34.12 Z-17.829
G1 X-39.176 Y34.216 Z-17.992
G1 X-39.29 Y34.319 Z-18.145
G1 X-39.411 Y34.429 Z-18.288
G1 X-39.538 Y34.545 Z-18.419
G1 X-39.673 Y34.667 Z-18.538
G1 X-39.813 Y34.794 Z-18.644
G1 X-39.958 Y34.925 Z-18.737
G1 X-40.107 Y35.061 Z-18.817
G1 X-40.26 Y35.2 Z-18.882
G1 X-40.416 Y35.341 Z-18.934
G1 X-40.574 Y35.485 Z-18.97
G1 X-40.734 Y35.63 Z-18.993
G1 X-40.894 Y35.775 Z-19
G1 X-42.005 Y36.784 F800.
G2 X-42.073 Y38.196 I0.672 J0.74
G2 X7.2 Y56.367 I42.073 J-38.196
G3 X39.305 Y54.325 I32.105 J251.357
G1 X67.538
G3 X70.713 Y57.5 I0 J3.175
G3 X69.956 Y59.558 I-3.175 J0
G3 X55.607 Y73.136 I-69.956 J-59.558
G1 Z-15
G3 X41.762 Y81.835 I-55.607 J-73.136
G1 Z-19 F600.
G3 X-81.835 Y41.762 I-41.762 J-81.835 F800.
G3 X-91.69 Y5.83 I81.835 J-41.762
G1 Z-15
G3 X-91.271 Y-10.515 I91.69 J-5.83
G1 Z-19 F600.
G3 X10.515 Y-91.271 I91.271 J10.515 F800.
G3 X36.396 Y-84.358 I-10.515 J91.271
G1 Z-15
G3 X50.773 Y-76.571 I-36.396 J84.358
G1 Z-19 F600.
G3 X69.956 Y-59.558 I-50.773 J76.571 F800.
G3 X69.597 Y-55.082 I-2.418 J2.058
G3 X67.538 Y-54.325 I-2.058 J-2.418
G1 X39.305
G3 X7.2 Y-56.367 I0 J-253.399
G2 X-56.367 Y-7.2 I-7.2 J56.367
G2 X-33.132 Y46.167 I56.367 J7.2
G2 X-32.387 Y46.341 I0.583 J-0.812
G2 X-31.736 Y45.937 I-0.162 J-0.987
G1 X-30.862 Y44.719
G1 X-30.736 Y44.543 Z-18.993
G1 X-30.61 Y44.367 Z-18.97
G1 X-30.485 Y44.194 Z-18.934
G1 X-30.362 Y44.023 Z-18.882
G1 X-30.242 Y43.855 Z-18.817
G1 X-30.124 Y43.691 Z-18.737
G1 X-30.01 Y43.532 Z-18.644
G1 X-29.9 Y43.378 Z-18.538
G1 X-29.794 Y43.231 Z-18.419
G1 X-29.694 Y43.091 Z-18.288
G1 X-29.598 Y42.958 Z-18.145
G1 X-29.509 Y42.833 Z-17.992
G1 X-29.426 Y42.718 Z-17.829
G1 X-29.35 Y42.611 Z-17.656
G1 X-29.28 Y42.515 Z-17.475
G1 X-29.218 Y42.428 Z-17.286
G1 X-29.164 Y42.353 Z-17.09
G1 X-29.118 Y42.288 Z-16.888
G1 X-29.079 Y42.235 Z-16.682
G1 X-29.049 Y42.193 Z-16.471
G1 X-29.028 Y42.163 Z-16.257
G1 X-29.015 Y42.145 Z-16.042
G1 X-29.011 Y42.139 Z-15.825
G0 Z8

G0 Z8
M5
M30
