(METICULOUSSLED_PLYWOODDUSTCHUTE_0500PLY)
(12 PLYWOOD PARTS FOR THE METICULOUS Z-AXIS PLYWOOD DUST CHUTE. T1 = 14 1 FLUTE FLAT END MILL, T6 = 1.5MM FLAT END MILL. PROGRAMMED 2242019 BY BRYAN MAYNARD.)
(T1  D=6.35 CR=0 - ZMIN=-13.7 - FLAT END MILL)
(T6  D=1.5 CR=0 - ZMIN=-3 - FLAT END MILL)
G0 G40 G90 G17
G21

(2D POCKET2)
T6 M6
M3 S10000
G0 X209.869 Y88.098
G0 Z8
G0 Z6
G1 Z2.5 F500.
G1 Z-1 F150.
G1 Y-2.55 F500.
G1 Y-3.193
G1 Y-3.197
G1 X209.863 Y-3.222
G1 X209.845 Y-3.241
G1 X209.819 Y-3.249
G1 X209.794 Y-3.242
G1 X209.775 Y-3.224
G1 X209.768 Y-3.198
G1 Y87.45
G1 Y88.093
G1 Y88.097
G1 X209.774 Y88.122
G1 X209.792 Y88.141
G1 X209.818 Y88.149
G1 X209.843 Y88.142
G1 X209.862 Y88.123
G1 X209.869 Y88.098
G1 Z-2 F150.
G1 Y-2.55 F500.
G1 Y-3.193
G1 Y-3.197
G1 X209.863 Y-3.222
G1 X209.845 Y-3.241
G1 X209.819 Y-3.249
G1 X209.794 Y-3.242
G1 X209.775 Y-3.224
G1 X209.768 Y-3.198
G1 Y87.45
G1 Y88.093
G1 Y88.097
G1 X209.774 Y88.122
G1 X209.792 Y88.141
G1 X209.818 Y88.149
G1 X209.843 Y88.142
G1 X209.862 Y88.123
G1 X209.869 Y88.098
G1 Z-3 F150.
G1 Y-2.55 F500.
G1 Y-3.193
G1 Y-3.197
G1 X209.863 Y-3.222
G1 X209.845 Y-3.241
G1 X209.819 Y-3.249
G1 X209.794 Y-3.242
G1 X209.775 Y-3.224
G1 X209.768 Y-3.198
G1 Y87.45
G1 Y88.093
G1 Y88.097
G1 X209.769 Y88.1 Z-2.999
G1 X209.77 Y88.104 Z-2.997
G1 X209.772 Y88.106 Z-2.995
G1 X209.774 Y88.109 Z-2.993
G1 X209.775 Y88.11 Z-2.99
G1 X209.777 Y88.112 Z-2.987
G1 X209.778 Y88.113 Z-2.983
G1 X209.779 Z-2.98
G1 Z-2.976
G0 Z8

(2D POCKET3)
G0 X-15.021 Y76.869
G0 Z8
G0 Z6
G1 Z1.857 F500.
G1 X-15.013 Y76.872 Z1.644
G1 X-14.991 Y76.88 Z1.432
G1 X-14.953 Y76.893 Z1.222
G1 X-14.901 Y76.911 Z1.015
G1 X-14.835 Y76.935 Z0.814
G1 X-14.754 Y76.963 Z0.618
G1 X-14.66 Y76.997 Z0.429
G1 X-14.553 Y77.034 Z0.248
G1 X-14.433 Y77.077 Z0.076
G1 X-14.301 Y77.123 Z-0.086
G1 X-14.159 Y77.173 Z-0.237
G1 X-14.006 Y77.227 Z-0.377
G1 X-13.844 Y77.284 Z-0.503
G1 X-13.673 Y77.345 Z-0.617
G1 X-13.495 Y77.407 Z-0.717
G1 X-13.311 Y77.473 Z-0.802
G1 X-13.12 Y77.54 Z-0.873
G1 X-12.926 Y77.608 Z-0.928
G1 X-12.728 Y77.678 Z-0.968
G1 X-12.528 Y77.749 Z-0.992
G1 X-12.326 Y77.82 Z-1
G1 X-12.319 Y77.823
G1 X-12.282 Y77.832
G1 X0.136 Y80.119
G3 X139.189 Y129.558 I-84.14 J456.927
G1 X139.439 Y129.125
G2 X-0.135 Y79.561 I-223.445 J407.92
G1 X-12.28 Y77.334
G1 X-13.569 Y77.283
G1 X-13.597 Y77.277
G1 X-13.621 Y77.26
G1 X-13.636 Y77.236
G1 X-13.641 Y77.208
G1 X-13.646 Y77.182
G1 X-13.659 Y77.16
G1 X-13.679 Y77.143
G1 X-13.703 Y77.134
G1 X-15.566 Y76.802
G1 X-15.598 Y76.803
G1 X-15.627 Y76.818
G1 X-15.647 Y76.844
G1 X-15.654 Y76.876
G1 X-15.647 Y76.908
G1 X-15.627 Y76.933
G1 X-15.598 Y76.948
G1 X-15.404 Y77 Z-1.006
G1 X-15.211 Y77.052 Z-1.025
G1 X-15.02 Y77.103 Z-1.057
G1 X-14.831 Y77.153 Z-1.101
G1 X-14.645 Y77.203 Z-1.157
G1 X-14.462 Y77.251 Z-1.226
G1 X-14.285 Y77.299 Z-1.306
G1 X-14.112 Y77.345 Z-1.397
G1 X-13.946 Y77.389 Z-1.5
G1 X-13.779 Y77.434 Z-1.603
G1 X-13.606 Y77.48 Z-1.694
G1 X-13.429 Y77.527 Z-1.774
G1 X-13.246 Y77.576 Z-1.843
G1 X-13.06 Y77.625 Z-1.899
G1 X-12.871 Y77.676 Z-1.943
G1 X-12.68 Y77.727 Z-1.975
G1 X-12.487 Y77.778 Z-1.994
G1 X-12.293 Y77.83 Z-2
G1 X-12.282 Y77.832
G1 X0.136 Y80.119
G3 X139.189 Y129.558 I-84.14 J456.927
G1 X139.439 Y129.125
G2 X-0.135 Y79.561 I-223.445 J407.92
G1 X-12.28 Y77.334
G1 X-12.298 Y77.332 Z-1.999
G1 X-12.316 Y77.333 Z-1.994
G1 X-12.333 Y77.337 Z-1.987
G1 X-12.347 Y77.342 Z-1.978
G1 X-12.36 Y77.348 Z-1.966
G1 X-12.37 Y77.355 Z-1.952
G1 X-12.377 Y77.361 Z-1.936
G1 X-12.382 Y77.365 Z-1.92
G1 X-12.385 Y77.368 Z-1.902
G1 X-12.386 Y77.369 Z-1.884
G0 Z8

(2D POCKET4)
G0 X-15.186 Y9.54
G0 Z8
G0 Z6
G1 Z1.857 F500.
G1 X-15.178 Y9.539 Z1.644
G1 X-15.154 Z1.432
G1 X-15.114 Y9.538 Z1.222
G1 X-15.059 Y9.536 Z1.015
G1 X-14.988 Y9.535 Z0.814
G1 X-14.903 Y9.533 Z0.618
G1 X-14.803 Y9.53 Z0.429
G1 X-14.689 Y9.528 Z0.248
G1 X-14.563 Y9.524 Z0.076
G1 X-14.423 Y9.521 Z-0.086
G1 X-14.272 Y9.517 Z-0.237
G1 X-14.11 Y9.513 Z-0.377
G1 X-13.938 Y9.509 Z-0.503
G1 X-13.758 Y9.505 Z-0.617
G1 X-13.569 Y9.5 Z-0.717
G1 X-13.373 Y9.496 Z-0.802
G1 X-13.171 Y9.491 Z-0.873
G1 X-12.965 Y9.486 Z-0.928
G1 X-12.755 Y9.481 Z-0.968
G1 X-12.543 Y9.475 Z-0.992
G1 X-12.329 Y9.47 Z-1
G1 X-12.321
G1 X-12.283 Y9.466
G1 X-0.135 Y7.239
G2 X139.439 Y-42.325 I-83.87 J-457.485
G1 X139.189 Y-42.758
G3 X0.136 Y6.681 I-223.194 J-407.488
G1 X-12.283 Y8.968
G1 X-13.567 Y9.391
G1 X-13.595 Y9.395
G1 X-13.623 Y9.388
G1 X-13.646 Y9.371
G1 X-13.661 Y9.346
G1 X-13.674 Y9.323
G1 X-13.694 Y9.307
G1 X-13.719 Y9.298
G1 X-13.745
G1 X-15.713 Y9.67
G1 X-15.743 Y9.682
G1 X-15.765 Y9.707
G1 X-15.774 Y9.738
G1 X-15.769 Y9.77
G1 X-15.751 Y9.797
G1 X-15.724 Y9.814
G1 X-15.691 Y9.818
G1 X-15.492 Y9.797 Z-1.006
G1 X-15.293 Y9.777 Z-1.025
G1 X-15.096 Y9.757 Z-1.057
G1 X-14.901 Y9.736 Z-1.101
G1 X-14.71 Y9.717 Z-1.157
G1 X-14.522 Y9.697 Z-1.226
G1 X-14.339 Y9.678 Z-1.306
G1 X-14.162 Y9.66 Z-1.397
G1 X-13.99 Y9.642 Z-1.5
G1 X-13.819 Y9.625 Z-1.603
G1 X-13.641 Y9.606 Z-1.694
G1 X-13.458 Y9.588 Z-1.774
G1 X-13.271 Y9.568 Z-1.843
G1 X-13.079 Y9.548 Z-1.899
G1 X-12.884 Y9.528 Z-1.943
G1 X-12.687 Y9.508 Z-1.975
G1 X-12.488 Y9.488 Z-1.994
G1 X-12.289 Y9.467 Z-2
G1 X-12.283 Y9.466
G1 X-0.135 Y7.239
G2 X139.439 Y-42.325 I-83.87 J-457.485
G1 X139.189 Y-42.758
G3 X0.136 Y6.681 I-223.194 J-407.488
G1 X-12.283 Y8.968
G1 X-12.301 Y8.973 Z-1.999
G1 X-12.317 Y8.98 Z-1.994
G1 X-12.332 Y8.989 Z-1.987
G1 X-12.343 Y8.999 Z-1.978
G1 X-12.353 Y9.009 Z-1.966
G1 X-12.36 Y9.019 Z-1.952
G1 X-12.365 Y9.027 Z-1.936
G1 X-12.368 Y9.033 Z-1.92
G1 X-12.37 Y9.037 Z-1.902
G1 Y9.038 Z-1.884
G0 Z8
G0 Z8

(2D CONTOUR2)
M5
T1 M6
M3 S12000
G0 X14.471 Y53.6
G0 Z8
G0 Z7
G1 Z-1.392 F600.
G1 Y53.607 Z-1.608
G1 Y53.63 Z-1.824
G1 Y53.666 Z-2.038
G1 Y53.718 Z-2.248
G1 Y53.783 Z-2.455
G1 Y53.863 Z-2.657
G1 Y53.956 Z-2.852
G1 Y54.062 Z-3.041
G1 Y54.181 Z-3.223
G1 Y54.312 Z-3.395
G1 Y54.455 Z-3.559
G1 Y54.608 Z-3.712
G1 Y54.771 Z-3.855
G1 Y54.944 Z-3.986
G1 Y55.125 Z-4.104
G1 Y55.314 Z-4.211
G1 Y55.51 Z-4.304
G1 Y55.712 Z-4.383
G1 Y55.918 Z-4.449
G1 Y56.129 Z-4.5
G1 Y56.343 Z-4.537
G1 Y56.558 Z-4.559
G1 Y56.775 Z-4.567
G1 Y58.275 F800.
G2 X15.471 Y59.275 I1 J0
G1 X35.227
G3 X37.472 Y60.205 I0 J3.175
G2 X37.755 I0.141 J-0.141
G2 Y59.922 I-0.141 J-0.141
G3 X36.825 Y57.677 I2.245 J-2.245
G1 Y49.75
G3 X40 Y46.575 I3.175 J0
G1 X80
G3 X83.175 Y49.75 I0 J3.175
G1 Y57.677
G3 X82.245 Y59.922 I-3.175 J0
G2 Y60.205 I0.141 J0.141
G2 X82.386 Y60.264 I0.141 J-0.141
G2 X82.528 Y60.205 I0 J-0.2
G3 X84.773 Y59.275 I2.245 J2.245
G1 X120.227
G3 X122.472 Y60.205 I0 J3.175
G2 X122.755 Y60.206 I0.142 J-0.141
G2 X122.814 Y60.064 I-0.141 J-0.142
G2 X122.755 Y59.922 I-0.2 J0
G3 X121.825 Y57.677 I2.245 J-2.245
G1 Y49.75
G3 X125 Y46.575 I3.175 J0
G1 X165
G3 X168.175 Y49.75 I0 J3.175
G1 Y57.677
G3 X167.245 Y59.922 I-3.175 J0
G2 Y60.205 I0.141 J0.141
G2 X167.386 Y60.264 I0.141 J-0.141
G2 X167.528 Y60.205 I0 J-0.2
G3 X169.773 Y59.275 I2.245 J2.245
G1 X190
G3 X193.175 Y62.45 I0 J3.175
G3 X192.75 Y64.037 I-3.175 J0
G1 X177.77 Y89.984
G3 X175.842 Y91.464 I-2.75 J-1.587
G3 X173.433 Y91.147 I-0.822 J-3.067
G1 X166.534 Y87.164
G3 X165.054 Y85.236 I1.587 J-2.75
G2 X164.809 Y85.094 I-0.193 J0.052
G2 X164.688 Y85.187 I0.052 J0.193
G2 X164.668 Y85.339 I0.173 J0.1
G3 X164.351 Y87.749 I-3.067 J0.822
G1 X154.085 Y105.53
G3 X152.156 Y107.009 I-2.75 J-1.588
G2 X152.015 Y107.254 I0.052 J0.193
G2 X152.108 Y107.375 I0.193 J-0.052
G2 X152.26 Y107.395 I0.1 J-0.173
G3 X154.669 Y107.712 I0.822 J3.067
G1 X161.568 Y111.695
G3 X163.048 Y113.623 I-1.587 J2.75
G3 X162.731 Y116.033 I-3.067 J0.822
G1 X147.75 Y141.98
G3 X143.413 Y143.142 I-2.75 J-1.588
G2 X-0.582 Y89.921 I-227.419 J393.904
G3 X-3.175 Y86.8 I0.582 J-3.121
G1 Y62.45
G3 X0 Y59.275 I3.175 J0
G1 X15.471
G1 X27.471
G2 X28.471 Y58.275 I0 J-1
G1 Y56.775
G1 Y56.558 Z-4.559
G1 Y56.343 Z-4.537
G1 Y56.129 Z-4.5
G1 Y55.918 Z-4.449
G1 Y55.712 Z-4.383
G1 Y55.51 Z-4.304
G1 Y55.314 Z-4.211
G1 Y55.125 Z-4.104
G1 Y54.944 Z-3.986
G1 Y54.771 Z-3.855
G1 Y54.608 Z-3.712
G1 Y54.455 Z-3.559
G1 Y54.312 Z-3.395
G1 Y54.181 Z-3.223
G1 Y54.062 Z-3.041
G1 Y53.956 Z-2.852
G1 Y53.863 Z-2.657
G1 Y53.783 Z-2.455
G1 Y53.718 Z-2.248
G1 Y53.666 Z-2.038
G1 Y53.63 Z-1.824
G1 Y53.607 Z-1.608
G1 Y53.6 Z-1.392
G1 X14.471
G1 Z-5.958 F600.
G1 Y53.607 Z-6.175
G1 Y53.63 Z-6.391
G1 Y53.666 Z-6.604
G1 Y53.718 Z-6.815
G1 Y53.783 Z-7.022
G1 Y53.863 Z-7.223
G1 Y53.956 Z-7.419
G1 Y54.062 Z-7.608
G1 Y54.181 Z-7.789
G1 Y54.312 Z-7.962
G1 Y54.455 Z-8.125
G1 Y54.608 Z-8.279
G1 Y54.771 Z-8.421
G1 Y54.944 Z-8.552
G1 Y55.125 Z-8.671
G1 Y55.314 Z-8.777
G1 Y55.51 Z-8.87
G1 Y55.712 Z-8.95
G1 Y55.918 Z-9.016
G1 Y56.129 Z-9.067
G1 Y56.343 Z-9.104
G1 Y56.558 Z-9.126
G1 Y56.775 Z-9.133
G1 Y58.275 F800.
G2 X15.471 Y59.275 I1 J0
G1 X35.227
G3 X37.472 Y60.205 I0 J3.175
G2 X37.755 I0.141 J-0.141
G2 Y59.922 I-0.141 J-0.141
G3 X36.825 Y57.677 I2.245 J-2.245
G1 Y49.75
G3 X40 Y46.575 I3.175 J0
G1 X80
G3 X83.175 Y49.75 I0 J3.175
G1 Y57.677
G3 X82.245 Y59.922 I-3.175 J0
G2 Y60.205 I0.141 J0.141
G2 X82.386 Y60.264 I0.141 J-0.141
G2 X82.528 Y60.205 I0 J-0.2
G3 X84.773 Y59.275 I2.245 J2.245
G1 X120.227
G3 X122.472 Y60.205 I0 J3.175
G2 X122.755 Y60.206 I0.142 J-0.141
G2 X122.814 Y60.064 I-0.141 J-0.142
G2 X122.755 Y59.922 I-0.2 J0
G3 X121.825 Y57.677 I2.245 J-2.245
G1 Y49.75
G3 X125 Y46.575 I3.175 J0
G1 X165
G3 X168.175 Y49.75 I0 J3.175
G1 Y57.677
G3 X167.245 Y59.922 I-3.175 J0
G2 Y60.205 I0.141 J0.141
G2 X167.386 Y60.264 I0.141 J-0.141
G2 X167.528 Y60.205 I0 J-0.2
G3 X169.773 Y59.275 I2.245 J2.245
G1 X190
G3 X193.175 Y62.45 I0 J3.175
G3 X192.75 Y64.037 I-3.175 J0
G1 X177.77 Y89.984
G3 X175.842 Y91.464 I-2.75 J-1.587
G3 X173.433 Y91.147 I-0.822 J-3.067
G1 X166.534 Y87.164
G3 X165.054 Y85.236 I1.587 J-2.75
G2 X164.809 Y85.094 I-0.193 J0.052
G2 X164.688 Y85.187 I0.052 J0.193
G2 X164.668 Y85.339 I0.173 J0.1
G3 X164.351 Y87.749 I-3.067 J0.822
G1 X154.085 Y105.53
G3 X152.156 Y107.009 I-2.75 J-1.588
G2 X152.015 Y107.254 I0.052 J0.193
G2 X152.108 Y107.375 I0.193 J-0.052
G2 X152.26 Y107.395 I0.1 J-0.173
G3 X154.669 Y107.712 I0.822 J3.067
G1 X161.568 Y111.695
G3 X163.048 Y113.623 I-1.587 J2.75
G3 X162.731 Y116.033 I-3.067 J0.822
G1 X147.75 Y141.98
G3 X143.413 Y143.142 I-2.75 J-1.588
G2 X-0.582 Y89.921 I-227.419 J393.904
G3 X-3.175 Y86.8 I0.582 J-3.121
G1 Y62.45
G3 X0 Y59.275 I3.175 J0
G1 X15.471
G1 X27.471
G2 X28.471 Y58.275 I0 J-1
G1 Y56.775
G1 Y56.558 Z-9.126
G1 Y56.343 Z-9.104
G1 Y56.129 Z-9.067
G1 Y55.918 Z-9.016
G1 Y55.712 Z-8.95
G1 Y55.51 Z-8.87
G1 Y55.314 Z-8.777
G1 Y55.125 Z-8.671
G1 Y54.944 Z-8.552
G1 Y54.771 Z-8.421
G1 Y54.608 Z-8.279
G1 Y54.455 Z-8.125
G1 Y54.312 Z-7.962
G1 Y54.181 Z-7.789
G1 Y54.062 Z-7.608
G1 Y53.956 Z-7.419
G1 Y53.863 Z-7.223
G1 Y53.783 Z-7.022
G1 Y53.718 Z-6.815
G1 Y53.666 Z-6.604
G1 Y53.63 Z-6.391
G1 Y53.607 Z-6.175
G1 Y53.6 Z-5.958
G1 X14.471
G1 Z-10.525 F600.
G1 Y53.607 Z-10.742
G1 Y53.63 Z-10.957
G1 Y53.666 Z-11.171
G1 Y53.718 Z-11.382
G1 Y53.783 Z-11.588
G1 Y53.863 Z-11.79
G1 Y53.956 Z-11.986
G1 Y54.062 Z-12.175
G1 Y54.181 Z-12.356
G1 Y54.312 Z-12.529
G1 Y54.455 Z-12.692
G1 Y54.608 Z-12.845
G1 Y54.771 Z-12.988
G1 Y54.944 Z-13.119
G1 Y55.125 Z-13.238
G1 Y55.314 Z-13.344
G1 Y55.51 Z-13.437
G1 Y55.712 Z-13.517
G1 Y55.918 Z-13.582
G1 Y56.129 Z-13.634
G1 Y56.343 Z-13.67
G1 Y56.558 Z-13.693
G1 Y56.775 Z-13.7
G1 Y58.275 F800.
G2 X15.471 Y59.275 I1 J0
G1 X35.227
G3 X37.472 Y60.205 I0 J3.175
G2 X37.755 I0.141 J-0.141
G2 Y59.922 I-0.141 J-0.141
G3 X36.825 Y57.677 I2.245 J-2.245
G1 Y49.75
G3 X40 Y46.575 I3.175 J0
G1 X80
G3 X83.175 Y49.75 I0 J3.175
G1 Y57.677
G3 X82.245 Y59.922 I-3.175 J0
G2 Y60.205 I0.141 J0.141
G2 X82.386 Y60.264 I0.141 J-0.141
G2 X82.528 Y60.205 I0 J-0.2
G3 X84.773 Y59.275 I2.245 J2.245
G1 X94.852
G1 Z-9.7
G1 X111.202
G1 Z-13.7 F600.
G1 X120.227 F800.
G3 X122.472 Y60.205 I0 J3.175
G2 X122.755 Y60.206 I0.142 J-0.141
G2 X122.814 Y60.064 I-0.141 J-0.142
G2 X122.755 Y59.922 I-0.2 J0
G3 X121.825 Y57.677 I2.245 J-2.245
G1 Y49.75
G3 X125 Y46.575 I3.175 J0
G1 X165
G3 X168.175 Y49.75 I0 J3.175
G1 Y57.677
G3 X167.245 Y59.922 I-3.175 J0
G2 Y60.205 I0.141 J0.141
G2 X167.386 Y60.264 I0.141 J-0.141
G2 X167.528 Y60.205 I0 J-0.2
G3 X169.773 Y59.275 I2.245 J2.245
G1 X190
G3 X193.175 Y62.45 I0 J3.175
G3 X192.75 Y64.037 I-3.175 J0
G1 X188.469 Y71.452
G1 Z-9.7
G1 X180.294 Y85.611
G1 Z-13.7 F600.
G1 X177.77 Y89.984 F800.
G3 X175.842 Y91.464 I-2.75 J-1.587
G3 X173.433 Y91.147 I-0.822 J-3.067
G1 X166.534 Y87.164
G3 X165.054 Y85.236 I1.587 J-2.75
G2 X164.809 Y85.094 I-0.193 J0.052
G2 X164.688 Y85.187 I0.052 J0.193
G2 X164.668 Y85.339 I0.173 J0.1
G3 X164.351 Y87.749 I-3.067 J0.822
G1 X154.085 Y105.53
G3 X152.156 Y107.009 I-2.75 J-1.588
G2 X152.015 Y107.254 I0.052 J0.193
G2 X152.108 Y107.375 I0.193 J-0.052
G2 X152.26 Y107.395 I0.1 J-0.173
G3 X154.669 Y107.712 I0.822 J3.067
G1 X161.568 Y111.695
G3 X163.048 Y113.623 I-1.587 J2.75
G3 X162.731 Y116.033 I-3.067 J0.822
G1 X158.146 Y123.973
G1 Z-9.7
G1 X149.971 Y138.132
G1 Z-13.7 F600.
G1 X147.75 Y141.98 F800.
G3 X143.413 Y143.142 I-2.75 J-1.588
G2 X-0.582 Y89.921 I-227.419 J393.904
G3 X-3.175 Y86.8 I0.582 J-3.121
G1 Y82.707
G1 Z-9.7
G1 Y66.357
G1 Z-13.7 F600.
G1 Y62.45 F800.
G3 X0 Y59.275 I3.175 J0
G1 X27.471
G2 X28.471 Y58.275 I0 J-1
G1 Y56.775
G1 Y56.558 Z-13.693
G1 Y56.343 Z-13.67
G1 Y56.129 Z-13.634
G1 Y55.918 Z-13.582
G1 Y55.712 Z-13.517
G1 Y55.51 Z-13.437
G1 Y55.314 Z-13.344
G1 Y55.125 Z-13.238
G1 Y54.944 Z-13.119
G1 Y54.771 Z-12.988
G1 Y54.608 Z-12.845
G1 Y54.455 Z-12.692
G1 Y54.312 Z-12.529
G1 Y54.181 Z-12.356
G1 Y54.062 Z-12.175
G1 Y53.956 Z-11.986
G1 Y53.863 Z-11.79
G1 Y53.783 Z-11.588
G1 Y53.718 Z-11.382
G1 Y53.666 Z-11.171
G1 Y53.63 Z-10.957
G1 Y53.607 Z-10.742
G1 Y53.6 Z-10.525
G0 Z8

(2D CONTOUR3)
G0 X19.177 Y33.2
G0 Z8
G0 Z7
G1 Z-1.392 F600.
G1 Y33.193 Z-1.608
G1 Y33.17 Z-1.824
G1 Y33.134 Z-2.038
G1 Y33.082 Z-2.248
G1 Y33.017 Z-2.455
G1 Y32.937 Z-2.657
G1 Y32.844 Z-2.852
G1 Y32.738 Z-3.041
G1 Y32.619 Z-3.223
G1 Y32.488 Z-3.395
G1 Y32.345 Z-3.559
G1 Y32.192 Z-3.712
G1 Y32.029 Z-3.855
G1 Y31.856 Z-3.986
G1 Y31.675 Z-4.104
G1 Y31.486 Z-4.211
G1 Y31.29 Z-4.304
G1 Y31.088 Z-4.383
G1 Y30.882 Z-4.449
G1 Y30.671 Z-4.5
G1 Y30.457 Z-4.537
G1 Y30.242 Z-4.559
G1 Y30.025 Z-4.567
G1 Y28.525 F800.
G2 X18.177 Y27.525 I-1 J0
G1 X0
G3 X-3.175 Y24.35 I0 J-3.175
G1 Y0
G3 X-0.582 Y-3.121 I3.175 J0
G2 X143.413 Y-56.342 I-83.425 J-447.124
G3 X145.822 Y-56.659 I1.587 J2.75
G3 X147.75 Y-55.18 I-0.822 J3.067
G1 X162.73 Y-29.233
G3 X161.568 Y-24.896 I-2.75 J1.587
G1 X154.67 Y-20.913
G3 X152.26 Y-20.596 I-1.588 J-2.75
G2 X152.015 Y-20.454 I-0.052 J0.193
G2 X152.035 Y-20.302 I0.193 J0.052
G2 X152.156 Y-20.209 I0.173 J-0.1
G3 X154.085 Y-18.73 I-0.821 J3.067
G1 X164.351 Y-0.948
G3 X164.668 Y1.461 I-2.75 J1.587
G2 X164.809 Y1.706 I0.193 J0.052
G2 X164.961 Y1.686 I0.052 J-0.193
G2 X165.054 Y1.564 I-0.1 J-0.173
G3 X166.533 Y-0.364 I3.067 J0.822
G1 X173.431 Y-4.347
G3 X175.841 Y-4.664 I1.588 J2.75
G3 X177.769 Y-3.185 I-0.822 J3.067
G1 X192.75 Y22.762
G3 X191.588 Y27.1 I-2.75 J1.588
G3 X190 Y27.525 I-1.588 J-2.75
G1 X169.773
G3 X167.528 Y26.595 I0 J-3.175
G2 X167.245 I-0.141 J0.141
G2 X167.186 Y26.736 I0.141 J0.141
G2 X167.245 Y26.878 I0.2 J0
G3 X168.175 Y29.123 I-2.245 J2.245
G1 Y37.05
G3 X165 Y40.225 I-3.175 J0
G1 X125
G3 X121.825 Y37.05 I0 J-3.175
G1 Y29.123
G3 X122.755 Y26.878 I3.175 J0
G2 Y26.595 I-0.141 J-0.141
G2 X122.614 Y26.536 I-0.141 J0.141
G2 X122.472 Y26.595 I0 J0.2
G3 X120.227 Y27.525 I-2.245 J-2.245
G1 X84.773
G3 X82.528 Y26.595 I0 J-3.175
G2 X82.245 I-0.141 J0.141
G2 X82.186 Y26.736 I0.141 J0.141
G2 X82.245 Y26.878 I0.2 J0
G3 X83.175 Y29.123 I-2.245 J2.245
G1 Y37.05
G3 X80 Y40.225 I-3.175 J0
G1 X40
G3 X36.825 Y37.05 I0 J-3.175
G1 Y29.123
G3 X37.755 Y26.878 I3.175 J0
G2 Y26.595 I-0.141 J-0.141
G2 X37.472 I-0.141 J0.141
G3 X35.227 Y27.525 I-2.245 J-2.245
G1 X18.177
G1 X6.177
G2 X5.177 Y28.525 I0 J1
G1 Y30.025
G1 Y30.242 Z-4.559
G1 Y30.457 Z-4.537
G1 Y30.671 Z-4.5
G1 Y30.882 Z-4.449
G1 Y31.088 Z-4.383
G1 Y31.29 Z-4.304
G1 Y31.486 Z-4.211
G1 Y31.675 Z-4.104
G1 Y31.856 Z-3.986
G1 Y32.029 Z-3.855
G1 Y32.192 Z-3.712
G1 Y32.345 Z-3.559
G1 Y32.488 Z-3.395
G1 Y32.619 Z-3.223
G1 Y32.738 Z-3.041
G1 Y32.844 Z-2.852
G1 Y32.937 Z-2.657
G1 Y33.017 Z-2.455
G1 Y33.082 Z-2.248
G1 Y33.134 Z-2.038
G1 Y33.17 Z-1.824
G1 Y33.193 Z-1.608
G1 Y33.2 Z-1.392
G1 X19.177
G1 Z-5.958 F600.
G1 Y33.193 Z-6.175
G1 Y33.17 Z-6.391
G1 Y33.134 Z-6.604
G1 Y33.082 Z-6.815
G1 Y33.017 Z-7.022
G1 Y32.937 Z-7.223
G1 Y32.844 Z-7.419
G1 Y32.738 Z-7.608
G1 Y32.619 Z-7.789
G1 Y32.488 Z-7.962
G1 Y32.345 Z-8.125
G1 Y32.192 Z-8.279
G1 Y32.029 Z-8.421
G1 Y31.856 Z-8.552
G1 Y31.675 Z-8.671
G1 Y31.486 Z-8.777
G1 Y31.29 Z-8.87
G1 Y31.088 Z-8.95
G1 Y30.882 Z-9.016
G1 Y30.671 Z-9.067
G1 Y30.457 Z-9.104
G1 Y30.242 Z-9.126
G1 Y30.025 Z-9.133
G1 Y28.525 F800.
G2 X18.177 Y27.525 I-1 J0
G1 X0
G3 X-3.175 Y24.35 I0 J-3.175
G1 Y0
G3 X-0.582 Y-3.121 I3.175 J0
G2 X143.413 Y-56.342 I-83.425 J-447.124
G3 X145.822 Y-56.659 I1.587 J2.75
G3 X147.75 Y-55.18 I-0.822 J3.067
G1 X162.73 Y-29.233
G3 X161.568 Y-24.896 I-2.75 J1.587
G1 X154.67 Y-20.913
G3 X152.26 Y-20.596 I-1.588 J-2.75
G2 X152.015 Y-20.454 I-0.052 J0.193
G2 X152.035 Y-20.302 I0.193 J0.052
G2 X152.156 Y-20.209 I0.173 J-0.1
G3 X154.085 Y-18.73 I-0.821 J3.067
G1 X164.351 Y-0.948
G3 X164.668 Y1.461 I-2.75 J1.587
G2 X164.809 Y1.706 I0.193 J0.052
G2 X164.961 Y1.686 I0.052 J-0.193
G2 X165.054 Y1.564 I-0.1 J-0.173
G3 X166.533 Y-0.364 I3.067 J0.822
G1 X173.431 Y-4.347
G3 X175.841 Y-4.664 I1.588 J2.75
G3 X177.769 Y-3.185 I-0.822 J3.067
G1 X192.75 Y22.762
G3 X191.588 Y27.1 I-2.75 J1.588
G3 X190 Y27.525 I-1.588 J-2.75
G1 X169.773
G3 X167.528 Y26.595 I0 J-3.175
G2 X167.245 I-0.141 J0.141
G2 X167.186 Y26.736 I0.141 J0.141
G2 X167.245 Y26.878 I0.2 J0
G3 X168.175 Y29.123 I-2.245 J2.245
G1 Y37.05
G3 X165 Y40.225 I-3.175 J0
G1 X125
G3 X121.825 Y37.05 I0 J-3.175
G1 Y29.123
G3 X122.755 Y26.878 I3.175 J0
G2 Y26.595 I-0.141 J-0.141
G2 X122.614 Y26.536 I-0.141 J0.141
G2 X122.472 Y26.595 I0 J0.2
G3 X120.227 Y27.525 I-2.245 J-2.245
G1 X84.773
G3 X82.528 Y26.595 I0 J-3.175
G2 X82.245 I-0.141 J0.141
G2 X82.186 Y26.736 I0.141 J0.141
G2 X82.245 Y26.878 I0.2 J0
G3 X83.175 Y29.123 I-2.245 J2.245
G1 Y37.05
G3 X80 Y40.225 I-3.175 J0
G1 X40
G3 X36.825 Y37.05 I0 J-3.175
G1 Y29.123
G3 X37.755 Y26.878 I3.175 J0
G2 Y26.595 I-0.141 J-0.141
G2 X37.472 I-0.141 J0.141
G3 X35.227 Y27.525 I-2.245 J-2.245
G1 X18.177
G1 X6.177
G2 X5.177 Y28.525 I0 J1
G1 Y30.025
G1 Y30.242 Z-9.126
G1 Y30.457 Z-9.104
G1 Y30.671 Z-9.067
G1 Y30.882 Z-9.016
G1 Y31.088 Z-8.95
G1 Y31.29 Z-8.87
G1 Y31.486 Z-8.777
G1 Y31.675 Z-8.671
G1 Y31.856 Z-8.552
G1 Y32.029 Z-8.421
G1 Y32.192 Z-8.279
G1 Y32.345 Z-8.125
G1 Y32.488 Z-7.962
G1 Y32.619 Z-7.789
G1 Y32.738 Z-7.608
G1 Y32.844 Z-7.419
G1 Y32.937 Z-7.223
G1 Y33.017 Z-7.022
G1 Y33.082 Z-6.815
G1 Y33.134 Z-6.604
G1 Y33.17 Z-6.391
G1 Y33.193 Z-6.175
G1 Y33.2 Z-5.958
G1 X19.177
G1 Z-10.525 F600.
G1 Y33.193 Z-10.742
G1 Y33.17 Z-10.957
G1 Y33.134 Z-11.171
G1 Y33.082 Z-11.382
G1 Y33.017 Z-11.588
G1 Y32.937 Z-11.79
G1 Y32.844 Z-11.986
G1 Y32.738 Z-12.175
G1 Y32.619 Z-12.356
G1 Y32.488 Z-12.529
G1 Y32.345 Z-12.692
G1 Y32.192 Z-12.845
G1 Y32.029 Z-12.988
G1 Y31.856 Z-13.119
G1 Y31.675 Z-13.238
G1 Y31.486 Z-13.344
G1 Y31.29 Z-13.437
G1 Y31.088 Z-13.517
G1 Y30.882 Z-13.582
G1 Y30.671 Z-13.634
G1 Y30.457 Z-13.67
G1 Y30.242 Z-13.693
G1 Y30.025 Z-13.7
G1 Y28.525 F800.
G2 X18.177 Y27.525 I-1 J0
G1 X0
G3 X-3.175 Y24.35 I0 J-3.175
G1 Y19.15
G1 Z-9.7
G1 Y2.8
G1 Z-13.7 F600.
G1 Y0 F800.
G3 X-0.582 Y-3.121 I3.175 J0
G2 X143.413 Y-56.342 I-83.425 J-447.124
G3 X145.822 Y-56.659 I1.587 J2.75
G3 X147.75 Y-55.18 I-0.822 J3.067
G1 X152.086 Y-47.669
G1 Z-9.7
G1 X160.261 Y-33.509
G1 Z-13.7 F600.
G1 X162.73 Y-29.233 F800.
G3 X161.568 Y-24.896 I-2.75 J1.587
G1 X154.67 Y-20.913
G3 X152.26 Y-20.596 I-1.588 J-2.75
G2 X152.015 Y-20.454 I-0.052 J0.193
G2 X152.035 Y-20.302 I0.193 J0.052
G2 X152.156 Y-20.209 I0.173 J-0.1
G3 X154.085 Y-18.73 I-0.821 J3.067
G1 X164.351 Y-0.948
G3 X164.668 Y1.461 I-2.75 J1.587
G2 X164.809 Y1.706 I0.193 J0.052
G2 X164.961 Y1.686 I0.052 J-0.193
G2 X165.054 Y1.564 I-0.1 J-0.173
G3 X166.533 Y-0.364 I3.067 J0.822
G1 X173.431 Y-4.347
G3 X175.841 Y-4.664 I1.588 J2.75
G3 X177.769 Y-3.185 I-0.822 J3.067
G1 X182.689 Y5.338
G1 Z-9.7
G1 X190.864 Y19.497
G1 Z-13.7 F600.
G1 X192.75 Y22.762 F800.
G3 X191.588 Y27.1 I-2.75 J1.588
G3 X190 Y27.525 I-1.588 J-2.75
G1 X169.773
G3 X167.528 Y26.595 I0 J-3.175
G2 X167.245 I-0.141 J0.141
G2 X167.186 Y26.736 I0.141 J0.141
G2 X167.245 Y26.878 I0.2 J0
G3 X168.175 Y29.123 I-2.245 J2.245
G1 Y37.05
G3 X165 Y40.225 I-3.175 J0
G1 X125
G3 X121.825 Y37.05 I0 J-3.175
G1 Y29.123
G3 X122.755 Y26.878 I3.175 J0
G2 Y26.595 I-0.141 J-0.141
G2 X122.614 Y26.536 I-0.141 J0.141
G2 X122.472 Y26.595 I0 J0.2
G3 X120.227 Y27.525 I-2.245 J-2.245
G1 X111.765
G1 Z-9.7
G1 X95.415
G1 Z-13.7 F600.
G1 X84.773 F800.
G3 X82.528 Y26.595 I0 J-3.175
G2 X82.245 I-0.141 J0.141
G2 X82.186 Y26.736 I0.141 J0.141
G2 X82.245 Y26.878 I0.2 J0
G3 X83.175 Y29.123 I-2.245 J2.245
G1 Y37.05
G3 X80 Y40.225 I-3.175 J0
G1 X40
G3 X36.825 Y37.05 I0 J-3.175
G1 Y29.123
G3 X37.755 Y26.878 I3.175 J0
G2 Y26.595 I-0.141 J-0.141
G2 X37.472 I-0.141 J0.141
G3 X35.227 Y27.525 I-2.245 J-2.245
G1 X6.177
G2 X5.177 Y28.525 I0 J1
G1 Y30.025
G1 Y30.242 Z-13.693
G1 Y30.457 Z-13.67
G1 Y30.671 Z-13.634
G1 Y30.882 Z-13.582
G1 Y31.088 Z-13.517
G1 Y31.29 Z-13.437
G1 Y31.486 Z-13.344
G1 Y31.675 Z-13.238
G1 Y31.856 Z-13.119
G1 Y32.029 Z-12.988
G1 Y32.192 Z-12.845
G1 Y32.345 Z-12.692
G1 Y32.488 Z-12.529
G1 Y32.619 Z-12.356
G1 Y32.738 Z-12.175
G1 Y32.844 Z-11.986
G1 Y32.937 Z-11.79
G1 Y33.017 Z-11.588
G1 Y33.082 Z-11.382
G1 Y33.134 Z-11.171
G1 Y33.17 Z-10.957
G1 Y33.193 Z-10.742
G1 Y33.2 Z-10.525
G0 Z8

(2D CONTOUR4)
G0 X249.218 Y65.35
G0 Z8
G0 Z7
G1 Z-1.392 F600.
G1 Y65.357 Z-1.608
G1 Y65.38 Z-1.824
G1 Y65.416 Z-2.038
G1 Y65.468 Z-2.248
G1 Y65.533 Z-2.455
G1 Y65.613 Z-2.657
G1 Y65.706 Z-2.852
G1 Y65.812 Z-3.041
G1 Y65.931 Z-3.223
G1 Y66.062 Z-3.395
G1 Y66.205 Z-3.559
G1 Y66.358 Z-3.712
G1 Y66.521 Z-3.855
G1 Y66.694 Z-3.986
G1 Y66.875 Z-4.104
G1 Y67.064 Z-4.211
G1 Y67.26 Z-4.304
G1 Y67.462 Z-4.383
G1 Y67.668 Z-4.449
G1 Y67.879 Z-4.5
G1 Y68.093 Z-4.537
G1 Y68.308 Z-4.559
G1 Y68.525 Z-4.567
G1 Y70.025 F800.
G2 X250.218 Y71.025 I1 J0
G2 X278.793 Y42.45 I0 J-28.575
G2 X250.218 Y13.875 I-28.575 J0
G2 X221.643 Y42.45 I0 J28.575
G2 X250.218 Y71.025 I28.575 J0
G2 X261.868 Y68.542 I0 J-28.575
G2 X262.374 Y67.221 I-0.408 J-0.913
G1 X261.762 Y65.852
G1 X261.674 Y65.654 Z-4.559
G1 X261.586 Y65.457 Z-4.537
G1 X261.499 Y65.262 Z-4.5
G1 X261.413 Y65.069 Z-4.449
G1 X261.329 Y64.881 Z-4.383
G1 X261.246 Y64.697 Z-4.304
G1 X261.167 Y64.518 Z-4.211
G1 X261.09 Y64.345 Z-4.104
G1 X261.016 Y64.18 Z-3.986
G1 X260.945 Y64.022 Z-3.855
G1 X260.879 Y63.873 Z-3.712
G1 X260.816 Y63.733 Z-3.559
G1 X260.758 Y63.603 Z-3.395
G1 X260.705 Y63.483 Z-3.223
G1 X260.656 Y63.375 Z-3.041
G1 X260.613 Y63.278 Z-2.852
G1 X260.575 Y63.193 Z-2.657
G1 X260.542 Y63.12 Z-2.455
G1 X260.516 Y63.06 Z-2.248
G1 X260.495 Y63.013 Z-2.038
G1 X260.48 Y62.98 Z-1.824
G1 X260.471 Y62.959 Z-1.608
G1 X260.468 Y62.953 Z-1.392
G1 X249.218 Y65.35
G1 Z-5.958 F600.
G1 Y65.357 Z-6.175
G1 Y65.38 Z-6.391
G1 Y65.416 Z-6.604
G1 Y65.468 Z-6.815
G1 Y65.533 Z-7.022
G1 Y65.613 Z-7.223
G1 Y65.706 Z-7.419
G1 Y65.812 Z-7.608
G1 Y65.931 Z-7.789
G1 Y66.062 Z-7.962
G1 Y66.205 Z-8.125
G1 Y66.358 Z-8.279
G1 Y66.521 Z-8.421
G1 Y66.694 Z-8.552
G1 Y66.875 Z-8.671
G1 Y67.064 Z-8.777
G1 Y67.26 Z-8.87
G1 Y67.462 Z-8.95
G1 Y67.668 Z-9.016
G1 Y67.879 Z-9.067
G1 Y68.093 Z-9.104
G1 Y68.308 Z-9.126
G1 Y68.525 Z-9.133
G1 Y70.025 F800.
G2 X250.218 Y71.025 I1 J0
G2 X278.793 Y42.45 I0 J-28.575
G2 X250.218 Y13.875 I-28.575 J0
G2 X221.643 Y42.45 I0 J28.575
G2 X250.218 Y71.025 I28.575 J0
G2 X261.868 Y68.542 I0 J-28.575
G2 X262.374 Y67.221 I-0.408 J-0.913
G1 X261.762 Y65.852
G1 X261.674 Y65.654 Z-9.126
G1 X261.586 Y65.457 Z-9.104
G1 X261.499 Y65.262 Z-9.067
G1 X261.413 Y65.069 Z-9.016
G1 X261.329 Y64.881 Z-8.95
G1 X261.246 Y64.697 Z-8.87
G1 X261.167 Y64.518 Z-8.777
G1 X261.09 Y64.345 Z-8.671
G1 X261.016 Y64.18 Z-8.552
G1 X260.945 Y64.022 Z-8.421
G1 X260.879 Y63.873 Z-8.279
G1 X260.816 Y63.733 Z-8.125
G1 X260.758 Y63.603 Z-7.962
G1 X260.705 Y63.483 Z-7.789
G1 X260.656 Y63.375 Z-7.608
G1 X260.613 Y63.278 Z-7.419
G1 X260.575 Y63.193 Z-7.223
G1 X260.542 Y63.12 Z-7.022
G1 X260.516 Y63.06 Z-6.815
G1 X260.495 Y63.013 Z-6.604
G1 X260.48 Y62.98 Z-6.391
G1 X260.471 Y62.959 Z-6.175
G1 X260.468 Y62.953 Z-5.958
G1 X249.218 Y65.35
G1 Z-10.525 F600.
G1 Y65.357 Z-10.742
G1 Y65.38 Z-10.957
G1 Y65.416 Z-11.171
G1 Y65.468 Z-11.382
G1 Y65.533 Z-11.588
G1 Y65.613 Z-11.79
G1 Y65.706 Z-11.986
G1 Y65.812 Z-12.175
G1 Y65.931 Z-12.356
G1 Y66.062 Z-12.529
G1 Y66.205 Z-12.692
G1 Y66.358 Z-12.845
G1 Y66.521 Z-12.988
G1 Y66.694 Z-13.119
G1 Y66.875 Z-13.238
G1 Y67.064 Z-13.344
G1 Y67.26 Z-13.437
G1 Y67.462 Z-13.517
G1 Y67.668 Z-13.582
G1 Y67.879 Z-13.634
G1 Y68.093 Z-13.67
G1 Y68.308 Z-13.693
G1 Y68.525 Z-13.7
G1 Y70.025 F800.
G2 X250.218 Y71.025 I1 J0
G2 X277.415 Y51.216 I0 J-28.575
G1 Z-9.7
G2 X277.769 Y34.87 I-27.197 J-8.766
G1 Z-13.7 F600.
G2 X242.638 Y14.899 I-27.551 J7.58 F800.
G2 X222.804 Y34.388 I7.58 J27.551
G1 Z-9.7
G2 X222.871 Y50.738 I27.414 J8.062
G1 Z-13.7 F600.
G2 X238.35 Y68.444 I27.347 J-8.288 F800.
G2 X261.868 Y68.542 I11.868 J-25.994
G2 X262.374 Y67.221 I-0.408 J-0.913
G1 X261.762 Y65.852
G1 X261.674 Y65.654 Z-13.693
G1 X261.586 Y65.457 Z-13.67
G1 X261.499 Y65.262 Z-13.634
G1 X261.413 Y65.069 Z-13.582
G1 X261.329 Y64.881 Z-13.517
G1 X261.246 Y64.697 Z-13.437
G1 X261.167 Y64.518 Z-13.344
G1 X261.09 Y64.345 Z-13.238
G1 X261.016 Y64.18 Z-13.119
G1 X260.945 Y64.022 Z-12.988
G1 X260.879 Y63.873 Z-12.845
G1 X260.816 Y63.733 Z-12.692
G1 X260.758 Y63.603 Z-12.529
G1 X260.705 Y63.483 Z-12.356
G1 X260.656 Y63.375 Z-12.175
G1 X260.613 Y63.278 Z-11.986
G1 X260.575 Y63.193 Z-11.79
G1 X260.542 Y63.12 Z-11.588
G1 X260.516 Y63.06 Z-11.382
G1 X260.495 Y63.013 Z-11.171
G1 X260.48 Y62.98 Z-10.957
G1 X260.471 Y62.959 Z-10.742
G1 X260.468 Y62.953 Z-10.525
G0 Z8

(2D CONTOUR5)
G0 X284.305 Y96.3
G0 Z8
G0 Z7
G1 Z-1.392 F600.
G1 Y96.293 Z-1.608
G1 Y96.27 Z-1.824
G1 Y96.234 Z-2.038
G1 Y96.182 Z-2.248
G1 Y96.117 Z-2.455
G1 Y96.037 Z-2.657
G1 Y95.944 Z-2.852
G1 Y95.838 Z-3.041
G1 Y95.719 Z-3.223
G1 Y95.588 Z-3.395
G1 Y95.445 Z-3.559
G1 Y95.292 Z-3.712
G1 Y95.129 Z-3.855
G1 Y94.956 Z-3.986
G1 Y94.775 Z-4.104
G1 Y94.586 Z-4.211
G1 Y94.39 Z-4.304
G1 Y94.188 Z-4.383
G1 Y93.982 Z-4.449
G1 Y93.771 Z-4.5
G1 Y93.557 Z-4.537
G1 Y93.342 Z-4.559
G1 Y93.125 Z-4.567
G1 Y91.625 F800.
G2 X283.305 Y90.625 I-1 J0
G1 X267.649
G3 X265.404 Y89.695 I0 J-3.175
G2 X265.121 I-0.141 J0.141
G2 Y89.978 I0.141 J0.141
G3 X266.051 Y92.223 I-2.245 J2.245
G1 Y100.15
G3 X262.876 Y103.325 I-3.175 J0
G1 X232.876
G3 X229.701 Y100.15 I0 J-3.175
G1 Y92.223
G3 X230.631 Y89.978 I3.175 J0
G2 Y89.695 I-0.141 J-0.141
G2 X230.49 Y89.636 I-0.141 J0.141
G2 X230.348 Y89.695 I0 J0.2
G3 X228.103 Y90.625 I-2.245 J-2.245
G1 X202.876
G3 X199.701 Y87.45 I0 J-3.175
G1 Y-2.55
G3 X202.876 Y-5.725 I3.175 J0
G1 X228.103
G3 X230.348 Y-4.795 I0 J3.175
G2 X230.631 I0.141 J-0.141
G2 X230.69 Y-4.936 I-0.141 J-0.141
G2 X230.631 Y-5.078 I-0.2 J0
G3 X229.701 Y-7.323 I2.245 J-2.245
G1 Y-15.25
G3 X232.876 Y-18.425 I3.175 J0
G1 X262.876
G3 X266.051 Y-15.25 I0 J3.175
G1 Y-7.323
G3 X265.121 Y-5.078 I-3.175 J0
G2 Y-4.795 I0.141 J0.141
G2 X265.404 I0.141 J-0.141
G3 X267.649 Y-5.725 I2.245 J2.245
G1 X300.208
G3 X303.383 Y-2.55 I0 J3.175
G1 Y87.45
G3 X300.208 Y90.625 I-3.175 J0
G1 X283.305
G1 X271.305
G2 X270.305 Y91.625 I0 J1
G1 Y93.125
G1 Y93.342 Z-4.559
G1 Y93.557 Z-4.537
G1 Y93.771 Z-4.5
G1 Y93.982 Z-4.449
G1 Y94.188 Z-4.383
G1 Y94.39 Z-4.304
G1 Y94.586 Z-4.211
G1 Y94.775 Z-4.104
G1 Y94.956 Z-3.986
G1 Y95.129 Z-3.855
G1 Y95.292 Z-3.712
G1 Y95.445 Z-3.559
G1 Y95.588 Z-3.395
G1 Y95.719 Z-3.223
G1 Y95.838 Z-3.041
G1 Y95.944 Z-2.852
G1 Y96.037 Z-2.657
G1 Y96.117 Z-2.455
G1 Y96.182 Z-2.248
G1 Y96.234 Z-2.038
G1 Y96.27 Z-1.824
G1 Y96.293 Z-1.608
G1 Y96.3 Z-1.392
G1 X284.305
G1 Z-5.958 F600.
G1 Y96.293 Z-6.175
G1 Y96.27 Z-6.391
G1 Y96.234 Z-6.604
G1 Y96.182 Z-6.815
G1 Y96.117 Z-7.022
G1 Y96.037 Z-7.223
G1 Y95.944 Z-7.419
G1 Y95.838 Z-7.608
G1 Y95.719 Z-7.789
G1 Y95.588 Z-7.962
G1 Y95.445 Z-8.125
G1 Y95.292 Z-8.279
G1 Y95.129 Z-8.421
G1 Y94.956 Z-8.552
G1 Y94.775 Z-8.671
G1 Y94.586 Z-8.777
G1 Y94.39 Z-8.87
G1 Y94.188 Z-8.95
G1 Y93.982 Z-9.016
G1 Y93.771 Z-9.067
G1 Y93.557 Z-9.104
G1 Y93.342 Z-9.126
G1 Y93.125 Z-9.133
G1 Y91.625 F800.
G2 X283.305 Y90.625 I-1 J0
G1 X267.649
G3 X265.404 Y89.695 I0 J-3.175
G2 X265.121 I-0.141 J0.141
G2 Y89.978 I0.141 J0.141
G3 X266.051 Y92.223 I-2.245 J2.245
G1 Y100.15
G3 X262.876 Y103.325 I-3.175 J0
G1 X232.876
G3 X229.701 Y100.15 I0 J-3.175
G1 Y92.223
G3 X230.631 Y89.978 I3.175 J0
G2 Y89.695 I-0.141 J-0.141
G2 X230.49 Y89.636 I-0.141 J0.141
G2 X230.348 Y89.695 I0 J0.2
G3 X228.103 Y90.625 I-2.245 J-2.245
G1 X202.876
G3 X199.701 Y87.45 I0 J-3.175
G1 Y-2.55
G3 X202.876 Y-5.725 I3.175 J0
G1 X228.103
G3 X230.348 Y-4.795 I0 J3.175
G2 X230.631 I0.141 J-0.141
G2 X230.69 Y-4.936 I-0.141 J-0.141
G2 X230.631 Y-5.078 I-0.2 J0
G3 X229.701 Y-7.323 I2.245 J-2.245
G1 Y-15.25
G3 X232.876 Y-18.425 I3.175 J0
G1 X262.876
G3 X266.051 Y-15.25 I0 J3.175
G1 Y-7.323
G3 X265.121 Y-5.078 I-3.175 J0
G2 Y-4.795 I0.141 J0.141
G2 X265.404 I0.141 J-0.141
G3 X267.649 Y-5.725 I2.245 J2.245
G1 X300.208
G3 X303.383 Y-2.55 I0 J3.175
G1 Y87.45
G3 X300.208 Y90.625 I-3.175 J0
G1 X283.305
G1 X271.305
G2 X270.305 Y91.625 I0 J1
G1 Y93.125
G1 Y93.342 Z-9.126
G1 Y93.557 Z-9.104
G1 Y93.771 Z-9.067
G1 Y93.982 Z-9.016
G1 Y94.188 Z-8.95
G1 Y94.39 Z-8.87
G1 Y94.586 Z-8.777
G1 Y94.775 Z-8.671
G1 Y94.956 Z-8.552
G1 Y95.129 Z-8.421
G1 Y95.292 Z-8.279
G1 Y95.445 Z-8.125
G1 Y95.588 Z-7.962
G1 Y95.719 Z-7.789
G1 Y95.838 Z-7.608
G1 Y95.944 Z-7.419
G1 Y96.037 Z-7.223
G1 Y96.117 Z-7.022
G1 Y96.182 Z-6.815
G1 Y96.234 Z-6.604
G1 Y96.27 Z-6.391
G1 Y96.293 Z-6.175
G1 Y96.3 Z-5.958
G1 X284.305
G1 Z-10.525 F600.
G1 Y96.293 Z-10.742
G1 Y96.27 Z-10.957
G1 Y96.234 Z-11.171
G1 Y96.182 Z-11.382
G1 Y96.117 Z-11.588
G1 Y96.037 Z-11.79
G1 Y95.944 Z-11.986
G1 Y95.838 Z-12.175
G1 Y95.719 Z-12.356
G1 Y95.588 Z-12.529
G1 Y95.445 Z-12.692
G1 Y95.292 Z-12.845
G1 Y95.129 Z-12.988
G1 Y94.956 Z-13.119
G1 Y94.775 Z-13.238
G1 Y94.586 Z-13.344
G1 Y94.39 Z-13.437
G1 Y94.188 Z-13.517
G1 Y93.982 Z-13.582
G1 Y93.771 Z-13.634
G1 Y93.557 Z-13.67
G1 Y93.342 Z-13.693
G1 Y93.125 Z-13.7
G1 Y91.625 F800.
G2 X283.305 Y90.625 I-1 J0
G1 X267.649
G3 X265.404 Y89.695 I0 J-3.175
G2 X265.121 I-0.141 J0.141
G2 Y89.978 I0.141 J0.141
G3 X266.051 Y92.223 I-2.245 J2.245
G1 Y100.15
G3 X262.876 Y103.325 I-3.175 J0
G1 X232.876
G3 X229.701 Y100.15 I0 J-3.175
G1 Y92.223
G3 X230.631 Y89.978 I3.175 J0
G2 Y89.695 I-0.141 J-0.141
G2 X230.49 Y89.636 I-0.141 J0.141
G2 X230.348 Y89.695 I0 J0.2
G3 X228.103 Y90.625 I-2.245 J-2.245
G1 X202.876
G3 X199.854 Y88.425 I0 J-3.175
G1 Z-9.7
G3 X199.701 Y87.45 I3.022 J-0.975
G1 Y72.075
G1 Z-13.7 F600.
G1 Y54.622 F800.
G1 Z-9.7
G1 Y38.272
G1 Z-13.7 F600.
G1 Y-2.55 F800.
G3 X202.876 Y-5.725 I3.175 J0
G1 X228.103
G3 X230.348 Y-4.795 I0 J3.175
G2 X230.631 I0.141 J-0.141
G2 X230.69 Y-4.936 I-0.141 J-0.141
G2 X230.631 Y-5.078 I-0.2 J0
G3 X229.701 Y-7.323 I2.245 J-2.245
G1 Y-15.25
G3 X232.876 Y-18.425 I3.175 J0
G1 X262.876
G3 X266.051 Y-15.25 I0 J3.175
G1 Y-7.323
G3 X265.121 Y-5.078 I-3.175 J0
G2 Y-4.795 I0.141 J0.141
G2 X265.404 I0.141 J-0.141
G3 X267.649 Y-5.725 I2.245 J2.245
G1 X300.208
G3 X303.383 Y-2.55 I0 J3.175
G1 Y3.137
G1 Z-9.7
G1 Y19.487
G1 Z-13.7 F600.
G1 Y65.077 F800.
G1 Z-9.7
G1 Y81.427
G1 Z-13.7 F600.
G1 Y87.45 F800.
G3 X300.208 Y90.625 I-3.175 J0
G1 X271.305
G2 X270.305 Y91.625 I0 J1
G1 Y93.125
G1 Y93.342 Z-13.693
G1 Y93.557 Z-13.67
G1 Y93.771 Z-13.634
G1 Y93.982 Z-13.582
G1 Y94.188 Z-13.517
G1 Y94.39 Z-13.437
G1 Y94.586 Z-13.344
G1 Y94.775 Z-13.238
G1 Y94.956 Z-13.119
G1 Y95.129 Z-12.988
G1 Y95.292 Z-12.845
G1 Y95.445 Z-12.692
G1 Y95.588 Z-12.529
G1 Y95.719 Z-12.356
G1 Y95.838 Z-12.175
G1 Y95.944 Z-11.986
G1 Y96.037 Z-11.79
G1 Y96.117 Z-11.588
G1 Y96.182 Z-11.382
G1 Y96.234 Z-11.171
G1 Y96.27 Z-10.957
G1 Y96.293 Z-10.742
G1 Y96.3 Z-10.525
G0 Z8

G0 Z8
M5
M30
