(METICULOUSSLED_PLYWOODDUSTCHUTE_0125INACRYLIC_0250-1FL)
(18 ACRYLIC PART FOR THE METICULOUS Z-AXIS PLYWOOD DUST CHUTE. T1 = 14 1 FLUTE FLAT END MILL, T5 = 316 DRILL. PROGRAMMED 2242019 BY BRYAN MAYNARD.)
(T1  D=6.35 CR=0 - ZMIN=-4.175 - FLAT END MILL)
G0 G40 G90 G17
G21

(2D CONTOUR6)
T1 M6
M3 S12000
G0 X-2.338 Y9.416
G0 Z8
G0 Z7
G1 Z-1 F600.
G1 X-2.339 Y9.423 Z-1.217
G1 X-2.342 Y9.445 Z-1.432
G1 X-2.347 Y9.482 Z-1.646
G1 X-2.354 Y9.532 Z-1.857
G1 X-2.363 Y9.597 Z-2.063
G1 X-2.375 Y9.676 Z-2.265
G1 X-2.388 Y9.768 Z-2.461
G1 X-2.402 Y9.873 Z-2.65
G1 X-2.419 Y9.991 Z-2.831
G1 X-2.437 Y10.121 Z-3.004
G1 X-2.457 Y10.262 Z-3.167
G1 X-2.479 Y10.414 Z-3.32
G1 X-2.501 Y10.576 Z-3.463
G1 X-2.526 Y10.747 Z-3.594
G1 X-2.551 Y10.926 Z-3.713
G1 X-2.577 Y11.113 Z-3.819
G1 X-2.605 Y11.307 Z-3.912
G1 X-2.633 Y11.507 Z-3.992
G1 X-2.662 Y11.711 Z-4.057
G1 X-2.691 Y11.92 Z-4.109
G1 X-2.721 Y12.132 Z-4.145
G1 X-2.751 Y12.345 Z-4.168
G1 X-2.781 Y12.56 Z-4.175
G1 X-2.991 Y14.045 F800.
G2 X-2.14 Y15.175 I0.99 J0.14
G2 X13.11 Y7.935 I2.14 J-15.175
G1 Z-2.175
G2 X13.929 Y-6.391 I-13.11 J-7.935
G1 Z-4.175 F600.
G2 X-6.391 Y-13.929 I-13.929 J6.391 F800.
G2 X-13.868 Y-6.523 I6.391 J13.929
G1 Z-2.175
G2 X-13.185 Y7.811 I13.868 J6.523
G1 Z-4.175 F600.
G2 X-2.992 Y15.03 I13.185 J-7.811 F800.
G2 X9.188 Y12.265 I2.992 J-15.03
G2 X9.389 Y10.865 I-0.6 J-0.8
G1 X8.489 Y9.665
G1 X8.36 Y9.491 Z-4.168
G1 X8.23 Y9.319 Z-4.145
G1 X8.102 Y9.148 Z-4.109
G1 X7.976 Y8.979 Z-4.057
G1 X7.852 Y8.814 Z-3.992
G1 X7.731 Y8.653 Z-3.912
G1 X7.614 Y8.496 Z-3.819
G1 X7.5 Y8.345 Z-3.713
G1 X7.392 Y8.199 Z-3.594
G1 X7.288 Y8.061 Z-3.463
G1 X7.19 Y7.93 Z-3.32
G1 X7.098 Y7.808 Z-3.167
G1 X7.013 Y7.694 Z-3.004
G1 X6.934 Y7.589 Z-2.831
G1 X6.863 Y7.494 Z-2.65
G1 X6.799 Y7.409 Z-2.461
G1 X6.743 Y7.334 Z-2.265
G1 X6.696 Y7.271 Z-2.063
G1 X6.656 Y7.218 Z-1.857
G1 X6.626 Y7.177 Z-1.646
G1 X6.604 Y7.147 Z-1.432
G1 X6.59 Y7.13 Z-1.217
G1 X6.586 Y7.124 Z-1
G0 Z8

(2D CONTOUR7)
G0 X19.093 Y76.149
G0 Z8
G0 Z7
G1 Z-0.5 F600.
G1 X19.091 Y76.142 Z-0.717
G1 X19.086 Y76.121 Z-0.932
G1 X19.077 Y76.085 Z-1.146
G1 X19.066 Y76.035 Z-1.357
G1 X19.05 Y75.971 Z-1.563
G1 X19.032 Y75.894 Z-1.765
G1 X19.011 Y75.803 Z-1.961
G1 X18.986 Y75.7 Z-2.15
G1 X18.959 Y75.584 Z-2.331
G1 X18.928 Y75.456 Z-2.504
G1 X18.895 Y75.318 Z-2.667
G1 X18.86 Y75.169 Z-2.82
G1 X18.822 Y75.01 Z-2.963
G1 X18.782 Y74.842 Z-3.094
G1 X18.741 Y74.665 Z-3.213
G1 X18.697 Y74.481 Z-3.319
G1 X18.652 Y74.291 Z-3.412
G1 X18.605 Y74.095 Z-3.492
G1 X18.558 Y73.894 Z-3.557
G1 X18.509 Y73.689 Z-3.609
G1 X18.46 Y73.481 Z-3.645
G1 X18.41 Y73.271 Z-3.668
G1 X18.36 Y73.06 Z-3.675
G1 X18.014 Y71.601 F800.
G2 X17.565 Y70.98 I-0.973 J0.231
G2 X16.81 Y70.858 I-0.525 J0.851
G3 X-31.136 Y65.834 I-16.81 J-70.858
G1 Z-1.675
G3 X-43.44 Y58.45 I31.136 J-65.834
G1 Z-3.675 F600.
G3 X-58.713 Y-43.084 I43.44 J-58.45 F800.
G1 Z-1.675
G3 X-49.125 Y-53.76 I58.713 J43.084
G1 Z-3.675 F600.
G3 X41.097 Y-60.121 I49.125 J53.76 F800.
G3 X42.48 Y-57.5 I-1.792 J2.621
G1 Y-1.927
G1 Z-1.675
G1 Y12.423
G1 Z-3.675 F600.
G1 Y57.5 F800.
G3 X41.097 Y60.121 I-3.175 J0
G3 X4.959 Y72.656 I-41.097 J-60.121
G2 X4.273 Y72.996 I0.068 J0.998
G2 X4.029 Y73.722 I0.754 J0.657
G1 X4.131 Y75.218
G1 X4.146 Y75.434 Z-3.668
G1 X4.161 Y75.65 Z-3.645
G1 X4.175 Y75.863 Z-3.609
G1 X4.19 Y76.073 Z-3.557
G1 X4.204 Y76.279 Z-3.492
G1 X4.218 Y76.48 Z-3.412
G1 X4.231 Y76.676 Z-3.319
G1 X4.244 Y76.864 Z-3.213
G1 X4.256 Y77.045 Z-3.094
G1 X4.268 Y77.217 Z-2.963
G1 X4.279 Y77.38 Z-2.82
G1 X4.289 Y77.533 Z-2.667
G1 X4.299 Y77.675 Z-2.504
G1 X4.308 Y77.806 Z-2.331
G1 X4.316 Y77.925 Z-2.15
G1 X4.323 Y78.031 Z-1.961
G1 X4.33 Y78.124 Z-1.765
G1 X4.335 Y78.203 Z-1.563
G1 X4.34 Y78.268 Z-1.357
G1 X4.343 Y78.32 Z-1.146
G1 X4.346 Y78.356 Z-0.932
G1 X4.347 Y78.379 Z-0.717
G1 X4.348 Y78.386 Z-0.5
G0 Z8

G0 Z8
M5
M30
